lesl-i-e/kenya-sme-distress-ml/streamlit/data/raw/Nigeria-2014-full-data.csv
idstd,id,a0,a1,a1a,a2,a3a,a3b,a3c,a3,a4b,a5,a6a,a6b,a7,a7a,a8,a9,a10,a11,a12,a13,a14d,a14m,a14y,a14h,a14min,ngb1,b1,b1x,b3,b2a,b2b,b2c,b2d,b4,b4a,b5,b6,b6a,b6b,b7,b7a,ngb7,ngb8,b8,b8x,c3,c4,c5,c6,c7,c8a,c8b,c9a,c9b,c10,c11,c12,c13,c14,c15,c16,c17,c22a,c22b,c30a,c30b,d1a1x,d1a2,d1a3,ngd1a4,d3a,d3b,d3c,d4,d6,d7,d8,ngd9,d10,d11,d12a,d12b,d13,d14,d16,d17,d30a,d30b,e1,e2b,nge2,nge4,nge5,nge6,nge7,nge8,nge9,e6,e11,e30,h1,h2,h3,h4a,h4b,h5,h6,h7,h8,f1,ngf1,ngf1a,ngf1b,f2,ngf2,ngf3,g6a,g6b,g6c,g1a,g1b,g1c,g2,g3,g4,g5a,g5b,g5bx,g30a,i1,i2a,i2b,i3,i4a,i4b,i30,k1c,k2c,k3a,k3bc,k3e,k3f,k3hd,k3hdx,k4,n5a,n5b,k5a,k5i,k5bc,k5e,k5f,k5hdj,k5hdJx,k6,k7,ngk_7a,k8,k9,k9a,k9ax,k10,k11,k13,k14a,k14b,k14c,k14d,k14e,k15a,k15b,k15c,k15d,k16,k17,k20a,k21,ngk_21a,ngK_21b,ngk_21bx,k30,h7a,j2,j3,j4,j5,ngj5,j6a,j6,j7a,j7b,ngj8,j10,j11,j12,j13,j14,j15,j30a,j30b,j30c,j30e,j30f,h30,l1,l2,l3a,l3b,l4a,l4b,ngl_4a,l5a,l5b,l5,l6,l6a,l8,l9a,l9a2,l9b,l10,l11a,l11b,ngl13,ngl14,ngl15a,ngl15b,ngl15c,ngl15d,ngl15e,ngl16,ngl17,ngl18,ngl19,ngl19x,ngl20,ngl21,ngl22,ngl22x,ngl23,ngl24,ngl25,ngl25b,ngl26,ngl27,ngl28,ngl29a,ngl29b,ngl30,ngl31,ngl32,ngl33,ngl33x,ngl34,ngl34x,ngl35,ngl36a,ngl36,ngl37,ngl38,l30a,nl30a,nl30b,l30b,m1a,m1d,ngn8a,ngn8b,ngn8c,ngn8d,ngn8e,ngn8f,ngn8g,ngm2,nn2g,nn2h,nn2,n6a,n6b,n7a,n7b,a15a2a,a15a3,a15a2b,a15b3,a15a2c,a15c3,a15d,a15m,a15y,a15h,a15min,a16,a17,a18,a19h,a19m,wstrict,wmedian,wweak,d2,d2x,n3,n2a,n2e,n2f,n2b,n2ra,n2rb,n2i,n2j,a4a,panel,strata
586989,156,3,1,1,2,2,1,2,2,55,1,2,2,1,1.0,2,-7,-7,1,4,1.0,9.0,10,2014,10.0,20.0,3,2,,50.0,50,0,20,30,2.0,,2000.0,25.0,1.0,2000.0,8.0,2.0,8.0,3.0,-9.0,,2.0,,,1.0,12.0,-9.0,-9.0,40.0,,1.0,45.0,2.0,,,,,,1.0,1.0,4.0,3.0,hotel and restaurant,5510,100.0,,100.0,0.0,0.0,,,,,,-7.0,,,,,,,,2.0,2.0,,,2.0,2.0,3.0,-9.0,4.0,Does not apply,5.0,,2.0,1.0,1.0,-9.0,1.0,1.0,1.0,1.0,1.0,2.0,1.0,,50.0,50.0,,,24.0,1.0,100.0,0.0,0.0,100.0,0.0,0.0,2.0,,,,,,2.0,1.0,20.0,,2.0,,,1.0,0.0,0.0,0.0,0.0,0.0,0.0,100.0,relative/friends,1.0,3000000.0,0.0,0.0,0.0,0.0,0.0,0.0,100.0,marketing,1.0,,2.0,2.0,,,,,,,,,,,,,,,2.0,2.0,1.0,,1.0,2.0,,,2.0,3.0,-9.0,1.0,1.0,1.0,,2.0,,0.0,,0.0,2.0,,,2.0,,,3.0,3.0,2.0,3.0,4.0,2.0,20.0,16.0,,,,,,,,11.0,0.0,,,,,-9.0,2.0,,,0.0,-9.0,1.0,1.0,2.0,1.0,1.0,2.0,,2.0,,,,2.0,,,,2.0,,,,4.0,1.0,1.0,1.0,1.0,2.0,-9.0,,,,,,1.0,2.0,2.0,2.0,2.0,,,2.0,8.0,3,2.0,2.0,2.0,2.0,2.0,2.0,2.0,2.0,,,,,,,,7.0,1.0,,,,,9.0,10,2014,14.0,37.0,1.0,4.0,3,2.0,37.0,8.926042,8.879088,11.703628,18000000.0,eighteen million,60000000.0,3000000.0,,,120000.0,,,,,11,0.0,54.0
586990,15105,2,1,1,8,8,2,1,2,50,2,1,1,2,,-7,-7,-7,-7,11,12.0,5.0,11,2014,10.0,26.0,3,3,,,100,0,0,0,2.0,,2008.0,6.0,1.0,2008.0,7.0,2.0,7.0,1.0,2.0,,1.0,7.0,2.0,1.0,100.0,4.0,15.0,80.0,,1.0,80.0,2.0,,,,,,2.0,2.0,3.0,2.0,petroleum service,5050,100.0,,100.0,0.0,0.0,,,,,,-7.0,,,,,,,7.0,2.0,2.0,,,3.0,2.0,2.0,2.0,7.0,lagos,5.0,,2.0,3.0,1.0,1.0,1.0,1.0,2.0,1.0,1.0,2.0,1.0,,100.0,100.0,,,98.0,1.0,100.0,0.0,0.0,100.0,0.0,0.0,2.0,,,12.0,3.0,,0.0,1.0,5.0,,2.0,,,0.0,10.0,0.0,100.0,0.0,0.0,0.0,0.0,None,2.0,,,0.0,0.0,0.0,0.0,0.0,,Cooperative,1.0,,2.0,2.0,,,,,,,,,,,,,,,2.0,2.0,2.0,,2.0,2.0,,,0.0,4.0,50.0,1.0,1.0,2.0,2.0,,0.0,0.0,,10.0,2.0,,,1.0,14.0,2.0,3.0,2.0,2.0,2.0,3.0,2.0,5.0,6.0,,,,,,,,2.0,0.0,,,,,100.0,2.0,,,0.0,0.0,2.0,2.0,2.0,2.0,2.0,2.0,,2.0,,,,2.0,,,,2.0,,,,1.0,1.0,2.0,2.0,2.0,4.0,100.0,,,,,100.0,2.0,,-7.0,-7.0,0.0,,,0.0,12.0,3,2.0,2.0,2.0,2.0,2.0,2.0,2.0,0.0,,,,,,,,7.0,1.0,,,,,5.0,11,2014,11.0,45.0,1.0,4.0,1,,,40.147404,40.37781,69.70338,35000000.0,thirty-five million,4.0,500000.0,,,120000.0,,,200000.0,,10,0.0,239.0
586991,15154,2,1,1,7,7,1,2,3,15,1,1,1,2,,-7,-7,-7,-7,84,5.0,19.0,9,2014,13.0,55.0,3,3,,,-9,-9,-9,-9,1.0,100.0,2000.0,-9.0,2.0,-9.0,12.0,2.0,2.0,1.0,-9.0,,2.0,,,1.0,18.0,14.0,25.0,-9.0,,2.0,,2.0,,,,,,2.0,2.0,3.0,2.0,bread,1541,90.0,,-9.0,-9.0,-9.0,,,,-9.0,2.0,-7.0,,,,,,,5.0,2.0,-7.0,,,4.0,2.0,3.0,4.0,8.0,ibadan,5.0,,-9.0,2.0,-9.0,,1.0,2.0,2.0,-9.0,2.0,2.0,-9.0,,20.0,20.0,,,20.0,1.0,40.0,40.0,20.0,40.0,30.0,30.0,2.0,,,-9.0,,,2.0,2.0,,,2.0,,,-7.0,-9.0,60.0,20.0,20.0,20.0,20.0,20.0,family member,2.0,,,0.0,0.0,0.0,0.0,0.0,,self,1.0,,2.0,2.0,,,,,,,,,,,,,,,2.0,2.0,1.0,,2.0,2.0,,,1.0,3.0,-9.0,2.0,,,2.0,,-9.0,0.0,,-9.0,2.0,,,2.0,,,3.0,-7.0,2.0,-7.0,-7.0,-9.0,6.0,-9.0,,,,,,,,-9.0,-9.0,,,,,-9.0,2.0,,,-9.0,-9.0,1.0,1.0,1.0,1.0,1.0,2.0,,2.0,,,,2.0,,,,2.0,,,,-7.0,-9.0,1.0,-9.0,5.0,-9.0,-9.0,,,,,,2.0,,1.0,-9.0,2.0,,,1.0,-9.0,2,1.0,-7.0,-7.0,2.0,2.0,2.0,1.0,2.0,,,,,,,,3.0,1.0,,,,,19.0,9,2014,15.0,21.0,2.0,1.0,1,,,10.247095,10.743825,14.453217,400000.0,four hundred thousand,200000.0,70000.0,,,30000.0,,,40.0,,2,0.0,193.0
586992,15209,1,1,1,6,6,2,2,2,36,1,1,1,2,,-7,-7,-7,-7,6,7.0,20.0,12,2014,10.0,57.0,3,3,,,100,0,0,0,2.0,,2009.0,6.0,2.0,2011.0,6.0,2.0,4.0,1.0,2.0,,2.0,,,1.0,100.0,2.0,30.0,70.0,,1.0,70.0,2.0,,,-7.0,,,2.0,2.0,3.0,2.0,manufacturing of chairs,3610,100.0,2.0,100.0,0.0,0.0,,,,,,0.0,0.0,100.0,0.0,,,5.0,,1.0,3.0,2.0,-4.0,3.0,2.0,3.0,3.0,6.0,kaduna,5.0,2.0,-9.0,2.0,1.0,1.0,1.0,1.0,2.0,1.0,2.0,2.0,2.0,100.0,,,100.0,84.0,,1.0,0.0,100.0,0.0,0.0,100.0,0.0,2.0,,,,,,1.0,1.0,3.0,,2.0,,,0.0,3.0,0.0,100.0,0.0,0.0,0.0,0.0,0,2.0,,,,,,,,,,1.0,,,2.0,,,,,,,,,,,,,,,2.0,2.0,1.0,,2.0,2.0,,,1.0,3.0,20.0,1.0,1.0,2.0,2.0,2.0,,0.0,,5.0,2.0,,,1.0,30.0,2.0,3.0,3.0,2.0,3.0,3.0,2.0,5.0,6.0,5.0,0.0,5.0,0.0,4.0,0.0,0.0,,0.0,,,6.0,-7.0,3.0,2.0,,,0.0,1.0,1.0,2.0,2.0,2.0,2.0,2.0,,2.0,,,,2.0,,,,2.0,,,,4.0,4.0,1.0,2.0,1.0,2.0,,,,,,,1.0,1.0,3.0,-7.0,2.0,,,2.0,8.0,2,2.0,2.0,2.0,2.0,2.0,2.0,2.0,2.0,,,,,,30000.0,50000.0,6.0,1.0,,,,,,12,2014,0.0,0.0,13638412800.0,44000.798,1,,,15.850579,15.790439,23.360249,350000.0,three hundred and fifty thousand,100000.0,100000.0,100000.0,90000.0,45000.0,30000.0,50000.0,,10000.0,3,0.0,153.0
586993,15220,1,1,1,6,6,2,2,2,19,1,1,1,2,,-7,-7,-7,-7,13,18.0,25.0,7,2014,11.0,4.0,3,3,,,100,0,0,0,2.0,,2000.0,6.0,2.0,2005.0,14.0,2.0,4.0,1.0,2.0,,2.0,,,2.0,,,,,,2.0,,2.0,,,2.0,,,2.0,2.0,3.0,1.0,Shoe making and repairs,1920,90.0,2.0,70.0,25.0,5.0,14.0,0.0,0.0,2005.0,2.0,0.0,0.0,70.0,30.0,2.0,,30.0,,2.0,3.0,1.0,-4.0,4.0,2.0,3.0,3.0,10.0,Kano,5.0,1.0,1.0,2.0,1.0,1.0,1.0,1.0,1.0,1.0,1.0,2.0,2.0,-9.0,,,85.0,56.0,,2.0,100.0,0.0,0.0,100.0,0.0,0.0,2.0,,,,,,0.0,2.0,,,2.0,,,0.0,45.0,20.0,35.0,35.0,25.0,5.0,0.0,None,2.0,,,0.0,0.0,0.0,0.0,0.0,,Savings,1.0,,,2.0,,,,,,,,,,,,,,,2.0,2.0,3.0,,2.0,2.0,,,3.0,3.0,0.0,1.0,5.0,2.0,2.0,2.0,,-8.0,,-8.0,2.0,,,2.0,,,3.0,2.0,2.0,3.0,3.0,0.0,6.0,6.0,6.0,0.0,6.0,0.0,6.0,0.0,0.0,,0.0,,,85.0,85.0,85.0,1.0,100.0,0.0,0.0,1.0,1.0,1.0,1.0,1.0,1.0,2.0,,2.0,,,,2.0,,,,2.0,,,,1.0,1.0,1.0,1.0,5.0,1.0,,6.0,poor economy,,,,2.0,,-7.0,1.0,1.0,,,3.0,8.0,3,2.0,2.0,2.0,2.0,2.0,2.0,2.0,4.0,,,,,,15000000.0,-9.0,14.0,1.0,,,,,25.0,7,2014,11.0,40.0,1.0,4.0,1,,,4.447879,4.4310026,6.9228077,2000000.0,two million,2.0,350000.0,500000.0,25000.0,12000.0,25000.0,250000.0,,0.0,7,0.0,156.0
586994,15249,2,1,1,7,7,1,1,5,62,2,0,1,2,,-7,-7,-7,-7,48,5.0,7.0,8,2014,11.0,28.0,1,3,,,100,0,0,0,2.0,,2001.0,-9.0,1.0,2001.0,5.0,2.0,7.0,-9.0,1.0,corporate affair commission,2.0,,,1.0,-9.0,,,-9.0,,1.0,100.0,2.0,,,,,,1.0,1.0,4.0,4.0,AIRLINE,6210,100.0,,70.0,0.0,30.0,,,,-9.0,-9.0,2.0,3.0,,,,,,2.0,4.0,4.0,,,3.0,2.0,2.0,1.0,-9.0,Does not apply,5.0,,2.0,-7.0,1.0,2.0,1.0,1.0,1.0,2.0,2.0,2.0,2.0,,100.0,100.0,,,64.0,1.0,0.0,100.0,0.0,0.0,100.0,0.0,2.0,,,-9.0,,,4.0,1.0,8.0,,2.0,,,3.0,0.0,0.0,100.0,0.0,0.0,0.0,0.0,None,2.0,,,0.0,0.0,0.0,0.0,0.0,,Relatives,1.0,,2.0,2.0,,,,,,,,,,,,,,,2.0,2.0,1.0,,2.0,2.0,,,4.0,3.0,10.0,1.0,2.0,2.0,-8.0,,-8.0,10.0,,5.0,2.0,,,2.0,,,3.0,3.0,4.0,3.0,3.0,3.0,5.0,5.0,,,,,,,,2.0,5.0,2.0,-9.0,,,-9.0,2.0,,,5.0,0.0,-9.0,2.0,2.0,2.0,2.0,2.0,,2.0,,,,2.0,,,,2.0,,,,1.0,1.0,2.0,2.0,5.0,4.0,25.0,1.0,,,,-9.0,1.0,-7.0,3.0,1.0,2.0,,,3.0,1.0,3,2.0,2.0,2.0,2.0,2.0,2.0,2.0,3.0,,,,,,,,4.0,1.0,,,,,7.0,8,2014,12.0,26.0,1.0,1.0,1,,,37.248867,38.713924,57.22207,12000000.0,twelve million,-9.0,4000000.0,,,150000.0,,,-9.0,,13,0.0,204.0
586995,15250,2,1,1,7,7,2,1,4,52,1,0,0,2,,-7,-7,-7,-7,11,1.0,29.0,10,2014,10.0,47.0,2,4,,85.0,100,0,0,0,2.0,,2012.0,1.0,2.0,-9.0,2.0,2.0,4.0,1.0,2.0,,2.0,,,2.0,,,,,,2.0,,2.0,,,,,,2.0,2.0,0.0,0.0,Retailling,5211,90.0,,100.0,0.0,0.0,,,,,,0.0,0.0,,,,,,5.0,1.0,1.0,,,3.0,2.0,5.0,5.0,2.0,Kano,5.0,,2.0,1.0,2.0,,2.0,2.0,1.0,2.0,1.0,2.0,2.0,,20.0,20.0,,,60.0,1.0,0.0,100.0,0.0,0.0,100.0,0.0,2.0,,,100.0,3.0,,1.0,1.0,15.0,,2.0,,,1.0,30.0,20.0,35.0,0.0,0.0,40.0,25.0,Relatives,2.0,,,0.0,0.0,0.0,0.0,0.0,,Cooperative,2.0,2.0,2.0,2.0,,,,,,,,,,,,,,,2.0,2.0,2.0,,2.0,2.0,,,1.0,2.0,2.0,1.0,5.0,2.0,2.0,,15.0,,5.0,5.0,2.0,,,2.0,,,1.0,1.0,1.0,2.0,1.0,0.0,12.0,-7.0,,,,,,,,0.0,0.0,,,,,0.0,2.0,,,0.0,0.0,2.0,2.0,2.0,2.0,2.0,2.0,,2.0,,,,2.0,,,,2.0,,,,-7.0,-7.0,2.0,2.0,5.0,4.0,10.0,3.0,,,,15.0,2.0,,-7.0,-7.0,-7.0,,,-7.0,14.0,1,2.0,1.0,2.0,2.0,2.0,2.0,-7.0,1.0,,,,,,,,2.0,1.0,,,,,29.0,10,2014,12.0,20.0,1.0,2.0,1,,,2.9590595,3.0858252,3.9696045,20000000.0,twenty million,,20.0,,,5.0,,,35.0,,12,0.0,218.0
586996,15299,3,1,1,7,7,2,2,4,63,2,1,1,2,,-7,-7,-7,-7,5,1.0,28.0,11,2014,13.0,18.0,3,3,,,100,0,0,0,2.0,,1999.0,5.0,2.0,-9.0,15.0,2.0,7.0,1.0,2.0,,2.0,,,1.0,-9.0,,,0.0,,1.0,60.0,2.0,,,,,,1.0,1.0,3.0,3.0,travelling agency,6304,100.0,,100.0,0.0,0.0,,,,,,0.0,0.0,,,,,,,3.0,3.0,,,3.0,2.0,3.0,3.0,-9.0,Does not apply,5.0,,1.0,3.0,2.0,,2.0,2.0,2.0,2.0,2.0,2.0,2.0,,-9.0,-9.0,,,55.0,2.0,0.0,100.0,0.0,0.0,100.0,-7.0,2.0,,,,,,4.0,2.0,,,2.0,,,3.0,0.0,0.0,100.0,0.0,0.0,0.0,0.0,nill,2.0,,,,,,,,,,1.0,,2.0,2.0,,,,,,,,,,,,,,,-9.0,2.0,1.0,,2.0,2.0,,,3.0,3.0,-9.0,1.0,-9.0,,-9.0,,30.0,-9.0,,-9.0,2.0,,,2.0,,,1.0,2.0,1.0,3.0,3.0,1.0,6.0,5.0,,,,,,,,2.0,1.0,-9.0,-9.0,,,6.0,2.0,,,6.0,2.0,1.0,2.0,2.0,2.0,2.0,2.0,,2.0,,,,2.0,,,,2.0,,,,3.0,1.0,1.0,1.0,1.0,2.0,-9.0,,,,,,2.0,,3.0,1.0,3.0,,,3.0,2.0,1,2.0,2.0,2.0,2.0,2.0,2.0,2.0,2.0,,,,,,,,7.0,1.0,,,,,28.0,11,2014,16.0,53.0,1.0,1.0,1,,,2.2121367,2.2982695,3.2736578,6250000.0,"six million, two hundred fifty thousand",-9.0,-9.0,,,-9.0,,,,,13,0.0,228.0
586997,15373,1,1,1,9,9,2,2,2,28,1,2,2,2,,-7,-7,-7,-7,1,1.0,23.0,7,2014,14.0,5.0,3,3,,,0,0,0,100,2.0,,1992.0,20.0,2.0,1994.0,25.0,2.0,7.0,1.0,2.0,,2.0,,,1.0,5.0,8.0,8.0,3.0,,1.0,45.0,2.0,,,2.0,,,2.0,2.0,3.0,0.0,we are into fabricating metal,2891,100.0,2.0,100.0,0.0,0.0,,,,,,0.0,0.0,100.0,0.0,,,10.0,,1.0,2.0,2.0,-4.0,3.0,2.0,5.0,5.0,12.0,oyo,5.0,2.0,1.0,1.0,2.0,,2.0,2.0,2.0,2.0,2.0,2.0,2.0,-9.0,,,-9.0,54.0,,1.0,100.0,0.0,0.0,100.0,0.0,0.0,2.0,,,,,,0.0,2.0,,,2.0,,,0.0,40.0,20.0,100.0,0.0,0.0,0.0,0.0,None,2.0,,,0.0,0.0,0.0,0.0,0.0,,Friends and associates,1.0,,,2.0,,,,,,,,,,,,,,,2.0,2.0,1.0,,2.0,2.0,,,0.0,4.0,25.0,1.0,2.0,2.0,2.0,2.0,,10.0,,-8.0,2.0,,,2.0,,,0.0,0.0,0.0,0.0,1.0,0.0,72.0,65.0,65.0,7.0,50.0,15.0,3.0,0.0,2.0,,10.0,3.0,-9.0,-9.0,-7.0,-9.0,2.0,,,0.0,0.0,-9.0,1.0,2.0,1.0,1.0,2.0,,2.0,,,,2.0,,,,2.0,,,,-7.0,-7.0,1.0,1.0,2.0,2.0,,,,,,,1.0,-7.0,2.0,-7.0,0.0,,,0.0,8.0,1,1.0,1.0,2.0,-7.0,2.0,1.0,2.0,4.0,,,,,,-9.0,-9.0,8.0,1.0,,,,,23.0,7,2014,17.0,29.0,2.0,4.0,1,,,3.9510634,3.9989908,4.330727,12000000.0,twelve million,-9.0,-9.0,-9.0,-9.0,-9.0,-9.0,-9.0,,-9.0,1,0.0,290.0
586998,15378,3,1,1,7,7,1,1,3,52,2,0,0,2,,-7,-7,-7,-7,84,5.0,11.0,10,2014,9.0,0.0,2,3,,,30,20,20,30,2.0,,2007.0,2000.0,1.0,1987.0,14.0,2.0,5.0,1.0,2.0,,2.0,,,2.0,,,,,,2.0,,2.0,,,,,,1.0,2.0,3.0,1.0,Refurbishing of phones and resell,5260,30.0,,50.0,20.0,30.0,,,,2012.0,-9.0,0.0,0.0,,,,,,,3.0,3.0,,,1.0,2.0,2.0,3.0,5.0,Does not apply,3.0,,1.0,1.0,2.0,,2.0,2.0,-9.0,2.0,2.0,-9.0,2.0,,20.0,20.0,,,20.0,2.0,30.0,20.0,50.0,20.0,20.0,60.0,2.0,,,,,,2.0,2.0,,,2.0,,,2.0,-9.0,-9.0,10.0,20.0,20.0,20.0,30.0,family member,2.0,,,0.0,0.0,0.0,0.0,0.0,,self,1.0,2.0,2.0,2.0,,,,,,,,,,,,,,,2.0,2.0,1.0,,2.0,-9.0,,,1.0,3.0,-9.0,-9.0,,,2.0,,0.0,-9.0,,-9.0,2.0,,,2.0,,,2.0,2.0,3.0,3.0,2.0,1.0,12.0,-7.0,,,,,,,,-9.0,0.0,,,,,0.0,2.0,,,-9.0,-9.0,1.0,1.0,1.0,-9.0,1.0,2.0,,2.0,,,,2.0,,,,2.0,,,,-7.0,3.0,2.0,2.0,2.0,-9.0,5.0,1.0,,,,-9.0,2.0,,2.0,-9.0,1.0,,,2.0,7.0,2,2.0,1.0,2.0,1.0,2.0,1.0,2.0,1.0,,,,,,,,14.0,1.0,,,,,11.0,10,2014,17.0,59.0,2.0,2.0,1,,,16.342161,17.14746,23.698254,400000.0,four hundred thousand,,4.0,,,3.0,,,,,10,0.0,201.0
586999,15401,1,1,1,4,4,1,1,2,18,1,1,1,1,-7.0,-7,-7,-7,-7,3,7.0,31.0,7,2014,13.0,11.0,3,3,,,100,0,0,0,2.0,,2000.0,2.0,1.0,2000.0,14.0,2.0,2.0,1.0,2.0,,2.0,,,1.0,2.0,3.0,20.0,3.0,,1.0,100.0,2.0,,,-7.0,,,2.0,2.0,2.0,0.0,manufacturing of garment,1810,100.0,2.0,100.0,0.0,0.0,,,,-9.0,,-7.0,,100.0,0.0,,,7.0,,0.0,0.0,1.0,-4.0,3.0,2.0,5.0,5.0,14.0,CALABAR,5.0,2.0,2.0,0.0,1.0,2.0,1.0,2.0,2.0,2.0,2.0,2.0,2.0,100.0,,,100.0,66.0,,1.0,0.0,100.0,0.0,0.0,100.0,0.0,2.0,,,,,,4.0,2.0,,,2.0,,,0.0,10.0,5.0,70.0,0.0,0.0,20.0,10.0,Cooperative,1.0,50000.0,70000.0,70.0,0.0,0.0,0.0,10.0,20.0,Cooperative,2.0,2.0,,2.0,,,,,,,,,,,,,,,2.0,2.0,1.0,,2.0,2.0,,,0.0,1.0,0.0,1.0,5.0,1.0,,2.0,,30.0,,10.0,2.0,,,1.0,7.0,2.0,4.0,4.0,1.0,0.0,4.0,2.0,5.0,5.0,5.0,0.0,5.0,0.0,3.0,0.0,0.0,,0.0,,,12.0,-7.0,80.0,2.0,,,0.0,0.0,2.0,2.0,2.0,2.0,2.0,2.0,,2.0,,,,2.0,,,,2.0,,,,-7.0,-7.0,2.0,2.0,5.0,2.0,-9.0,,,,,,2.0,,2.0,-7.0,0.0,,,0.0,14.0,3,2.0,2.0,2.0,2.0,2.0,2.0,2.0,4.0,,,,-9.0,-9.0,1500000.0,900000.0,14.0,1.0,,,,,31.0,7,2014,14.0,30.0,1.0,4.0,1,,,1.5933163,1.5872709,2.2864988,500000.0,five hundred thousand,1500000.0,12000.0,20000.0,30000.0,120000.0,30000.0,70000.0,,0.0,4,0.0,91.0
587000,15459,1,1,1,1,1,1,1,2,19,1,1,1,2,,-7,-7,-7,-7,2,5.0,12.0,1,2015,12.0,48.0,-9,3,,,100,0,0,0,2.0,,2003.0,-9.0,2.0,-7.0,-9.0,2.0,4.0,1.0,2.0,,2.0,,,1.0,20.0,8.0,8.0,0.0,,1.0,80.0,2.0,,,-7.0,,,2.0,2.0,2.0,-7.0,Leather shoe and bag manufacturing,1912,100.0,-9.0,100.0,0.0,0.0,,,,,,-7.0,,100.0,0.0,,,8.0,,0.0,-7.0,1.0,-9.0,3.0,2.0,4.0,3.0,-9.0,Umuahia,5.0,2.0,-9.0,1.0,2.0,,2.0,2.0,2.0,2.0,2.0,2.0,1.0,100.0,,,100.0,60.0,,1.0,0.0,100.0,0.0,-7.0,-7.0,-7.0,2.0,,,,,,-7.0,-9.0,,,2.0,,,0.0,0.0,0.0,100.0,0.0,0.0,0.0,0.0,None,2.0,,,,,,,,,,2.0,2.0,,2.0,,,,,,,,,,,,,,,2.0,2.0,7.0,,2.0,2.0,,,1.0,-7.0,-9.0,2.0,,,-9.0,2.0,,-9.0,,-9.0,2.0,,,2.0,,,-9.0,-9.0,1.0,-7.0,-9.0,-7.0,6.0,4.0,5.0,1.0,5.0,0.0,6.0,0.0,0.0,,0.0,,,6.0,-7.0,30.0,2.0,,,1.0,0.0,1.0,2.0,2.0,2.0,1.0,2.0,,2.0,,,,1.0,1.0,,-9.0,2.0,,,,-7.0,-7.0,2.0,2.0,-9.0,1.0,,,,,,,2.0,,-7.0,-7.0,0.0,,,-7.0,-7.0,1,2.0,1.0,1.0,2.0,1.0,1.0,2.0,4.0,,,,,,-9.0,-9.0,11.0,1.0,,,,,,12,2014,0.0,0.0,13640400000.0,50807.049,1,,,3.4795234,3.4663215,5.2904134,1700000.0,One million seven hundred thousand,1400000.0,350000.0,1000000.0,35000.0,8400.0,0.0,30000.0,,-9.0,7,0.0,7.0
587001,15468,1,1,1,9,9,1,1,3,15,3,2,2,2,,4,1,1,-7,5,1.0,1.0,8,2014,14.0,33.0,3,-9,,-9.0,100,0,0,0,-9.0,,-9.0,-9.0,-9.0,-9.0,-9.0,2.0,-9.0,-9.0,-9.0,,1.0,1.0,2.0,1.0,-9.0,,,3.0,,1.0,65.0,2.0,,,2.0,,,1.0,1.0,2.0,1.0,food and snacks production,1549,100.0,-9.0,-9.0,-9.0,-9.0,-7.0,-7.0,-7.0,-9.0,2.0,0.0,0.0,-9.0,-9.0,-9.0,,-9.0,,1.0,0.0,1.0,-4.0,2.0,2.0,5.0,-9.0,-9.0,oyo,5.0,-9.0,1.0,1.0,1.0,1.0,1.0,1.0,1.0,1.0,1.0,-9.0,2.0,-9.0,,,-9.0,91.0,,-9.0,-9.0,-9.0,-9.0,-9.0,-9.0,-9.0,-9.0,,,,,,0.0,1.0,-9.0,,2.0,,,1.0,-9.0,-9.0,0.0,0.0,0.0,0.0,100.0,From friends and relatives,-9.0,,,0.0,0.0,0.0,0.0,0.0,,RELATIVES,-9.0,-9.0,,-9.0,,,,,,,,,,,,,,,-9.0,-9.0,,,-9.0,-9.0,,,0.0,-7.0,-9.0,2.0,,,2.0,-9.0,,-8.0,,-9.0,-9.0,,,-9.0,,,1.0,1.0,1.0,1.0,1.0,0.0,34.0,-9.0,22.0,12.0,-9.0,-9.0,5.0,14.0,5.0,,-9.0,,,-9.0,-9.0,-9.0,1.0,-9.0,-9.0,-9.0,-9.0,2.0,2.0,2.0,2.0,2.0,2.0,,2.0,,,,2.0,,,,2.0,,,,-7.0,-7.0,2.0,2.0,-9.0,-9.0,,,,,,,2.0,,3.0,-9.0,0.0,,,3.0,8.0,1,2.0,2.0,2.0,2.0,2.0,2.0,2.0,1.0,,,,,,-9.0,-9.0,3.0,1.0,,,,,1.0,8,2014,15.0,21.0,1.0,4.0,1,,,2.9600494,2.9444788,3.1971622,-9.0,,-9.0,-9.0,-9.0,-9.0,-9.0,-9.0,-9.0,,-9.0,3,0.0,292.0
587002,15512,1,1,1,8,8,1,1,3,22,1,1,1,2,,-7,-7,-7,-7,8,12.0,29.0,7,2014,10.0,30.0,-9,3,,,100,0,0,0,2.0,,2003.0,2.0,2.0,2006.0,12.0,2.0,7.0,1.0,2.0,,2.0,,,1.0,5.0,4.0,35.0,3.0,,2.0,,2.0,,,2.0,,,2.0,2.0,1.0,1.0,Publishing(printing press,2211,75.0,1.0,100.0,0.0,0.0,,,,,,-7.0,,100.0,0.0,,,-9.0,,0.0,0.0,1.0,4.0,3.0,2.0,2.0,3.0,3.0,Lagos,5.0,2.0,1.0,1.0,2.0,,2.0,2.0,2.0,2.0,2.0,2.0,2.0,55.0,,,80.0,65.0,,1.0,50.0,40.0,10.0,60.0,20.0,20.0,2.0,,,,,,1.0,2.0,,,2.0,,,1.0,0.0,0.0,60.0,0.0,40.0,0.0,0.0,None,-9.0,,,0.0,0.0,0.0,0.0,0.0,,Savings,1.0,,,1.0,1.0,4.0,,2013.0,-8.0,1.0,2.0,1.0,1.0,2.0,1.0,60.0,20.0,10.0,1.0,1.0,,-9.0,2.0,2.0,,,0.0,1.0,0.0,2.0,,,2.0,2.0,,-8.0,,-9.0,2.0,,,2.0,,,1.0,0.0,0.0,0.0,2.0,1.0,9.0,3.0,5.0,4.0,1.0,-9.0,4.0,1.0,0.0,-9.0,3.0,1.0,-9.0,6.0,5.0,5.0,2.0,,,-9.0,5.0,1.0,2.0,2.0,1.0,2.0,2.0,,2.0,,,,2.0,,,,2.0,,,,-7.0,-7.0,2.0,2.0,5.0,4.0,,,,,,,-9.0,,-7.0,-7.0,1.0,,,0.0,8.0,1,2.0,1.0,1.0,2.0,2.0,2.0,2.0,0.0,,,,,,150000.0,-9.0,12.0,1.0,,,,,29.0,7,2014,13.0,43.0,1.0,1.0,2,2.0,5.0,9.386482,9.350867,16.128313,3000000.0,Three million,5.0,200000.0,150000.0,70000.0,60800.0,350000.0,30000.0,,-9.0,6,0.0,235.0
587003,15585,1,1,1,8,8,1,1,2,22,1,3,3,2,,-7,-7,-7,-7,8,12.0,6.0,8,2014,9.0,30.0,3,3,,,0,100,0,0,2.0,,1994.0,12.0,1.0,1994.0,10.0,2.0,10.0,3.0,2.0,,2.0,,,2.0,,,,,,2.0,,2.0,,,2.0,,,1.0,1.0,0.0,0.0,Paper printing and press,2212,75.0,1.0,100.0,0.0,0.0,,,,,,-7.0,,100.0,0.0,,,3.0,,0.0,-7.0,1.0,-9.0,3.0,2.0,1.0,1.0,7.0,Does not apply,5.0,1.0,-9.0,-7.0,1.0,2.0,2.0,1.0,2.0,2.0,2.0,1.0,1.0,45.0,,,45.0,55.0,,1.0,-9.0,-9.0,-9.0,100.0,-7.0,-7.0,-9.0,,,,,,0.0,1.0,,250000.0,2.0,,,0.0,0.0,0.0,25.0,50.0,25.0,0.0,0.0,None,2.0,,,0.0,0.0,0.0,0.0,0.0,,Relatives,1.0,,,2.0,,2.0,,,,,,,,,,,,,-9.0,-9.0,,,-9.0,-9.0,,,0.0,1.0,-9.0,-9.0,,,-8.0,-9.0,,-8.0,,-9.0,2.0,,,2.0,,,1.0,1.0,1.0,1.0,0.0,1.0,351.0,12.0,200.0,151.0,-9.0,-9.0,5.0,2.0,6.0,-9.0,0.0,,,5.0,-9.0,60.0,2.0,,,0.0,0.0,2.0,2.0,2.0,2.0,2.0,2.0,,2.0,,,,2.0,,,,2.0,,,,-7.0,-7.0,1.0,1.0,1.0,3.0,,-9.0,,,,,1.0,3.0,2.0,1.0,1.0,,,0.0,-7.0,2,2.0,2.0,2.0,2.0,2.0,2.0,2.0,0.0,,,,,,-9.0,-9.0,10.0,1.0,,,,,6.0,8,2014,10.0,30.0,1.0,1.0,1,,,1.0,1.0,1.4668503,50000000.0,Fifty million,-9.0,10000.0,300000.0,-9.0,6800000.0,-9.0,-9.0,,-9.0,6,0.0,267.0
587004,15681,3,1,1,8,8,2,2,4,52,3,2,2,2,,-7,-7,-7,-7,10,12.0,6.0,2,2015,9.0,39.0,3,3,,,100,0,0,0,2.0,,2003.0,4.0,1.0,2003.0,11.0,2.0,3.0,1.0,2.0,,2.0,,,2.0,,,,,,1.0,100.0,2.0,,,,,,2.0,2.0,0.0,0.0,sales furnitures,5239,100.0,,100.0,0.0,0.0,,,,,,-7.0,,,,,,,,1.0,0.0,,,3.0,2.0,4.0,4.0,10.0,ogun,5.0,,2.0,0.0,2.0,,2.0,2.0,2.0,2.0,2.0,2.0,1.0,,100.0,100.0,,,74.0,1.0,0.0,100.0,0.0,0.0,100.0,0.0,2.0,,,,,,0.0,2.0,,,2.0,,,0.0,0.0,0.0,100.0,0.0,0.0,0.0,0.0,0,2.0,,,,,,,,,,2.0,2.0,2.0,2.0,,,,,,,,,,,,,,,2.0,2.0,,,2.0,2.0,,,1.0,3.0,0.0,1.0,1.0,2.0,2.0,,0.0,0.0,,0.0,2.0,,,2.0,,,0.0,0.0,0.0,0.0,1.0,0.0,28.0,24.0,,,,,,,,0.0,0.0,,,,,60.0,2.0,,,4.0,0.0,1.0,1.0,1.0,1.0,1.0,2.0,,2.0,,,,2.0,,,,2.0,,,,-7.0,-7.0,1.0,1.0,1.0,2.0,100.0,,,,,100.0,2.0,,3.0,-7.0,1.0,,,0.0,1.0,3,2.0,2.0,2.0,1.0,1.0,2.0,1.0,3.0,,,,,,,,11.0,1.0,,,,,6.0,2,2015,12.0,3.0,1.0,2.0,1,,,2.3225162,2.3102992,3.8033812,3000000.0,three million,2800000.0,1400000.0,,,0.0,,,,,3,0.0,248.0
587005,15682,1,1,1,8,8,2,2,3,17,1,2,2,2,,1,-7,-7,2,10,12.0,24.0,7,2014,12.0,2.0,3,3,,,100,0,0,0,1.0,100.0,2001.0,3.0,2.0,2006.0,13.0,1.0,4.0,1.0,2.0,,2.0,,,2.0,,,,,,2.0,,2.0,,,-7.0,,,2.0,2.0,0.0,0.0,weaving of textile(aso oke),1711,100.0,2.0,100.0,0.0,0.0,,,,,,0.0,0.0,100.0,0.0,,,5.0,,0.0,0.0,2.0,-4.0,4.0,2.0,3.0,3.0,13.0,Does not apply,5.0,2.0,2.0,0.0,2.0,,1.0,2.0,2.0,2.0,1.0,2.0,1.0,100.0,,,100.0,60.0,,1.0,0.0,100.0,0.0,0.0,100.0,0.0,2.0,,,,,,1.0,1.0,1.0,,2.0,,,0.0,0.0,0.0,100.0,0.0,0.0,0.0,0.0,None,2.0,,,0.0,0.0,0.0,0.0,0.0,,Cooperative,1.0,,,2.0,,,,,,,,,,,,,,,2.0,2.0,6.0,,2.0,2.0,,,1.0,-9.0,0.0,2.0,,,2.0,2.0,,-8.0,,-9.0,2.0,,,2.0,,,1.0,1.0,0.0,0.0,1.0,0.0,5.0,21.0,4.0,1.0,0.0,4.0,4.0,13.0,1.0,,4.0,2.0,-9.0,6.0,6.0,70.0,2.0,,,4.0,0.0,2.0,2.0,2.0,2.0,2.0,2.0,,2.0,,,,1.0,1.0,,14.0,2.0,,,,4.0,-7.0,1.0,1.0,2.0,2.0,,,,,,,2.0,,2.0,2.0,0.0,,,0.0,1.0,3,1.0,1.0,2.0,1.0,2.0,2.0,2.0,3.0,,,,,,50000.0,60000.0,13.0,2.0,,,,,24.0,7,2014,14.0,5.0,1.0,2.0,1,,,15.950243,15.866341,27.585157,400000.0,four hundred thousand,350000.0,100000.0,200000.0,25000.0,0.0,0.0,60000.0,,30000.0,7,0.0,252.0
587006,15703,2,1,1,8,8,2,2,4,50,2,1,1,2,,-7,-7,-7,-7,10,12.0,9.0,2,2015,9.0,22.0,3,3,,,100,0,0,0,2.0,,2005.0,2.0,1.0,2005.0,9.0,2.0,4.0,1.0,2.0,,2.0,,,2.0,,,,,,1.0,100.0,2.0,,,,,,2.0,2.0,3.0,1.0,sales of motor parts,5030,100.0,,100.0,0.0,0.0,,,,,,0.0,0.0,,,,,,4.0,0.0,0.0,,,4.0,2.0,4.0,4.0,6.0,Does not apply,5.0,,2.0,0.0,2.0,,2.0,2.0,2.0,2.0,2.0,2.0,2.0,,100.0,100.0,,,-9.0,2.0,100.0,0.0,0.0,100.0,0.0,0.0,2.0,,,-9.0,,,0.0,2.0,,,2.0,,,0.0,0.0,0.0,100.0,0.0,0.0,0.0,0.0,0,2.0,,,,,,,,,,1.0,,2.0,2.0,,,,,,,,,,,,,,,2.0,2.0,5.0,,2.0,2.0,,,2.0,4.0,0.0,2.0,,,2.0,,0.0,0.0,,-9.0,2.0,,,2.0,,,0.0,0.0,0.0,0.0,0.0,0.0,8.0,8.0,,,,,,,,1.0,0.0,,,,,100.0,2.0,,,0.0,0.0,2.0,1.0,2.0,2.0,2.0,2.0,,2.0,,,,2.0,,,,2.0,,,,-7.0,-7.0,1.0,1.0,2.0,4.0,100.0,,,,,100.0,2.0,,-7.0,3.0,0.0,,,0.0,1.0,3,2.0,1.0,1.0,1.0,1.0,1.0,1.0,4.0,,,,,,,,9.0,1.0,,,,,9.0,2,2015,12.0,47.0,1.0,2.0,1,,,40.147404,40.37781,69.70338,400000.0,Four hundred thousand,970000.0,500000.0,,,24000.0,,,400000.0,,10,0.0,239.0
587007,15741,2,1,1,8,8,2,1,2,52,1,2,2,1,-7.0,-7,-7,-7,-7,10,1.0,29.0,7,2014,10.0,52.0,3,3,,,100,0,0,0,1.0,100.0,1965.0,-9.0,-9.0,-9.0,8.0,2.0,9.0,2.0,2.0,,2.0,,,1.0,32.0,3.0,59.0,3.0,,1.0,30.0,2.0,,,,,,1.0,1.0,2.0,0.0,Sales home appliances,5233,81.0,,100.0,0.0,0.0,,,,,,0.0,0.0,,,,,,6.0,1.0,3.0,,,3.0,2.0,5.0,1.0,10.0,Lagos,5.0,,1.0,3.0,1.0,1.0,2.0,2.0,1.0,2.0,1.0,2.0,2.0,,70.0,85.0,,,69.0,1.0,100.0,0.0,0.0,100.0,0.0,0.0,2.0,,,300.0,3.0,,0.0,1.0,5.0,,2.0,,,1.0,80.0,30.0,100.0,0.0,0.0,0.0,0.0,None,2.0,,,0.0,0.0,0.0,0.0,0.0,,Relatives,1.0,,2.0,2.0,,,,,,,,,,,,,,,2.0,2.0,4.0,,1.0,2.0,,,2.0,-7.0,5.0,1.0,2.0,1.0,,2.0,,3.0,,100.0,2.0,,,2.0,,,3.0,4.0,0.0,2.0,3.0,0.0,28.0,40.0,,,,,,,,7.0,0.0,,,,,100.0,2.0,,,1.0,0.0,2.0,1.0,1.0,1.0,2.0,2.0,,2.0,,,,2.0,,,,2.0,,,,-7.0,-7.0,1.0,1.0,5.0,4.0,100.0,,,,,100.0,1.0,1.0,1.0,-7.0,0.0,,,0.0,12.0,1,2.0,2.0,2.0,2.0,2.0,2.0,2.0,4.0,,,,,,,,6.0,1.0,,,,,29.0,7,2014,12.0,9.0,1.0,1.0,1,,,4.6220813,4.6200867,7.4237027,72000000.0,Seventy two million,200000000.0,10800000.0,,,450000.0,,,15000000.0,,12,0.0,257.0
587008,15914,2,1,1,9,9,2,2,2,51,1,1,1,2,,-7,-7,-7,-7,4,1.0,12.0,8,2014,17.0,1.0,3,3,,,0,0,0,100,2.0,,2002.0,4.0,2.0,2002.0,12.0,2.0,5.0,1.0,2.0,,2.0,,,1.0,-9.0,,,3.0,,1.0,40.0,2.0,,,,,,2.0,2.0,1.0,1.0,SALES OF PLASTIC AND ELECTRONICS,5152,100.0,,100.0,0.0,0.0,,,,,,0.0,0.0,,,,,,-9.0,3.0,2.0,,,3.0,2.0,3.0,2.0,12.0,LAGOS STATE,5.0,,1.0,2.0,1.0,1.0,1.0,1.0,1.0,1.0,1.0,2.0,2.0,,-9.0,-9.0,,,48.0,1.0,0.0,0.0,100.0,-7.0,-7.0,-7.0,2.0,,,-9.0,,,4.0,1.0,6.0,,2.0,,,2.0,15.0,3.0,65.0,0.0,35.0,0.0,0.0,None,2.0,,,0.0,0.0,0.0,0.0,0.0,,Savings,2.0,2.0,2.0,2.0,,,,,,,,,,,,,,,1.0,2.0,3.0,,2.0,2.0,,,4.0,4.0,10.0,2.0,,,2.0,,0.0,-8.0,,5.0,2.0,,,2.0,,,2.0,2.0,1.0,1.0,3.0,2.0,8.0,6.0,,,,,,,,2.0,0.0,,,,,100.0,2.0,,,0.0,0.0,2.0,2.0,2.0,2.0,2.0,2.0,,2.0,,,,1.0,1.0,,10.0,2.0,,,,-7.0,-7.0,2.0,2.0,5.0,4.0,102.0,,,7.0,INADEQUATE OF FUND,20.0,2.0,,-7.0,-7.0,1.0,,,0.0,1.0,1,2.0,2.0,2.0,2.0,2.0,2.0,2.0,4.0,,,,,,,,12.0,1.0,,,,,12.0,8,2014,17.0,54.0,1.0,3.0,1,,,125.69407,126.41542,143.93477,800000.0,eight hundred thousand,-9.0,800000.0,,,60000.0,,,-9.0,,10,0.0,284.0
587009,15974,2,1,1,9,9,1,1,2,52,1,1,2,2,,-7,-7,-7,-7,2,2.0,1.0,8,2014,16.0,52.0,3,3,,,100,0,0,0,2.0,,2004.0,10.0,1.0,2004.0,10.0,2.0,6.0,1.0,-9.0,,2.0,,,2.0,,,,,,2.0,,2.0,,,,,,2.0,2.0,0.0,0.0,Sales of house hold plastics,5233,100.0,,100.0,0.0,0.0,,,,,,-7.0,,,,,,,-9.0,0.0,0.0,,,3.0,2.0,5.0,5.0,10.0,Across the Globe,5.0,,1.0,1.0,1.0,1.0,1.0,1.0,1.0,2.0,1.0,2.0,2.0,,100.0,100.0,,,168.0,1.0,100.0,0.0,0.0,100.0,0.0,0.0,2.0,,,-9.0,,,0.0,2.0,,,2.0,,,0.0,25.0,0.0,100.0,0.0,0.0,0.0,0.0,None,1.0,2500000.0,-9.0,0.0,100.0,0.0,0.0,0.0,0.0,None,1.0,,2.0,2.0,,,,,,,,,,,,,,,2.0,2.0,1.0,,2.0,2.0,,,0.0,1.0,0.0,1.0,3.0,2.0,2.0,,0.0,-8.0,,-9.0,2.0,,,2.0,,,0.0,0.0,0.0,0.0,0.0,0.0,25.0,25.0,,,,,,,,17.0,0.0,,,,,100.0,2.0,,,0.0,0.0,1.0,2.0,2.0,2.0,1.0,2.0,,2.0,,,,2.0,,,,2.0,,,,1.0,1.0,1.0,1.0,1.0,2.0,-9.0,,,,,,1.0,1.0,1.0,2.0,0.0,,,0.0,-7.0,3,2.0,2.0,2.0,1.0,2.0,2.0,2.0,1.0,,,,,,,,10.0,1.0,,,,,1.0,8,2014,18.0,13.0,1.0,1.0,1,,,6.802463,6.799528,7.2061577,3000000.0,three million,-9.0,-9.0,,,-9.0,,,-9.0,,12,0.0,299.0
587010,151039,1,1,1,8,8,2,2,2,18,1,2,2,2,,-7,-7,-7,-7,1,12.0,19.0,11,2014,16.0,21.0,3,3,,,100,0,0,0,1.0,100.0,-9.0,-9.0,-9.0,-9.0,-9.0,1.0,5.0,1.0,2.0,,2.0,,,1.0,18.0,6.0,6.0,0.0,,1.0,85.0,2.0,,,-7.0,,,2.0,2.0,3.0,0.0,Casual and traditional wears manufacturing.,1810,100.0,-9.0,100.0,0.0,0.0,,,,,,-7.0,,100.0,0.0,,,-9.0,,1.0,0.0,1.0,-9.0,3.0,2.0,5.0,4.0,-9.0,Lagos,5.0,2.0,-9.0,2.0,1.0,2.0,1.0,2.0,2.0,2.0,1.0,1.0,1.0,100.0,,,100.0,60.0,,1.0,0.0,100.0,0.0,0.0,100.0,0.0,2.0,,,,,,1.0,1.0,-9.0,,2.0,,,1.0,0.0,25.0,100.0,0.0,0.0,0.0,0.0,None,2.0,,,0.0,0.0,0.0,0.0,0.0,,Friends and associates,1.0,,,2.0,,,,,,,,,,,,,,,2.0,2.0,1.0,,2.0,2.0,,,2.0,2.0,-9.0,2.0,,,-9.0,2.0,,-9.0,,-9.0,2.0,,,2.0,,,1.0,1.0,2.0,1.0,1.0,0.0,29.0,21.0,26.0,3.0,26.0,0.0,7.0,23.0,0.0,,0.0,,,12.0,12.0,50.0,1.0,100.0,0.0,0.0,0.0,2.0,2.0,2.0,2.0,2.0,2.0,,2.0,,,,2.0,,,,2.0,,,,-7.0,4.0,2.0,2.0,1.0,2.0,,,,,,,2.0,,2.0,3.0,0.0,,,0.0,8.0,2,1.0,1.0,1.0,2.0,1.0,2.0,2.0,3.0,,,,,,-9.0,-9.0,6.0,2.0,,,,,19.0,11,2014,17.0,41.0,1.0,2.0,1,,,2.2625873,2.2506857,4.0230656,16500000.0,Sixteen million five hundred thousand,13000000.0,2300000.0,13400000.0,96000.0,7200.0,-9.0,60000.0,,-9.0,4,0.0,249.0
587011,151043,3,1,1,8,8,2,2,2,50,3,1,1,1,-7.0,-7,-7,-7,-7,6,12.0,25.0,7,2014,9.0,40.0,3,4,,-9.0,0,0,0,100,2.0,,2000.0,10.0,-9.0,2000.0,20.0,2.0,5.0,2.0,2.0,,2.0,,,1.0,-9.0,,,4.0,,2.0,,2.0,,,,,,2.0,2.0,1.0,2.0,repair of engines,5020,40.0,,100.0,0.0,0.0,,,,,,0.0,0.0,,,,,,,1.0,2.0,,,3.0,2.0,1.0,1.0,0.0,Does not apply,5.0,,2.0,1.0,2.0,,2.0,2.0,2.0,2.0,2.0,2.0,1.0,,50.0,50.0,,,84.0,1.0,50.0,0.0,50.0,50.0,0.0,50.0,2.0,,,,,,2.0,1.0,2.0,,2.0,,,1.0,-9.0,0.0,0.0,0.0,0.0,0.0,100.0,From friends and relatives,2.0,,,0.0,0.0,0.0,0.0,0.0,,RELATIVES,2.0,2.0,2.0,2.0,,,,,,,,,,,,,,,1.0,2.0,1.0,,2.0,2.0,,,1.0,3.0,0.0,1.0,1.0,2.0,2.0,,0.0,-8.0,,-9.0,2.0,,,1.0,-9.0,2.0,2.0,1.0,2.0,2.0,2.0,2.0,19.0,15.0,,,,,,,,0.0,0.0,,,,,-9.0,2.0,,,0.0,0.0,1.0,1.0,1.0,1.0,1.0,2.0,,2.0,,,,2.0,,,,1.0,2.0,,-9.0,4.0,4.0,2.0,2.0,1.0,1.0,100.0,,,,,0.0,2.0,,3.0,-7.0,1.0,,,2.0,2.0,2,2.0,2.0,2.0,2.0,2.0,2.0,2.0,1.0,,,,,,,,14.0,1.0,,,,,25.0,7,2014,10.0,13.0,1.0,2.0,1,,,1.5004288,1.5030614,2.7033877,1000000.0,one million,-9.0,-9.0,,,15000.0,,,,,8,0.0,269.0
587012,151073,2,1,1,8,8,1,1,2,50,1,2,2,1,-7.0,-7,-7,-7,-7,6,12.0,31.0,7,2014,8.0,31.0,2,3,,,100,0,0,0,2.0,,1996.0,20.0,1.0,1996.0,3.0,2.0,7.0,1.0,-9.0,,2.0,,,1.0,28.0,5.0,5.0,20.0,,1.0,60.0,2.0,,,,,,1.0,1.0,2.0,2.0,sales of cars,5010,60.0,,100.0,0.0,0.0,,,,,,0.0,0.0,,,,,,4.0,2.0,2.0,,,3.0,1.0,3.0,3.0,-9.0,Does not apply,-9.0,,1.0,3.0,1.0,1.0,1.0,1.0,1.0,2.0,2.0,2.0,2.0,,-9.0,-9.0,,,60.0,1.0,70.0,0.0,30.0,100.0,0.0,0.0,2.0,,,-9.0,,,2.0,1.0,5.0,,2.0,,,1.0,0.0,0.0,100.0,0.0,0.0,0.0,0.0,None,-7.0,,,100.0,0.0,0.0,0.0,0.0,0.0,None,1.0,,2.0,2.0,,,,,,,,,,,,,,,2.0,2.0,1.0,,2.0,-9.0,,,1.0,-9.0,0.0,1.0,7.0,-9.0,,-9.0,,-8.0,,-9.0,1.0,-9.0,2.0,2.0,,,2.0,2.0,2.0,2.0,2.0,1.0,-9.0,-9.0,,,,,,,,-9.0,-9.0,,,,,-9.0,1.0,,,-9.0,-9.0,1.0,-9.0,-9.0,-9.0,1.0,2.0,,2.0,,,,2.0,,,,2.0,,,,1.0,4.0,1.0,1.0,2.0,-9.0,-9.0,,,,,,1.0,3.0,3.0,3.0,2.0,,,3.0,12.0,3,2.0,2.0,2.0,2.0,2.0,-7.0,2.0,3.0,,,,,,,,6.0,2.0,,,,,31.0,7,2014,9.0,8.0,1.0,4.0,3,9.0,8.0,1.5314856,1.5298039,2.4314346,72000000.0,Seventy two million,-9.0,-9.0,,,-9.0,,,-9.0,,9,0.0,254.0
587013,151137,1,1,1,8,8,1,1,3,26,1,3,3,2,,3,2,2,-7,10,12.0,12.0,8,2014,8.0,23.0,3,3,,,100,0,0,0,2.0,,1979.0,-9.0,1.0,1979.0,12.0,2.0,10.0,2.0,-9.0,,2.0,,,1.0,-9.0,,,1.0,,1.0,100.0,2.0,,,2.0,,,1.0,1.0,3.0,1.0,manufacturing of cement,2694,100.0,2.0,80.0,20.0,0.0,,,,-9.0,,0.0,0.0,100.0,0.0,,,2.0,,0.0,0.0,2.0,-9.0,2.0,2.0,-9.0,-9.0,-9.0,Does not apply,5.0,1.0,2.0,0.0,2.0,,2.0,2.0,2.0,2.0,1.0,1.0,1.0,100.0,,,100.0,72.0,,1.0,100.0,0.0,0.0,100.0,0.0,0.0,2.0,,,,,,0.0,1.0,1.0,,2.0,,,0.0,0.0,0.0,70.0,30.0,0.0,0.0,0.0,None,2.0,,,0.0,0.0,0.0,0.0,0.0,,Cooperative,1.0,,,1.0,1.0,-9.0,,2012.0,-9.0,1.0,1.0,2.0,1.0,2.0,-9.0,-9.0,-9.0,,1.0,2.0,1.0,,1.0,-9.0,,,1.0,1.0,-9.0,1.0,3.0,2.0,2.0,1.0,-9.0,-8.0,,8.0,2.0,,,2.0,,,1.0,0.0,0.0,0.0,1.0,0.0,1081.0,1022.0,-9.0,-9.0,-9.0,-9.0,1.0,-9.0,-9.0,,0.0,,,12.0,-7.0,100.0,1.0,100.0,-9.0,50.0,-9.0,-9.0,1.0,2.0,1.0,1.0,2.0,,2.0,,,,2.0,,,,2.0,,,,1.0,3.0,2.0,2.0,2.0,-9.0,,,,,,,1.0,2.0,3.0,2.0,0.0,,,0.0,8.0,1,2.0,2.0,1.0,1.0,1.0,2.0,1.0,1.0,,,,,,876435600.0,-9.0,8.0,1.0,,,,,12.0,8,2014,10.0,2.0,1.0,1.0,1,,,1.0,1.0,1.0,128140837000.0,one hundred and twenty eight billion one hundred and forty million eight hundred and thirty seven hundred thousand,127478576000.0,634553000.0,12505263200.0,257821000.0,-9.0,0.0,-9.0,,124582000.0,5,0.0,266.0
587014,151176,2,1,1,8,8,2,1,2,52,1,1,1,2,,-7,-7,-7,-7,5,6.0,,12,2015,,,3,3,,,0,0,0,100,2.0,,2001.0,10.0,1.0,2001.0,11.0,2.0,7.0,3.0,-9.0,,2.0,,,1.0,-9.0,,,-9.0,,1.0,40.0,2.0,,,,,,2.0,2.0,3.0,1.0,sales of bibles and inspirational books,5239,100.0,,100.0,0.0,0.0,,,,,,0.0,0.0,,,,,,26.0,1.0,1.0,,,4.0,2.0,3.0,3.0,10.0,Lagos,5.0,,1.0,3.0,2.0,,2.0,2.0,1.0,2.0,1.0,2.0,1.0,,-9.0,-9.0,,,58.0,1.0,0.0,10.0,90.0,0.0,0.0,100.0,2.0,,,-9.0,,,0.0,2.0,,,2.0,,,2.0,-9.0,-9.0,-9.0,-9.0,-9.0,-9.0,-9.0,,2.0,,,,,,,,,,1.0,,2.0,2.0,,,,,,,,,,,,,,,2.0,2.0,1.0,,1.0,2.0,,,0.0,3.0,0.0,1.0,2.0,-9.0,,2.0,,0.0,,-9.0,2.0,,,2.0,,,1.0,1.0,0.0,2.0,3.0,0.0,10.0,10.0,,,,,,,,4.0,0.0,,,,,100.0,2.0,,,10.0,0.0,2.0,2.0,2.0,2.0,2.0,2.0,,2.0,,,,2.0,,,,2.0,,,,-7.0,-7.0,1.0,1.0,2.0,2.0,100.0,,,,,100.0,1.0,1.0,3.0,1.0,2.0,,,2.0,4.0,2,1.0,2.0,2.0,2.0,2.0,2.0,2.0,2.0,,,,,,,,11.0,1.0,,,,,,12,2014,,,1.0,4.0,1,,,4.6220813,4.6200867,7.4237027,-9.0,,-9.0,-9.0,,,-9.0,,,-9.0,,12,0.0,257.0
587015,151177,1,1,1,8,8,1,1,2,22,3,1,1,2,,-7,1,-7,-7,8,12.0,29.0,7,2014,16.0,20.0,-9,3,,,100,0,0,0,2.0,,2007.0,4.0,2.0,2009.0,7.0,2.0,8.0,1.0,2.0,,2.0,,,1.0,6.0,4.0,40.0,10.0,,2.0,,2.0,,,1.0,2.0,2.0,2.0,2.0,3.0,0.0,Publishing(printing advertising),2211,70.0,1.0,95.0,5.0,0.0,,,,-9.0,,-7.0,,100.0,0.0,,,-9.0,,0.0,0.0,1.0,3.0,4.0,2.0,1.0,3.0,2.0,Lagos,5.0,2.0,1.0,0.0,2.0,,2.0,2.0,2.0,2.0,2.0,2.0,2.0,-9.0,,,-9.0,90.0,,1.0,100.0,0.0,0.0,0.0,100.0,0.0,1.0,-6.0,2.0,,,,1.0,2.0,,,2.0,,,0.0,-9.0,-9.0,0.0,0.0,0.0,0.0,100.0,self,-9.0,,,0.0,0.0,0.0,0.0,0.0,,self,-9.0,-9.0,,-9.0,,,,,,,,,,,,,,,2.0,2.0,5.0,,2.0,2.0,,,0.0,1.0,0.0,2.0,,,2.0,2.0,,-8.0,,10.0,2.0,,,2.0,,,1.0,0.0,0.0,0.0,0.0,0.0,3.0,3.0,2.0,1.0,2.0,0.0,5.0,0.0,1.0,,5.0,,3.0,6.0,5.0,5.0,2.0,,,0.0,1.0,2.0,1.0,1.0,2.0,1.0,2.0,,2.0,,,,2.0,,,,2.0,,,,-9.0,-7.0,1.0,2.0,5.0,4.0,,5.0,,,,,2.0,,-9.0,-7.0,0.0,,,0.0,-7.0,2,2.0,-7.0,2.0,1.0,2.0,1.0,2.0,0.0,,,,,,120000.0,-9.0,8.0,1.0,,,,,31.0,7,2014,13.0,5.0,1.0,1.0,1,,,7.3740563,7.5442314,11.660198,5000000.0,five million,7.0,1000000.0,3000000.0,1700000.0,85000.0,150000.0,650000.0,,100000.0,2,0.0,63.0
587016,151183,2,1,1,2,2,1,1,2,52,1,1,1,1,-7.0,-7,-7,-7,-7,33,1.0,15.0,8,2014,13.0,3.0,3,3,,,100,0,0,0,1.0,100.0,1992.0,5.0,1.0,1992.0,2.0,1.0,7.0,3.0,-9.0,,1.0,14.0,1.0,1.0,13.0,-9.0,-9.0,5.0,,2.0,,1.0,-9.0,1.0,,,,2.0,1.0,2.0,1.0,Pharmacy,5231,95.0,,-9.0,-9.0,-9.0,,,,2014.0,2.0,0.0,5.0,,,,,,-9.0,2.0,2.0,,,2.0,2.0,1.0,3.0,20.0,abuja,5.0,,1.0,1.0,1.0,1.0,1.0,1.0,2.0,1.0,1.0,2.0,1.0,,100.0,0.0,,,0.0,1.0,0.0,0.0,100.0,0.0,100.0,0.0,2.0,,,2.0,3.0,,0.0,1.0,10.0,,2.0,,,0.0,0.0,-9.0,90.0,0.0,0.0,0.0,10.0,personal saving,2.0,,,0.0,0.0,0.0,0.0,0.0,,None,1.0,-9.0,2.0,2.0,,,,,,,,,,,,,,,2.0,2.0,1.0,,2.0,2.0,,,1.0,2.0,-9.0,1.0,2.0,1.0,,2.0,,-8.0,,-9.0,1.0,-6.0,1.0,1.0,-6.0,1.0,3.0,2.0,2.0,2.0,2.0,1.0,5.0,4.0,,,,,,,,3.0,4.0,1.0,-9.0,,,0.0,1.0,,,4.0,0.0,1.0,2.0,2.0,2.0,1.0,2.0,,2.0,,,,2.0,,,,2.0,,,,3.0,4.0,1.0,1.0,2.0,2.0,70.0,5.0,,,,-9.0,1.0,1.0,1.0,2.0,1.0,,,1.0,8.0,2,2.0,2.0,2.0,2.0,2.0,2.0,2.0,1.0,,,,,,,,2.0,2.0,2.0,2.0,,,15.0,8,2014,14.0,54.0,1.0,2.0,2,3.0,0.0,27.538872,27.567558,39.824047,-9.0,,-9.0,100.0,,,-9.0,,,-9.0,,12,0.0,41.0
587017,151254,1,1,1,7,7,1,1,2,24,3,2,2,2,,-7,-7,-7,-7,10,2.0,27.0,11,2014,12.0,13.0,2,5,,20.0,20,20,20,40,2.0,,-9.0,-9.0,-9.0,-9.0,14.0,2.0,7.0,3.0,2.0,,2.0,,,2.0,,,,,,2.0,,2.0,,,2.0,,,2.0,1.0,0.0,0.0,chemical Production,2411,50.0,1.0,50.0,30.0,20.0,30.0,0.0,0.0,-9.0,1.0,0.0,0.0,60.0,40.0,1.0,1.0,-9.0,,1.0,1.0,2.0,-4.0,4.0,1.0,5.0,5.0,15.0,Does not apply,5.0,2.0,2.0,1.0,2.0,,2.0,2.0,1.0,2.0,2.0,2.0,2.0,40.0,,,20.0,68.0,,1.0,60.0,20.0,20.0,30.0,30.0,40.0,2.0,,,,,,0.0,2.0,,,2.0,,,1.0,50.0,20.0,30.0,30.0,20.0,10.0,10.0,self,1.0,20.0,20.0,20.0,20.0,20.0,10.0,10.0,20.0,Cooperative,1.0,,,2.0,,,,,,,,,,,,,,,2.0,2.0,2.0,,2.0,2.0,,,1.0,1.0,0.0,2.0,,,2.0,2.0,,0.0,,-9.0,2.0,,,2.0,,,1.0,0.0,0.0,0.0,4.0,1.0,23.0,24.0,15.0,8.0,15.0,-9.0,3.0,-9.0,-9.0,,0.0,,,10.0,5.0,63.0,2.0,,,-9.0,-9.0,2.0,2.0,2.0,2.0,2.0,2.0,,2.0,,,,1.0,1.0,,1.0,1.0,1.0,,1.0,1.0,1.0,1.0,1.0,2.0,1.0,,1.0,,,,,1.0,1.0,1.0,1.0,0.0,,,1.0,4.0,2,-7.0,-7.0,-7.0,-7.0,-7.0,-7.0,-7.0,1.0,,,,,,20.0,20.0,13.0,1.0,,,,,27.0,11,2014,13.0,14.0,2.0,3.0,1,,,1.4437652,1.5131763,1.9616933,500000.0,five hundred thousand,-9.0,400000.0,30000.0,60000.0,20000.0,15000.0,80000.0,,30.0,2,0.0,223.0
587018,151258,2,1,1,8,8,2,2,2,52,1,1,1,1,-7.0,-7,-7,-7,-7,1,12.0,14.0,8,2014,15.0,56.0,3,3,,,100,0,0,0,2.0,,2004.0,4.0,2.0,2006.0,14.0,2.0,5.0,1.0,2.0,,2.0,,,1.0,10.0,9.0,9.0,3.0,,1.0,70.0,2.0,,,,,,2.0,2.0,0.0,0.0,Retail in agro allied products.,5239,100.0,,100.0,0.0,0.0,,,,,,-7.0,,,,,,,15.0,0.0,-7.0,,,3.0,2.0,3.0,1.0,9.0,Lagos,5.0,,-9.0,1.0,1.0,2.0,2.0,2.0,2.0,2.0,2.0,2.0,2.0,,100.0,100.0,,,60.0,1.0,0.0,100.0,0.0,-7.0,-7.0,-7.0,2.0,,,640.0,3.0,,1.0,1.0,,6000.0,2.0,,,0.0,30.0,0.0,100.0,0.0,0.0,0.0,0.0,None,2.0,,,0.0,0.0,0.0,0.0,0.0,,Friends and associates,2.0,2.0,2.0,2.0,,,,,,,,,,,,,,,2.0,2.0,7.0,,2.0,2.0,,,1.0,4.0,-9.0,1.0,1.0,2.0,-9.0,,-9.0,-8.0,,1.0,2.0,,,2.0,,,3.0,2.0,2.0,2.0,1.0,0.0,8.0,7.0,,,,,,,,3.0,0.0,,,,,60.0,1.0,,,1.0,0.0,2.0,2.0,2.0,2.0,2.0,2.0,,2.0,,,,2.0,,,,1.0,3.0,,45.0,4.0,-7.0,2.0,2.0,2.0,4.0,100.0,,,,,40.0,2.0,,-7.0,-7.0,0.0,,,0.0,11.0,3,2.0,2.0,1.0,1.0,2.0,1.0,2.0,3.0,,,,,,,,9.0,1.0,,,,,14.0,8,2014,16.0,50.0,1.0,1.0,1,,,182.41814,182.60817,293.38293,1850000.0,One million eight hundred fifty thousand,1200000.0,960000.0,,,5800.0,,,900000.0,,12,0.0,241.0
587019,151266,3,1,1,3,3,2,2,4,60,1,2,2,1,2.0,3,1,1,-7,5,3.0,23.0,7,2014,14.0,18.0,2,4,,40.0,30,0,40,30,2.0,,1997.0,-9.0,1.0,1997.0,14.0,2.0,7.0,3.0,2.0,,2.0,,,1.0,-9.0,,,3.0,,2.0,,2.0,,,,,,1.0,2.0,0.0,1.0,transportation of people and goods from one place to another,6022,100.0,,100.0,0.0,0.0,,,,-9.0,,0.0,0.0,,,,,,,1.0,1.0,,,3.0,1.0,5.0,4.0,10.0,lagos state.,5.0,,1.0,3.0,2.0,,2.0,2.0,2.0,2.0,2.0,2.0,2.0,,50.0,20.0,,,105.0,1.0,60.0,40.0,0.0,60.0,40.0,0.0,2.0,,,,,,1.0,1.0,5.0,,2.0,,,2.0,0.0,0.0,100.0,0.0,0.0,0.0,0.0,None,2.0,,,0.0,0.0,0.0,0.0,0.0,,Internal funds,1.0,-9.0,2.0,2.0,,,,,,,,,,,,,,,-9.0,2.0,1.0,,2.0,2.0,,,3.0,2.0,0.0,2.0,,,2.0,,-9.0,-8.0,,-8.0,2.0,,,1.0,1.0,2.0,1.0,1.0,1.0,1.0,2.0,1.0,50.0,45.0,,,,,,,,3.0,5.0,4.0,-9.0,,,60.0,2.0,,,10.0,5.0,1.0,2.0,2.0,2.0,1.0,2.0,,2.0,,,,2.0,,,,2.0,,,,-7.0,3.0,1.0,1.0,3.0,2.0,100.0,,,,,0.0,1.0,3.0,3.0,-7.0,1.0,,,1.0,1.0,1,2.0,2.0,2.0,2.0,2.0,2.0,2.0,4.0,,,,,,,,5.0,1.0,,,,,23.0,7,2014,14.0,52.0,2.0,3.0,1,,,4.024519,4.075481,6.9217563,2000000.0,Two million,1500000.0,1000000.0,,,5000.0,,,,,13,0.0,82.0
587020,151268,1,1,1,1,1,2,2,3,18,3,0,0,2,,-7,-7,-7,-7,9,20.0,21.0,7,2014,11.0,30.0,3,3,,100.0,100,0,0,0,2.0,,2000.0,1.0,2.0,2000.0,16.0,2.0,4.0,1.0,2.0,,2.0,,,1.0,-9.0,,,35.0,,1.0,55.0,2.0,,,-7.0,,,2.0,2.0,4.0,2.0,Manufacturing of male clothes,1810,100.0,1.0,100.0,0.0,0.0,,,,,,0.0,0.0,90.0,10.0,2.0,,0.0,,3.0,1.0,1.0,-4.0,3.0,1.0,3.0,4.0,10.0,abia,5.0,2.0,2.0,2.0,1.0,2.0,1.0,2.0,2.0,2.0,2.0,2.0,2.0,-9.0,,,-9.0,100.0,,1.0,0.0,100.0,0.0,-7.0,-7.0,-7.0,2.0,,,,,,3.0,2.0,,,2.0,,,0.0,40.0,15.0,70.0,0.0,0.0,30.0,0.0,None,1.0,28500.0,0.0,100.0,0.0,0.0,0.0,0.0,0.0,None,2.0,2.0,,2.0,,,,,,,,,,,,,,,2.0,2.0,4.0,,2.0,2.0,,,2.0,2.0,0.0,2.0,,,2.0,2.0,,-8.0,,-9.0,2.0,,,2.0,,,2.0,2.0,1.0,2.0,2.0,1.0,15.0,3.0,15.0,0.0,15.0,0.0,6.0,0.0,0.0,0.0,0.0,,,-9.0,-7.0,100.0,1.0,80.0,0.0,1.0,0.0,2.0,1.0,2.0,1.0,1.0,-9.0,,2.0,,,,2.0,,,,2.0,,,,4.0,4.0,1.0,1.0,1.0,3.0,100.0,,,,,-9.0,2.0,,-7.0,-7.0,2.0,,,1.0,8.0,2,2.0,-7.0,2.0,2.0,2.0,2.0,2.0,2.0,,,,-9.0,,100000.0,-9.0,14.0,1.0,,,,,21.0,7,2014,15.0,5.0,1.0,3.0,1,,,3.4795234,3.4663215,5.2904134,-9.0,,-9.0,-9.0,-9.0,-9.0,-9.0,-9.0,45000.0,,-9.0,7,0.0,7.0
587021,151291,2,1,1,2,2,1,1,2,52,1,1,1,1,1.0,2,-7,-7,2,2,1.0,0.0,1,2014,0.0,0.0,3,3,,,100,0,0,0,1.0,100.0,2007.0,4.0,1.0,2007.0,7.0,1.0,7.0,1.0,1.0,well recognise,1.0,-9.0,1.0,1.0,10.0,-9.0,-9.0,30.0,,1.0,100.0,1.0,-9.0,1.0,,,,2.0,1.0,4.0,0.0,Pharmacy,5231,60.0,,100.0,0.0,0.0,,,,,,-9.0,-9.0,,,,,,-9.0,0.0,0.0,,,4.0,2.0,1.0,1.0,2.0,Does not apply,5.0,,2.0,0.0,1.0,1.0,1.0,1.0,1.0,1.0,1.0,2.0,1.0,,-9.0,60.0,,,13.0,1.0,100.0,0.0,0.0,0.0,0.0,100.0,2.0,,,1.0,3.0,,0.0,1.0,-9.0,,2.0,,,0.0,-9.0,0.0,0.0,0.0,0.0,0.0,100.0,personal money,2.0,,,0.0,0.0,0.0,0.0,0.0,,None,1.0,1.0,2.0,2.0,,,,,,,,,,,,,,,2.0,2.0,1.0,,2.0,2.0,,,0.0,-9.0,-9.0,1.0,6.0,1.0,,2.0,,-9.0,,0.0,2.0,,,1.0,-9.0,1.0,0.0,2.0,1.0,2.0,3.0,0.0,4.0,5.0,,,,,,,,2.0,5.0,,-9.0,,,0.0,1.0,,,5.0,0.0,2.0,2.0,2.0,2.0,2.0,2.0,,1.0,1.0,,7.0,2.0,,,,2.0,,,,-7.0,-7.0,1.0,1.0,2.0,2.0,-9.0,-9.0,,,,,1.0,2.0,1.0,2.0,0.0,,,0.0,8.0,2,2.0,2.0,2.0,1.0,2.0,2.0,2.0,0.0,,,,,,,,2.0,2.0,,,,,8.0,12,2014,0.0,0.0,1.0,1.0,3,2.0,10.0,2.1385117,2.137589,3.0883534,500000.0,Five hundred thousand,3000000.0,-9.0,,,-9.0,,,-9.0,,12,0.0,55.0
587022,151336,1,1,1,8,8,2,2,3,18,1,1,1,2,,-7,-7,-7,-7,2,12.0,9.0,2,2015,13.0,50.0,3,3,,,100,0,0,0,1.0,100.0,2002.0,2.0,2.0,2006.0,15.0,1.0,5.0,1.0,2.0,,2.0,,,1.0,60.0,10.0,10.0,0.0,,1.0,70.0,2.0,,,-7.0,,,2.0,2.0,1.0,-7.0,Manufactures of female and male native wears,1810,100.0,2.0,100.0,0.0,0.0,,,,,,-7.0,,100.0,0.0,,,7.0,,0.0,-7.0,1.0,5.0,3.0,2.0,5.0,5.0,-9.0,Lagos,5.0,2.0,-9.0,3.0,1.0,2.0,2.0,2.0,2.0,2.0,2.0,2.0,2.0,100.0,,,100.0,78.0,,1.0,0.0,100.0,0.0,-7.0,-7.0,-7.0,2.0,,,,,,0.0,1.0,1.0,,2.0,,,0.0,0.0,0.0,100.0,0.0,0.0,0.0,0.0,None,2.0,,,,,,,,,,2.0,2.0,,2.0,,,,,,,,,,,,,,,2.0,2.0,1.0,,2.0,2.0,,,0.0,3.0,0.0,2.0,,,2.0,2.0,,0.0,,-9.0,2.0,,,2.0,,,-9.0,-9.0,2.0,1.0,0.0,-7.0,9.0,7.0,9.0,0.0,9.0,0.0,7.0,7.0,0.0,,0.0,,,12.0,12.0,85.0,1.0,100.0,0.0,0.0,0.0,2.0,2.0,2.0,2.0,2.0,2.0,,2.0,,,,2.0,,,,2.0,,,,-7.0,4.0,2.0,2.0,5.0,1.0,,,,,,,2.0,,-7.0,3.0,0.0,,,0.0,12.0,1,2.0,2.0,1.0,2.0,1.0,2.0,1.0,4.0,,,,,,350000.0,-9.0,3.0,2.0,,,,,,12,2014,0.0,0.0,13642819200.0,55285.792,1,,,13.432498,13.381533,23.916214,2900000.0,Two million nine hundred thousand,1800000.0,950000.0,1800000.0,180000.0,12000.0,-9.0,36000.0,,-9.0,4,0.0,233.0
587023,151343,1,1,1,8,8,2,2,3,26,1,1,1,1,-7.0,-7,-7,-7,-7,10,12.0,25.0,7,2014,8.0,42.0,3,3,,,100,0,0,0,2.0,,1983.0,4.0,2.0,1990.0,30.0,2.0,2.0,1.0,2.0,,2.0,,,2.0,,,,,,1.0,100.0,2.0,,,2.0,,,2.0,2.0,1.0,0.0,manufacturing of concrete block,2695,100.0,2.0,100.0,0.0,0.0,,,,,,0.0,1.0,100.0,0.0,,,5.0,,1.0,0.0,2.0,-4.0,3.0,2.0,3.0,3.0,-9.0,ogun,5.0,2.0,2.0,0.0,2.0,,2.0,2.0,2.0,2.0,2.0,2.0,1.0,100.0,,,100.0,72.0,,2.0,100.0,0.0,0.0,0.0,100.0,0.0,2.0,,,,,,0.0,1.0,1.0,,2.0,,,0.0,0.0,0.0,100.0,0.0,0.0,0.0,0.0,None,2.0,,,0.0,0.0,0.0,0.0,0.0,,Cooperative,1.0,,,2.0,,,,,,,,,,,,,,,2.0,1.0,,2.0,2.0,2.0,,,2.0,-9.0,0.0,2.0,,,2.0,2.0,,-8.0,,-9.0,2.0,,,2.0,,,0.0,0.0,0.0,0.0,1.0,0.0,5.0,6.0,1.0,4.0,1.0,0.0,3.0,0.0,0.0,,3.0,2.0,-9.0,6.0,-7.0,60.0,1.0,100.0,0.0,0.0,0.0,1.0,1.0,1.0,1.0,1.0,2.0,,2.0,,,,2.0,,,,2.0,,,,-7.0,4.0,1.0,2.0,2.0,2.0,,,,,,,2.0,,2.0,2.0,1.0,,,0.0,1.0,3,1.0,2.0,2.0,1.0,2.0,1.0,2.0,3.0,,,,,,600000.0,800000.0,8.0,1.0,,,,,25.0,7,2014,11.0,20.0,1.0,2.0,1,,,21.450214,21.455692,34.391518,1000000.0,one million,900000.0,300000.0,500000.0,70000.0,30000.0,40000.0,0.0,,50000.0,5,0.0,234.0
587024,151371,1,1,1,2,2,2,2,3,28,1,1,1,2,,-7,-7,-7,-7,7,1.0,23.0,10,2014,8.0,48.0,3,3,,,100,0,0,0,2.0,,2006.0,12.0,1.0,2006.0,8.0,2.0,5.0,3.0,2.0,,2.0,,,1.0,-9.0,,,0.0,,1.0,60.0,2.0,,,-7.0,,,2.0,2.0,3.0,0.0,fabrication and selling of  metals,2891,100.0,1.0,100.0,0.0,0.0,,,,-9.0,,0.0,0.0,50.0,50.0,2.0,,1.0,,2.0,1.0,2.0,-4.0,4.0,2.0,4.0,3.0,3.0,"kastina,kano",5.0,2.0,1.0,2.0,2.0,,1.0,1.0,1.0,2.0,1.0,1.0,1.0,70.0,,,45.0,60.0,,1.0,0.0,100.0,0.0,0.0,100.0,0.0,2.0,,,,,,4.0,1.0,1.0,,2.0,,,2.0,40.0,10.0,100.0,0.0,0.0,0.0,0.0,None,2.0,,,0.0,0.0,0.0,0.0,0.0,,Relatives,1.0,2.0,,2.0,,,,,,,,,,,,,,,2.0,1.0,,-9.0,1.0,2.0,,,3.0,4.0,0.0,1.0,5.0,2.0,2.0,2.0,,0.0,,2.0,2.0,,,2.0,,,1.0,2.0,3.0,1.0,3.0,0.0,15.0,12.0,10.0,5.0,8.0,2.0,5.0,0.0,0.0,,0.0,,,17.0,-7.0,85.0,2.0,,,15.0,2.0,1.0,2.0,1.0,2.0,1.0,2.0,,2.0,,,,2.0,,,,2.0,,,,4.0,4.0,1.0,1.0,2.0,2.0,-9.0,,,,,,1.0,3.0,3.0,2.0,1.0,,,2.0,1.0,1,1.0,1.0,2.0,1.0,2.0,1.0,1.0,4.0,,,,-9.0,-9.0,3200000.0,18500000.0,3.0,1.0,,,,,23.0,10,2014,9.0,25.0,1.0,4.0,1,,,1.4780585,1.4981927,2.2115672,12000000.0,twelve million,8000000.0,2700000.0,6500000.0,145000.0,60000.0,0.0,300000.0,,-9.0,1,0.0,30.0
587025,151380,3,1,1,8,8,2,1,2,51,1,2,2,1,3.0,-7,-7,-7,-7,5,6.0,19.0,8,2014,16.0,2.0,3,3,,,100,0,0,0,1.0,100.0,2009.0,50.0,1.0,2009.0,10.0,2.0,6.0,3.0,2.0,,2.0,,,2.0,,,,,,1.0,60.0,2.0,,,,,,2.0,2.0,3.0,0.0,"Warehouse for unilever, cabry, Nestle and wamco",5122,100.0,,100.0,0.0,0.0,,,,,,0.0,0.0,,,,,,,2.0,2.0,,,4.0,2.0,3.0,3.0,5.0,Lagos,3.0,,2.0,1.0,2.0,,2.0,2.0,2.0,2.0,2.0,2.0,2.0,,80.0,-9.0,,,56.0,1.0,100.0,0.0,0.0,100.0,0.0,0.0,2.0,,,,,,0.0,1.0,1.0,,2.0,,,1.0,0.0,0.0,100.0,0.0,0.0,0.0,0.0,None,2.0,,,0.0,0.0,0.0,0.0,0.0,,Relatives,1.0,,2.0,2.0,,,,,,,,,,,,,,,2.0,2.0,1.0,,1.0,2.0,,,1.0,3.0,0.0,1.0,3.0,2.0,1.0,,-8.0,-8.0,,-8.0,2.0,,,2.0,,,1.0,1.0,1.0,3.0,3.0,1.0,50.0,50.0,,,,,,,,20.0,0.0,,,,,100.0,2.0,,,0.0,0.0,1.0,1.0,2.0,2.0,2.0,2.0,,2.0,,,,2.0,,,,2.0,,,,1.0,1.0,2.0,2.0,2.0,2.0,-9.0,,,,,,2.0,,1.0,1.0,1.0,,,0.0,4.0,3,2.0,2.0,1.0,2.0,1.0,2.0,2.0,1.0,,,,,,,,5.0,2.0,,,,,19.0,8,2014,17.0,25.0,1.0,1.0,1,,,2.0775678,2.0886965,3.4747405,-9.0,,-9.0,40.0,,,5.0,,,,,10,0.0,271.0
587026,151409,3,1,1,6,6,1,1,3,22,1,1,2,2,,2,-7,-7,1,14,18.0,25.0,7,2014,12.0,29.0,2,3,,,100,0,0,0,2.0,,1997.0,6.0,1.0,1997.0,15.0,2.0,5.0,1.0,2.0,,1.0,28.0,1.0,1.0,24.0,30.0,40.0,40.0,,1.0,30.0,2.0,,,,,,1.0,2.0,3.0,1.0,"we print calenders,books,magazines etc.",2221,70.0,,100.0,0.0,0.0,,,,,,0.0,0.0,,,,,,,2.0,2.0,,,2.0,2.0,3.0,4.0,9.0,Lagos,3.0,,2.0,2.0,1.0,1.0,1.0,1.0,1.0,2.0,2.0,1.0,1.0,,40.0,30.0,,,30.0,1.0,100.0,0.0,0.0,100.0,0.0,0.0,2.0,,,,,,2.0,1.0,20.0,,1.0,20.0,,2.0,40.0,30.0,100.0,0.0,0.0,0.0,0.0,None,1.0,600000.0,400000.0,100.0,0.0,0.0,0.0,0.0,0.0,None,1.0,,1.0,2.0,,,,,,,,,,,,,,,2.0,2.0,1.0,,2.0,2.0,,,2.0,3.0,20.0,1.0,28.0,1.0,,2.0,,40.0,,40.0,2.0,,,2.0,,,2.0,2.0,2.0,2.0,3.0,1.0,23.0,6.0,,,,,,,,-9.0,6.0,2.0,-9.0,,,60.0,1.0,,,3.0,3.0,1.0,2.0,2.0,1.0,2.0,2.0,,2.0,,,,1.0,1.0,,-9.0,1.0,1.0,,-9.0,1.0,1.0,1.0,1.0,4.0,2.0,20.0,1.0,,,,-9.0,1.0,2.0,1.0,2.0,2.0,,,2.0,13.0,2,1.0,2.0,1.0,2.0,1.0,1.0,2.0,2.0,,,,,,,,15.0,1.0,,,,,25.0,7,2014,13.0,23.0,1.0,2.0,1,,,3.8636057,3.8489463,5.9664536,1850000.0,One million eight hundred and fifty thousand,-9.0,200000.0,,,60000.0,,,,,6,0.0,155.0
587027,151522,2,1,1,7,7,1,1,3,52,1,0,0,2,,2,-7,-7,2,48,5.0,9.0,8,2014,9.0,20.0,3,3,,,100,0,0,0,2.0,,2000.0,2.0,2.0,2000.0,14.0,2.0,7.0,1.0,2.0,,2.0,,,1.0,15.0,10.0,59.0,3.0,,1.0,75.0,2.0,,,,,,1.0,1.0,2.0,4.0,islamic harbal medicine.,5239,100.0,,100.0,0.0,0.0,,,,,,2.0,0.0,,,,,,2.0,3.0,2.0,,,3.0,2.0,3.0,3.0,11.0,kastina,5.0,,2.0,2.0,2.0,,2.0,2.0,2.0,2.0,2.0,2.0,2.0,,25.0,25.0,,,72.0,1.0,0.0,100.0,0.0,0.0,100.0,0.0,2.0,,,-9.0,,,4.0,1.0,3.0,,2.0,,,3.0,0.0,0.0,100.0,0.0,0.0,0.0,0.0,None,2.0,,,0.0,0.0,0.0,0.0,0.0,,Relatives,1.0,,2.0,2.0,,,,,,,,,,,,,,,2.0,2.0,1.0,,2.0,2.0,,,4.0,3.0,0.0,1.0,1.0,2.0,2.0,,-8.0,-8.0,,-8.0,2.0,,,2.0,,,1.0,1.0,2.0,3.0,1.0,2.0,12.0,3.0,,,,,,,,0.0,0.0,,,,,-9.0,2.0,,,2.0,0.0,2.0,1.0,2.0,1.0,1.0,2.0,,2.0,,,,2.0,,,,2.0,,,,4.0,1.0,2.0,2.0,5.0,2.0,-9.0,,,,,,2.0,,3.0,1.0,3.0,,,2.0,11.0,3,2.0,2.0,2.0,2.0,2.0,2.0,2.0,2.0,,,,,,,,14.0,1.0,,,,,9.0,8,2014,10.0,52.0,1.0,1.0,1,,,2.9590595,3.0858252,3.9696045,2000000.0,two million,4000000.0,-9.0,,,-9.0,,,-9.0,,12,0.0,218.0
587028,151579,3,1,1,7,7,2,1,4,55,1,1,1,2,,-7,-7,-7,-7,11,1.0,13.0,9,2014,10.0,37.0,3,3,,,100,0,0,0,2.0,,2002.0,10.0,1.0,2002.0,4.0,2.0,7.0,3.0,2.0,,2.0,,,1.0,20.0,15.0,15.0,15.0,,1.0,60.0,2.0,,,,,,2.0,2.0,3.0,1.0,food and restruant,5520,90.0,,80.0,15.0,5.0,,,,2010.0,2.0,-7.0,,,,,,,,1.0,1.0,,,3.0,2.0,4.0,4.0,6.0,Kano,4.0,,2.0,2.0,1.0,2.0,1.0,1.0,1.0,1.0,1.0,2.0,2.0,,80.0,0.0,,,84.0,1.0,20.0,70.0,10.0,20.0,70.0,10.0,2.0,,,,,,3.0,1.0,10.0,,2.0,,,2.0,0.0,5.0,95.0,0.0,0.0,5.0,0.0,None,2.0,,,0.0,0.0,0.0,0.0,0.0,,Friends and associates,1.0,,2.0,2.0,,,,,,,,,,,,,,,2.0,2.0,1.0,,2.0,2.0,,,2.0,3.0,15.0,1.0,2.0,2.0,1.0,,5.0,5.0,,15.0,2.0,,,2.0,,,1.0,1.0,1.0,1.0,2.0,1.0,9.0,11.0,,,,,,,,4.0,0.0,,,,,9.0,2.0,,,0.0,0.0,2.0,2.0,2.0,2.0,2.0,2.0,,2.0,,,,2.0,,,,2.0,,,,-7.0,-7.0,2.0,2.0,5.0,3.0,5.0,1.0,,,,-9.0,1.0,1.0,-7.0,1.0,1.0,,,1.0,8.0,1,1.0,1.0,2.0,2.0,2.0,2.0,2.0,2.0,,,,,,,,5.0,1.0,,,,,13.0,9,2014,13.0,53.0,1.0,2.0,1,,,16.38949,17.034115,19.988905,1000000.0,one million,8000000.0,200000.0,,,20000.0,,,,,11,0.0,202.0
587029,151596,1,1,1,7,7,1,1,2,26,1,2,1,2,,-7,-7,-7,-7,64,229.0,11.0,8,2014,18.0,3.0,3,3,,,100,0,0,0,2.0,,2001.0,5.0,2.0,2001.0,5.0,2.0,4.0,3.0,2.0,,2.0,,,1.0,100.0,10.0,0.0,30.0,,1.0,85.0,2.0,,,1.0,50.0,5.0,2.0,2.0,4.0,2.0,building cement block,2695,100.0,2.0,100.0,0.0,0.0,,,,,,10.0,5.0,100.0,0.0,,,0.0,,2.0,1.0,1.0,-9.0,2.0,2.0,4.0,4.0,10.0,kano,5.0,2.0,2.0,-7.0,2.0,,2.0,2.0,2.0,2.0,2.0,2.0,2.0,-9.0,,,-9.0,75.0,,2.0,-9.0,-9.0,-9.0,0.0,100.0,0.0,2.0,,,,,,2.0,2.0,,,2.0,,,0.0,0.0,10.0,100.0,0.0,0.0,0.0,0.0,None,2.0,,,0.0,0.0,0.0,0.0,0.0,,Relatives,2.0,2.0,,2.0,,,,,,,,,,,,,,,2.0,2.0,6.0,,2.0,2.0,,,1.0,2.0,0.0,2.0,,,2.0,2.0,,-8.0,,-8.0,2.0,,,2.0,,,1.0,1.0,1.0,2.0,2.0,0.0,13.0,25.0,11.0,2.0,0.0,11.0,7.0,0.0,0.0,0.0,0.0,,,-9.0,-7.0,75.0,2.0,,,-9.0,0.0,2.0,2.0,2.0,2.0,2.0,2.0,,2.0,,,,2.0,,,,2.0,,,,-7.0,-7.0,1.0,1.0,5.0,2.0,,5.0,,,,,2.0,,-7.0,-7.0,1.0,,,2.0,1.0,2,2.0,2.0,2.0,2.0,2.0,2.0,2.0,2.0,,,,,,-9.0,-9.0,5.0,1.0,,,,,13.0,8,2014,21.0,57.0,1.0,1.0,1,21.0,57.0,34.387848,35.885662,46.05059,12000000.0,twelve million,33000000.0,2.0,3000000.0,1000000.0,100000.0,0.0,200000.0,,0.0,5,0.0,196.0
587030,151644,1,1,1,7,7,1,1,2,15,1,2,1,2,,-7,-7,-7,-7,86,81.0,5.0,11,2014,11.0,11.0,3,3,,,60,10,10,20,2.0,,2006.0,6.0,1.0,2006.0,10.0,2.0,5.0,2.0,2.0,,1.0,1.0,1.0,1.0,-9.0,,,-9.0,,1.0,95.0,1.0,3.0,1.0,2.0,,,2.0,2.0,4.0,0.0,bread manufacturing,1541,80.0,2.0,20.0,10.0,70.0,1.0,0.0,0.0,2011.0,2.0,0.0,0.0,60.0,40.0,2.0,,2.0,,2.0,0.0,1.0,-4.0,4.0,2.0,3.0,3.0,8.0,kano,5.0,2.0,1.0,3.0,2.0,,2.0,1.0,1.0,2.0,1.0,2.0,2.0,-9.0,,,65.0,136.0,,1.0,50.0,30.0,20.0,100.0,-7.0,0.0,2.0,,,,,,2.0,1.0,5.0,,2.0,,,0.0,30.0,30.0,50.0,0.0,0.0,50.0,0.0,None,-7.0,,,60.0,0.0,0.0,0.0,40.0,0.0,None,1.0,2.0,,2.0,,,,,,,,,,,,,,,2.0,-9.0,,,2.0,2.0,,,2.0,3.0,0.0,1.0,-9.0,,1.0,2.0,,5.0,,5.0,2.0,,,2.0,,,2.0,1.0,1.0,2.0,4.0,1.0,7.0,-9.0,5.0,2.0,5.0,0.0,4.0,0.0,0.0,-9.0,4.0,0.0,-9.0,6.0,-7.0,5.0,2.0,,,3.0,1.0,1.0,1.0,1.0,1.0,1.0,2.0,,2.0,,,,1.0,1.0,,2.0,2.0,,,,1.0,4.0,2.0,2.0,1.0,2.0,10.0,5.0,,,,-9.0,1.0,1.0,2.0,2.0,2.0,,,1.0,8.0,2,1.0,1.0,2.0,2.0,2.0,1.0,2.0,3.0,,,,-9.0,-9.0,-9.0,-9.0,8.0,1.0,,,,,6.0,11,2014,13.0,24.0,2.0,3.0,3,13.0,24.0,10.247095,10.743825,14.453217,75000.0,seventy five thousand,-9.0,-9.0,-9.0,-9.0,-9.0,-9.0,-9.0,,-9.0,2,0.0,193.0
587031,151694,1,1,1,7,7,1,1,2,15,1,2,2,2,,-7,-7,-7,-7,86,1.0,27.0,11,2014,16.0,55.0,3,3,,,50,10,20,20,2.0,,2002.0,12.0,1.0,2002.0,5.0,2.0,6.0,2.0,2.0,,1.0,1.0,1.0,1.0,30.0,10.0,-9.0,20.0,,1.0,30.0,1.0,1.0,1.0,2.0,,,2.0,2.0,4.0,0.0,production of bread and cake,1541,60.0,1.0,20.0,30.0,50.0,-7.0,-7.0,-7.0,2002.0,2.0,0.0,0.0,100.0,0.0,,,7.0,,2.0,0.0,1.0,-4.0,3.0,2.0,3.0,1.0,3.0,kano,5.0,2.0,2.0,2.0,1.0,1.0,1.0,1.0,1.0,2.0,1.0,2.0,1.0,60.0,,,40.0,120.0,,1.0,-9.0,-9.0,-9.0,10.0,0.0,90.0,2.0,,,,,,2.0,1.0,,200000.0,2.0,,,1.0,30.0,20.0,60.0,0.0,0.0,40.0,0.0,None,1.0,135.0,0.0,40.0,0.0,0.0,0.0,60.0,0.0,None,1.0,2.0,,2.0,,,,,,,,,,,,,,,1.0,2.0,1.0,,2.0,2.0,,,0.0,1.0,0.0,1.0,5.0,1.0,,2.0,,5.0,,5.0,2.0,,,2.0,,,1.0,1.0,2.0,2.0,0.0,0.0,26.0,12.0,6.0,20.0,2.0,3.0,4.0,0.0,0.0,,0.0,,,0.0,-7.0,11.0,2.0,,,0.0,2.0,2.0,1.0,1.0,1.0,1.0,2.0,,2.0,,,,1.0,4.0,,24.0,2.0,,,,4.0,4.0,1.0,1.0,1.0,1.0,5.0,4.0,,,,-9.0,1.0,2.0,-7.0,2.0,1.0,,,1.0,8.0,2,1.0,1.0,2.0,2.0,2.0,2.0,2.0,4.0,,,,-9.0,-9.0,-9.0,-9.0,4.0,1.0,,,,,27.0,11,2014,18.0,29.0,2.0,3.0,1,,,10.247095,10.743825,14.453217,2500000.0,two hundred and fifty thousand,-9.0,500000.0,85.0,60.0,28000.0,-9.0,5000.0,,0.0,2,0.0,193.0
587032,151703,3,1,1,8,8,2,1,2,50,1,2,2,2,,-7,-7,-7,-7,11,12.0,21.0,10,2014,9.0,14.0,3,3,,,100,0,0,0,2.0,,2005.0,30.0,2.0,2008.0,9.0,2.0,4.0,1.0,2.0,,1.0,30.0,2.0,1.0,200.0,3.0,20.0,60.0,,1.0,60.0,2.0,,,,,,2.0,2.0,3.0,2.0,mechanic of all kind of cars,5020,100.0,,100.0,0.0,0.0,,,,,,0.0,0.0,,,,,,,2.0,2.0,,,3.0,2.0,3.0,3.0,9.0,lagos cotonou,5.0,,1.0,1.0,1.0,1.0,1.0,1.0,2.0,1.0,1.0,2.0,1.0,,100.0,100.0,,,98.0,1.0,0.0,100.0,0.0,0.0,100.0,0.0,2.0,,,,,,0.0,1.0,3.0,,2.0,,,0.0,0.0,0.0,100.0,0.0,0.0,0.0,0.0,None,2.0,,,0.0,0.0,0.0,0.0,0.0,,Cooperative,1.0,,2.0,2.0,,,,,,,,,,,,,,,2.0,2.0,1.0,,2.0,2.0,,,0.0,4.0,50.0,1.0,1.0,2.0,2.0,,40.0,0.0,,5.0,2.0,,,1.0,14.0,2.0,3.0,3.0,2.0,2.0,2.0,3.0,21.0,25.0,,,,,,,,0.0,0.0,,,,,100.0,2.0,,,0.0,0.0,1.0,2.0,2.0,2.0,2.0,2.0,,2.0,,,,2.0,,,,2.0,,,,4.0,4.0,1.0,2.0,1.0,2.0,100.0,,,,,0.0,2.0,,3.0,2.0,0.0,,,0.0,-7.0,3,2.0,2.0,2.0,2.0,2.0,2.0,2.0,1.0,,,,,,,,9.0,1.0,,,,,21.0,10,2014,10.0,53.0,1.0,4.0,1,,,1.5314856,1.5298039,2.4314346,500000.0,Five hundred thousand,2.0,250000.0,,,80000.0,,,,,9,0.0,254.0
587033,151787,1,1,1,2,2,1,1,2,52,2,1,1,1,-7.0,-7,-7,-7,-7,7,2.0,6.0,8,2014,15.0,44.0,3,3,,,100,0,0,0,2.0,,1993.0,1.0,2.0,2002.0,20.0,2.0,7.0,1.0,2.0,,1.0,60.0,2.0,1.0,10.0,5.0,-9.0,2.0,,1.0,40.0,2.0,,,2.0,,,1.0,2.0,2.0,1.0,Selling of textiles materials,5232,98.0,2.0,100.0,0.0,0.0,,,,,,0.0,0.0,10.0,90.0,1.0,40.0,2.0,,1.0,1.0,1.0,-4.0,3.0,2.0,4.0,3.0,16.0,Kano state,5.0,2.0,2.0,1.0,1.0,1.0,1.0,1.0,1.0,1.0,1.0,2.0,1.0,85.0,,,78.0,70.0,,1.0,0.0,0.01,99.99,0.0,0.01,99.99,1.0,1.0,2.0,,,,2.0,1.0,0.2,,2.0,,,1.0,40.0,10.0,100.0,0.0,0.0,0.0,0.0,None,2.0,,,0.0,0.0,0.0,0.0,0.0,,Friends and associates,1.0,,,2.0,,,,,,,,,,,,,,,2.0,2.0,1.0,,2.0,2.0,,,2.0,2.0,0.0,2.0,,,2.0,2.0,,-8.0,,-9.0,2.0,,,2.0,,,1.0,1.0,1.0,3.0,2.0,1.0,11.0,10.0,3.0,8.0,0.0,3.0,7.0,0.0,0.0,,0.0,,,-9.0,-7.0,60.0,1.0,100.0,100.0,0.0,1.0,-9.0,1.0,1.0,1.0,-9.0,2.0,,2.0,,,,2.0,,,,-9.0,,,,-7.0,-7.0,-9.0,1.0,-9.0,-9.0,,,,,,,1.0,1.0,3.0,1.0,1.0,,,2.0,2.0,3,1.0,1.0,2.0,2.0,2.0,1.0,2.0,1.0,,,,,,-9.0,5000000.0,20.0,1.0,,,,,6.0,8,2014,18.0,50.0,1.0,2.0,2,1.0,10.0,1.2729459,1.2681161,1.9821402,50000000.0,fifty million,35850000.0,3500000.0,38000000.0,95000.0,60000.0,0.0,500000.0,,-9.0,7,0.0,36.0
587034,151805,1,1,1,8,8,2,2,3,36,1,1,1,2,,-7,-7,-7,-7,10,12.0,15.0,10,2014,8.0,37.0,3,3,,,100,0,0,0,2.0,,1995.0,1.0,2.0,2007.0,19.0,2.0,4.0,1.0,2.0,,2.0,,,2.0,,,,,,1.0,100.0,2.0,,,2.0,,,2.0,2.0,1.0,1.0,manufacturing of home and office funiture,3610,100.0,1.0,100.0,0.0,0.0,,,,,,0.0,0.0,100.0,0.0,,,3.0,,1.0,0.0,2.0,-4.0,3.0,2.0,4.0,4.0,-9.0,Does not apply,5.0,2.0,-9.0,0.0,2.0,,2.0,2.0,2.0,2.0,2.0,2.0,1.0,100.0,,,100.0,85.0,,1.0,0.0,100.0,0.0,0.0,100.0,0.0,2.0,,,,,,0.0,1.0,1.0,,2.0,,,0.0,-9.0,0.0,100.0,0.0,0.0,0.0,0.0,0,2.0,,,,,,,,,,1.0,,,2.0,,,,,,,,,,,,,,,2.0,2.0,6.0,,2.0,2.0,,,3.0,1.0,-9.0,1.0,-9.0,,2.0,2.0,,-9.0,,-9.0,2.0,,,2.0,,,0.0,0.0,0.0,0.0,1.0,0.0,11.0,9.0,10.0,1.0,5.0,5.0,4.0,0.0,0.0,,0.0,,,12.0,0.0,100.0,2.0,,,0.0,0.0,1.0,1.0,1.0,1.0,1.0,2.0,,2.0,,,,2.0,,,,2.0,,,,1.0,3.0,1.0,1.0,2.0,3.0,,,,,,,1.0,3.0,3.0,1.0,0.0,,,0.0,1.0,3,2.0,1.0,2.0,2.0,2.0,2.0,2.0,3.0,,,,,,-9.0,500000.0,4.0,1.0,,,,,,12,2014,0.0,0.0,13632710400.0,38976.615,1,,,10.682074,10.641544,17.51663,5000000.0,five million,4000000.0,1800000.0,2000000.0,100000.0,50000.0,250000.0,95000.0,,120000.0,3,0.0,232.0
587035,151866,2,1,1,6,6,2,2,2,52,1,1,1,2,,3,2,2,-7,12,18.0,12.0,8,2014,10.0,20.0,3,3,,,100,0,0,0,2.0,,-9.0,-9.0,-9.0,-9.0,5.0,2.0,4.0,3.0,-9.0,,2.0,,,1.0,20.0,3.0,3.0,3.0,,1.0,20.0,2.0,,,,,,2.0,2.0,1.0,0.0,Electronics and general sales,5233,100.0,,100.0,0.0,0.0,,,,,,0.0,0.0,,,,,,-9.0,1.0,0.0,,,3.0,2.0,3.0,1.0,-9.0,lagos,5.0,,1.0,4.0,1.0,1.0,2.0,2.0,2.0,2.0,1.0,2.0,2.0,,-9.0,-9.0,,,60.0,1.0,0.0,100.0,0.0,0.0,100.0,0.0,2.0,,,-9.0,,,2.0,2.0,,,2.0,,,0.0,30.0,10.0,60.0,0.0,0.0,40.0,0.0,None,2.0,,,0.0,0.0,0.0,0.0,0.0,,Internal funds,-9.0,-9.0,2.0,2.0,,,,,,,,,,,,,,,2.0,2.0,3.0,,2.0,2.0,,,1.0,4.0,0.0,2.0,,,2.0,,0.0,-8.0,,-9.0,-9.0,,,2.0,,,1.0,1.0,0.0,2.0,0.0,0.0,8.0,12.0,,,,,,,,3.0,0.0,,,,,80.0,2.0,,,2.0,2.0,2.0,2.0,2.0,2.0,2.0,2.0,,2.0,,,,2.0,,,,2.0,,,,-7.0,-7.0,1.0,1.0,2.0,1.0,100.0,,,,,-9.0,1.0,3.0,3.0,1.0,0.0,,,0.0,1.0,2,2.0,1.0,2.0,2.0,1.0,2.0,1.0,1.0,,,,,,,,5.0,1.0,,,,,12.0,8,2014,12.0,52.0,1.0,2.0,1,,,3.2488284,3.2474265,4.689722,50000000.0,fifty million,-9.0,2000000.0,,,60000.0,,,15000000.0,,12,0.0,176.0
587036,151899,3,1,1,7,7,1,1,2,60,1,2,2,2,,-7,-7,-7,-7,64,229.0,24.0,10,2014,11.0,49.0,3,3,,,100,0,0,0,2.0,,-9.0,-9.0,1.0,1998.0,15.0,2.0,4.0,1.0,2.0,,2.0,,,1.0,50.0,8.0,8.0,,15.0,1.0,80.0,2.0,,,,,,2.0,2.0,3.0,2.0,transportation/selling of spearparts.,6022,85.0,,100.0,0.0,0.0,,,,,,-7.0,,,,,,,,3.0,3.0,,,3.0,2.0,4.0,3.0,15.0,kano,5.0,,1.0,3.0,2.0,,2.0,2.0,2.0,2.0,2.0,2.0,2.0,,80.0,80.0,,,80.0,2.0,0.0,0.0,100.0,0.0,0.0,100.0,2.0,,,,,,4.0,2.0,,,1.0,5.0,,2.0,10.0,15.0,70.0,0.0,0.0,20.0,10.0,partners source,2.0,,,0.0,0.0,0.0,0.0,0.0,,None,2.0,2.0,2.0,2.0,,,,,,,,,,,,,,,2.0,2.0,3.0,,2.0,2.0,,,4.0,1.0,0.0,1.0,12.0,1.0,,2.0,,5.0,,5.0,2.0,,,2.0,,,3.0,2.0,1.0,2.0,4.0,1.0,50.0,40.0,,,,,,,,0.0,5.0,3.0,-9.0,,,50.0,2.0,,,0.0,2.0,1.0,1.0,1.0,1.0,1.0,2.0,,2.0,,,,2.0,,,,2.0,,,,-7.0,-7.0,1.0,1.0,5.0,2.0,30.0,5.0,,,,-9.0,1.0,2.0,3.0,2.0,2.0,,,2.0,11.0,2,2.0,2.0,2.0,2.0,2.0,2.0,2.0,3.0,,,,,,,,15.0,1.0,,,,,24.0,10,2014,13.0,29.0,1.0,2.0,1,,,2.0971985,2.176477,3.2174082,1500000.0,one million five hundred thousand,16000000.0,1000000.0,,,50000.0,,,,,13,0.0,219.0
587037,151944,1,1,1,7,7,1,1,2,28,1,1,1,2,,-7,-7,-7,-7,64,229.0,28.0,10,2014,12.0,38.0,3,3,,,100,0,0,0,2.0,,1986.0,0.0,2.0,1990.0,22.0,2.0,5.0,1.0,2.0,,2.0,,,1.0,60.0,5.0,5.0,35.0,,1.0,85.0,2.0,,,-7.0,,,2.0,2.0,4.0,2.0,fabrication,2891,65.0,2.0,100.0,0.0,0.0,,,,-9.0,,-7.0,,50.0,50.0,2.0,,0.0,,3.0,4.0,2.0,-4.0,3.0,1.0,4.0,3.0,15.0,kano,5.0,2.0,2.0,2.0,2.0,,1.0,2.0,2.0,2.0,2.0,2.0,2.0,-9.0,,,-9.0,80.0,,1.0,100.0,0.0,0.0,100.0,0.0,0.0,1.0,-5.0,-8.0,,,,3.0,1.0,5.0,,1.0,10.0,,2.0,20.0,30.0,90.0,0.0,0.0,0.0,10.0,partners source,2.0,,,0.0,0.0,0.0,0.0,0.0,,None,2.0,2.0,,2.0,,,,,,,,,,,,,,,2.0,1.0,,-9.0,2.0,2.0,,,4.0,2.0,0.0,1.0,6.0,-8.0,,2.0,,0.0,,10.0,2.0,,,2.0,,,3.0,3.0,1.0,3.0,4.0,2.0,7.0,25.0,6.0,1.0,3.0,3.0,4.0,0.0,0.0,,5.0,,-9.0,-9.0,-7.0,70.0,2.0,,,7.0,0.0,1.0,1.0,1.0,1.0,1.0,1.0,3.0,2.0,,,,2.0,,,,1.0,2.0,,-9.0,-7.0,-7.0,1.0,1.0,1.0,2.0,-9.0,5.0,,,,,1.0,3.0,3.0,2.0,2.0,,,3.0,1.0,1,1.0,2.0,1.0,1.0,2.0,1.0,2.0,2.0,,,,-9.0,-9.0,800000.0,3000000.0,22.0,1.0,,,,,28.0,10,2014,14.0,57.0,1.0,2.0,1,,,6.929586,7.328049,9.6315,5000000.0,five million,18000000.0,1500000.0,1000000.0,200000.0,150000.0,1000000.0,1500000.0,,200000.0,1,0.0,192.0
587038,151946,1,1,1,7,7,1,1,2,15,1,2,1,2,,-7,-7,-7,-7,86,81.0,6.0,11,2014,8.0,27.0,3,3,,,70,10,10,10,2.0,,2010.0,7.0,1.0,2006.0,3.0,2.0,4.0,3.0,2.0,,1.0,1.0,1.0,1.0,30.0,24.0,-9.0,40.0,,1.0,80.0,1.0,1.0,1.0,2.0,,,2.0,2.0,4.0,1.0,bread manufacturing,1541,80.0,1.0,10.0,10.0,80.0,1.0,0.0,2.0,2010.0,2.0,0.0,1.0,60.0,40.0,1.0,1.0,2.0,,2.0,0.0,1.0,-4.0,4.0,1.0,3.0,3.0,6.0,kano,5.0,2.0,2.0,0.0,1.0,1.0,1.0,1.0,1.0,2.0,1.0,2.0,1.0,60.0,,,60.0,84.0,,1.0,50.0,20.0,30.0,60.0,20.0,20.0,2.0,,,,,,2.0,1.0,5.0,,2.0,,,1.0,60.0,40.0,50.0,0.0,0.0,40.0,10.0,self,1.0,65.0,-9.0,70.0,5.0,0.0,0.0,25.0,0.0,None,1.0,,,2.0,,,,,,,,,,,,,,,2.0,2.0,6.0,,2.0,2.0,,,2.0,1.0,0.0,1.0,-9.0,,1.0,2.0,,0.0,,1.0,2.0,,,2.0,,,3.0,2.0,1.0,4.0,4.0,0.0,7.0,6.0,4.0,3.0,4.0,0.0,5.0,0.0,0.0,-9.0,8.0,3.0,-9.0,6.0,-7.0,5.0,2.0,,,6.0,3.0,1.0,1.0,1.0,1.0,2.0,2.0,,2.0,,,,2.0,,,,2.0,,,,1.0,4.0,2.0,2.0,1.0,2.0,,-9.0,,,,,1.0,1.0,2.0,2.0,2.0,,,3.0,8.0,2,1.0,2.0,2.0,2.0,2.0,2.0,2.0,4.0,,,,,,-9.0,-9.0,6.0,1.0,,,,,6.0,11,2014,12.0,4.0,2.0,3.0,3,12.0,4.0,10.247095,10.743825,14.453217,7000000.0,Seven million,-9.0,-9.0,60.0,80000.0,34000.0,-9.0,-9.0,,-9.0,2,0.0,193.0
587039,151990,1,1,1,7,7,1,1,2,15,1,2,1,2,,-7,-7,-7,-7,86,81.0,3.0,11,2014,18.0,4.0,3,3,,,80,0,5,15,2.0,,2008.0,15.0,1.0,2008.0,10.0,2.0,6.0,1.0,2.0,,1.0,1.0,1.0,1.0,-9.0,,,,10.0,1.0,40.0,2.0,,,2.0,,,2.0,2.0,3.0,0.0,production of bread,1541,80.0,1.0,10.0,5.0,85.0,2.0,-7.0,0.0,2008.0,2.0,0.0,2.0,80.0,20.0,2.0,,2.0,,3.0,1.0,1.0,-4.0,3.0,2.0,5.0,3.0,5.0,kano,5.0,2.0,2.0,3.0,1.0,1.0,1.0,1.0,1.0,1.0,1.0,2.0,1.0,60.0,,,20.0,80.0,,1.0,60.0,30.0,10.0,100.0,-7.0,-7.0,2.0,,,,,,0.0,1.0,2.0,,2.0,,,0.0,40.0,40.0,60.0,0.0,0.0,20.0,20.0,self,1.0,130.0,3.0,60.0,20.0,0.0,0.0,20.0,0.0,None,1.0,,,2.0,,,,,,,,,,,,,,,2.0,2.0,1.0,,2.0,2.0,,,0.0,2.0,0.0,1.0,20.0,1.0,,2.0,,5.0,,5.0,2.0,,,2.0,,,2.0,1.0,1.0,2.0,2.0,0.0,10.0,7.0,8.0,2.0,8.0,0.0,5.0,0.0,0.0,-9.0,0.0,,,2.0,-7.0,100.0,2.0,,,1.0,0.0,1.0,1.0,1.0,1.0,2.0,2.0,,2.0,,,,1.0,1.0,,1.0,2.0,,,,1.0,4.0,2.0,2.0,1.0,2.0,,,,,,,1.0,2.0,-7.0,-7.0,1.0,,,0.0,8.0,2,1.0,1.0,1.0,2.0,2.0,1.0,1.0,4.0,,,,,,300.0,2.0,8.0,1.0,,,,,3.0,11,2014,20.0,6.0,2.0,3.0,1,20.0,6.0,10.247095,10.743825,14.453217,800000.0,eight hundred thousand,-9.0,80.0,150.0,100.0,24000.0,250.0,150000.0,,0.0,2,0.0,193.0
587040,151994,3,1,1,6,6,2,2,2,18,1,1,1,2,,-7,-7,-7,-7,12,18.0,26.0,7,2014,12.0,26.0,3,3,,,100,0,0,0,2.0,,-9.0,-9.0,-9.0,-9.0,-9.0,2.0,4.0,1.0,-9.0,,2.0,,,1.0,50.0,15.0,15.0,3.0,,1.0,70.0,2.0,,,,,,2.0,2.0,2.0,0.0,tailoring,1810,100.0,,100.0,0.0,0.0,,,,,,0.0,0.0,,,,,,,0.0,0.0,,,3.0,1.0,4.0,4.0,2.0,kaduna,5.0,,1.0,0.0,1.0,2.0,2.0,2.0,2.0,2.0,2.0,2.0,2.0,,-9.0,-9.0,,,-9.0,1.0,0.0,100.0,0.0,0.0,100.0,0.0,2.0,,,,,,0.0,2.0,,,2.0,,,0.0,-9.0,-9.0,70.0,0.0,0.0,30.0,0.0,None,2.0,,,0.0,0.0,0.0,0.0,0.0,,Internal funds,2.0,2.0,2.0,2.0,,,,,,,,,,,,,,,-9.0,-9.0,,,2.0,2.0,,,2.0,3.0,0.0,2.0,,,2.0,,-9.0,-8.0,,-9.0,2.0,,,2.0,,,0.0,0.0,0.0,0.0,0.0,0.0,18.0,22.0,,,,,,,,3.0,0.0,,,,,-9.0,2.0,,,0.0,1.0,-9.0,-9.0,-9.0,-9.0,-9.0,2.0,,2.0,,,,2.0,,,,2.0,,,,-7.0,4.0,1.0,1.0,5.0,3.0,-9.0,,,,,,2.0,,3.0,-7.0,0.0,,,0.0,1.0,3,2.0,1.0,2.0,1.0,1.0,2.0,1.0,4.0,,,,,,,,3.0,1.0,,,,,26.0,7,2014,14.0,28.0,1.0,2.0,1,,,1.0923661,1.08662,1.7456506,2000000.0,Two million,-9.0,-9.0,,,-9.0,,,,,4,0.0,169.0
587041,152023,1,1,1,8,8,2,1,2,28,1,2,2,1,2.0,2,-7,-7,1,19,1.0,9.0,2,2015,9.0,52.0,3,3,,,100,0,0,0,2.0,,1969.0,2.0,2.0,1981.0,45.0,2.0,7.0,1.0,2.0,,2.0,,,1.0,35.0,8.0,8.0,40.0,,1.0,60.0,2.0,,,2.0,,,1.0,1.0,3.0,1.0,metal fabrication,2891,100.0,2.0,100.0,0.0,0.0,,,,,,10.0,0.0,100.0,0.0,,,5.0,,1.0,1.0,2.0,4.0,3.0,2.0,3.0,2.0,10.0,lagos,4.0,1.0,1.0,2.0,1.0,1.0,1.0,2.0,1.0,2.0,1.0,1.0,1.0,50.0,,,50.0,60.0,,2.0,100.0,0.0,0.0,100.0,0.0,0.0,2.0,,,,,,1.0,1.0,15.0,,2.0,,,1.0,0.0,0.0,80.0,20.0,0.0,0.0,0.0,none,2.0,,,,,,,,,,1.0,,,1.0,1.0,3.0,,2014.0,5000000.0,1.0,1.0,2.0,2.0,2.0,2.0,10000000.0,1.0,,2.0,2.0,,,1.0,2.0,,,2.0,3.0,0.0,1.0,2.0,2.0,2.0,1.0,-8.0,0.0,,-8.0,2.0,,,2.0,,,1.0,1.0,1.0,2.0,2.0,0.0,50.0,18.0,40.0,10.0,30.0,10.0,4.0,0.0,4.0,0.0,0.0,,,5.0,5.0,100.0,2.0,,,3.0,2.0,1.0,2.0,2.0,2.0,1.0,1.0,1.0,2.0,,,,2.0,,,,2.0,,,,3.0,3.0,1.0,1.0,1.0,2.0,,,,,,,1.0,1.0,2.0,2.0,2.0,,,2.0,8.0,2,2.0,2.0,2.0,2.0,2.0,2.0,2.0,4.0,,,,,,1500000.0,12000000.0,27.0,2.0,,,,,,12,2014,0.0,0.0,13642819200.0,40287.168,1,,,1.8083837,1.8303199,3.0052652,2000000.0,two million,5400000.0,1200000.0,1500000.0,250000.0,984000.0,60000.0,10000.0,,0.0,1,0.0,246.0
587042,152062,3,1,1,8,8,2,1,2,63,2,1,1,2,,2,-7,-7,2,6,12.0,15.0,8,2014,10.0,40.0,3,3,,,100,0,0,0,2.0,,2000.0,10.0,1.0,2000.0,20.0,2.0,8.0,1.0,-9.0,,2.0,,,1.0,10.0,6.0,6.0,1.0,,1.0,30.0,2.0,,,,,,2.0,1.0,1.0,2.0,visa bookings and reservations,6304,100.0,,100.0,0.0,0.0,,,,,,-7.0,,,,,,,,2.0,-7.0,,,4.0,2.0,1.0,1.0,-9.0,Does not apply,5.0,,1.0,2.0,2.0,,2.0,2.0,2.0,2.0,2.0,2.0,2.0,,-9.0,-9.0,,,63.0,1.0,0.0,20.0,80.0,-7.0,-7.0,-7.0,2.0,,,,,,3.0,1.0,1.0,,2.0,,,1.0,0.0,0.0,100.0,0.0,0.0,0.0,0.0,None,2.0,,,0.0,0.0,0.0,0.0,0.0,,Friends and associates,1.0,,2.0,2.0,,,,,,,,,,,,,,,2.0,2.0,1.0,,2.0,2.0,,,1.0,3.0,5.0,1.0,7.0,2.0,2.0,,0.0,-8.0,,-8.0,2.0,,,2.0,,,2.0,2.0,2.0,2.0,3.0,2.0,10.0,8.0,,,,,,,,5.0,-9.0,,,,,100.0,2.0,,,0.0,0.0,2.0,2.0,2.0,2.0,2.0,2.0,,2.0,,,,2.0,,,,1.0,5.0,,7.0,-7.0,1.0,2.0,2.0,1.0,2.0,100.0,,,,,-9.0,2.0,,3.0,-7.0,2.0,,,1.0,4.0,1,2.0,2.0,2.0,2.0,2.0,2.0,2.0,3.0,,,,,,,,2.0,2.0,,,,,15.0,8,2014,10.0,58.0,2.0,2.0,1,,,129.2932,128.80263,237.8021,500000.0,five hundred thousand,-9.0,-9.0,,,100000.0,,,,,13,0.0,242.0
587043,152073,2,1,1,9,9,2,2,2,50,2,2,2,1,48.0,3,2,1,-7,4,1.0,6.0,8,2014,11.0,10.0,3,2,,-9.0,0,0,0,100,-9.0,,2009.0,30.0,1.0,2009.0,25.0,2.0,7.0,3.0,2.0,,2.0,,,1.0,-9.0,,,4.0,,1.0,60.0,2.0,,,,,,-9.0,1.0,3.0,1.0,SELLING OF FUEL,5050,80.0,,100.0,0.0,0.0,,,,,,0.0,0.5,,,,,,25.0,2.0,2.0,,,1.0,2.0,5.0,3.0,5.0,OYO STATE,-9.0,,1.0,2.0,1.0,1.0,1.0,1.0,1.0,1.0,1.0,2.0,1.0,,92.0,-9.0,,,84.0,1.0,100.0,0.0,0.0,100.0,0.0,0.0,2.0,,,-9.0,,,2.0,2.0,,,2.0,,,1.0,2.0,0.0,100.0,0.0,0.0,0.0,0.0,None,1.0,4000000.0,0.0,0.0,0.0,0.0,0.0,0.0,100.0,Savings,1.0,,2.0,1.0,1.0,1.0,,-9.0,-9.0,-9.0,,,,,,,-9.0,,1.0,1.0,,2.0,1.0,2.0,,,2.0,4.0,15.0,2.0,,,2.0,,0.0,-8.0,,-9.0,-9.0,,,1.0,60.0,2.0,2.0,2.0,2.0,2.0,3.0,2.0,30.0,20.0,,,,,,,,10.0,8.0,2.0,-9.0,,,100.0,1.0,,,0.0,0.0,1.0,2.0,2.0,2.0,1.0,-9.0,,2.0,,,,1.0,1.0,,-9.0,1.0,1.0,,35.0,1.0,-9.0,1.0,1.0,1.0,2.0,100.0,,,,,5.0,1.0,-7.0,3.0,2.0,2.0,,,0.0,8.0,3,2.0,2.0,2.0,2.0,-9.0,-9.0,-9.0,4.0,,,,,,,,3.0,1.0,,,,,6.0,8,2014,12.0,38.0,2.0,3.0,1,,,26.392899,26.485039,29.35696,-9.0,,-9.0,-9.0,,,-9.0,,,-9.0,,2,0.0,291.0
587044,152092,3,1,1,8,8,1,1,3,22,1,2,2,2,,-7,-7,-7,-7,12,1.0,16.0,2,2015,18.0,30.0,3,3,,,100,0,0,0,2.0,,2003.0,-9.0,-9.0,-9.0,2.0,2.0,6.0,3.0,2.0,,2.0,,,2.0,,,,,,2.0,,1.0,16.0,2.0,,,,2.0,2.0,1.0,0.0,Publishing,2211,100.0,,100.0,0.0,0.0,,,,,,-7.0,,,,,,,,0.0,1.0,,,2.0,2.0,-9.0,-9.0,-9.0,Does not apply,4.0,,2.0,1.0,2.0,,2.0,2.0,2.0,2.0,2.0,2.0,2.0,,55.0,60.0,,,-9.0,-9.0,-9.0,-9.0,-9.0,-7.0,-7.0,-7.0,2.0,,,,,,0.0,2.0,,,2.0,,,1.0,0.0,0.0,60.0,0.0,0.0,0.0,40.0,No other,2.0,,,,,,,,,,2.0,2.0,2.0,2.0,,,,,,,,,,,,,,,2.0,2.0,1.0,,2.0,2.0,,,0.0,4.0,-9.0,-9.0,,,2.0,,0.0,0.0,,-9.0,2.0,,,2.0,,,3.0,1.0,1.0,0.0,3.0,2.0,-9.0,-9.0,,,,,,,,-9.0,-9.0,,,,,-9.0,-9.0,,,-9.0,-9.0,2.0,1.0,2.0,2.0,1.0,2.0,,2.0,,,,2.0,,,,2.0,,,,-7.0,-7.0,2.0,2.0,5.0,4.0,-9.0,,,,,,-9.0,,-7.0,-7.0,2.0,,,0.0,-7.0,3,2.0,2.0,-7.0,2.0,2.0,2.0,2.0,0.0,,,,,,,,2.0,1.0,,,,,16.0,2,2015,19.0,45.0,1.0,2.0,1,,,1.2864784,1.2797111,2.2075205,5000000.0,five million,-9.0,100000.0,,,-9.0,,,,,6,0.0,251.0
587045,152129,1,1,1,6,6,2,2,2,22,1,1,1,2,,-7,-7,-7,-7,6,7.0,23.0,12,2014,15.0,11.0,3,3,,,100,0,0,0,2.0,,2010.0,6.0,2.0,2012.0,5.0,2.0,7.0,1.0,2.0,,1.0,15.0,2.0,1.0,100.0,3.0,0.0,90.0,,1.0,90.0,1.0,30.0,2.0,2.0,,,1.0,1.0,3.0,1.0,publishing of books,2211,100.0,2.0,100.0,0.0,0.0,,,,,,0.0,0.0,100.0,0.0,,,6.0,,2.0,2.0,2.0,-4.0,3.0,2.0,3.0,3.0,5.0,kaduna,5.0,2.0,-9.0,2.0,1.0,1.0,1.0,1.0,2.0,1.0,1.0,2.0,1.0,100.0,,,100.0,80.0,,1.0,0.0,100.0,0.0,0.0,100.0,0.0,2.0,,,,,,0.0,1.0,3.0,,2.0,,,0.0,0.0,0.0,100.0,0.0,0.0,0.0,0.0,0,2.0,,,,,,,,,,1.0,,,2.0,,,,,,,,,,,,,,,2.0,2.0,1.0,,2.0,2.0,,,0.0,4.0,30.0,1.0,1.0,2.0,2.0,2.0,,0.0,,5.0,2.0,,,1.0,15.0,2.0,3.0,3.0,2.0,3.0,3.0,2.0,5.0,6.0,5.0,0.0,5.0,0.0,4.0,2.0,0.0,,0.0,,,12.0,12.0,100.0,2.0,,,0.0,1.0,2.0,2.0,2.0,2.0,2.0,2.0,,2.0,,,,2.0,,,,2.0,,,,4.0,4.0,2.0,2.0,1.0,2.0,,,,,,,2.0,,-7.0,-7.0,2.0,,,2.0,8.0,2,2.0,2.0,2.0,2.0,2.0,2.0,2.0,3.0,,,,,,20000.0,20000.0,5.0,1.0,,,,,,12,2014,0.0,0.0,13638672000.0,58557.373,1,,,3.8636057,3.8489463,5.9664536,250000.0,two hundred and fifty thousand,750000.0,80000.0,60000.0,75000.0,50000.0,20000.0,50000.0,,20000.0,6,0.0,155.0
587046,152153,1,1,1,7,7,1,1,2,15,1,1,1,2,,-7,-7,-7,-7,64,229.0,23.0,10,2014,12.0,14.0,3,3,,,100,0,0,0,2.0,,1990.0,-9.0,2.0,-9.0,12.0,2.0,4.0,1.0,2.0,,2.0,,,1.0,45.0,15.0,15.0,5.0,,1.0,90.0,2.0,,,2.0,,,2.0,2.0,2.0,3.0,bread Baking,1541,100.0,2.0,100.0,0.0,0.0,,,,,,-7.0,,100.0,0.0,,,0.0,,3.0,1.0,1.0,-4.0,3.0,2.0,3.0,2.0,9.0,kano,5.0,2.0,2.0,2.0,2.0,,2.0,2.0,2.0,2.0,2.0,2.0,2.0,90.0,,,90.0,120.0,,2.0,0.0,0.0,100.0,0.0,0.0,100.0,2.0,,,,,,3.0,2.0,,,2.0,,,1.0,20.0,15.0,100.0,0.0,0.0,0.0,0.0,None,2.0,,,0.0,0.0,0.0,0.0,0.0,,Friends and associates,2.0,2.0,,2.0,,,,,,,,,,,,,,,2.0,2.0,6.0,,2.0,2.0,,,4.0,1.0,0.0,2.0,,,2.0,2.0,,0.0,,0.0,2.0,,,2.0,,,1.0,1.0,1.0,2.0,3.0,2.0,8.0,25.0,7.0,1.0,0.0,7.0,5.0,0.0,0.0,,0.0,,,6.0,-7.0,85.0,2.0,,,0.0,0.0,1.0,1.0,1.0,1.0,1.0,2.0,,2.0,,,,2.0,,,,2.0,,,,-7.0,-7.0,1.0,1.0,5.0,2.0,,-9.0,,,,,2.0,,-7.0,-7.0,1.0,,,2.0,1.0,2,2.0,2.0,2.0,2.0,2.0,2.0,2.0,3.0,,,,,,-9.0,-9.0,12.0,1.0,,,,,23.0,10,2014,14.0,6.0,2.0,2.0,1,,,10.247095,10.743825,14.453217,5000000.0,five million,20000000.0,700000.0,600000.0,500000.0,23000.0,700000.0,150000.0,,-9.0,2,0.0,193.0
587047,152159,1,1,1,8,8,2,2,4,28,1,2,2,2,,-7,-7,-7,-7,10,12.0,18.0,2,2015,9.0,14.0,3,3,,,100,0,0,0,2.0,,1996.0,3.0,1.0,1996.0,18.0,2.0,3.0,1.0,2.0,,2.0,,,2.0,,,,,,1.0,100.0,2.0,,,2.0,,,2.0,2.0,3.0,1.0,constructing metal,2891,100.0,2.0,100.0,0.0,0.0,,,,,,0.0,0.0,100.0,0.0,,,4.0,,0.0,0.0,2.0,-4.0,3.0,2.0,4.0,3.0,-9.0,Does not apply,5.0,2.0,2.0,0.0,2.0,,2.0,2.0,2.0,2.0,2.0,2.0,2.0,100.0,,,100.0,78.0,,2.0,100.0,0.0,0.0,100.0,0.0,0.0,2.0,,,,,,0.0,2.0,,,2.0,,,0.0,0.0,0.0,100.0,0.0,0.0,0.0,0.0,0,2.0,,,,,,,,,,1.0,,,2.0,,,,,,,,,,,,,,,-9.0,2.0,,,2.0,2.0,,,2.0,3.0,0.0,1.0,1.0,2.0,2.0,2.0,,0.0,,-9.0,2.0,,,2.0,,,0.0,0.0,0.0,0.0,0.0,0.0,23.0,21.0,21.0,2.0,15.0,6.0,5.0,0.0,2.0,,0.0,,,6.0,16.0,30.0,2.0,,,2.0,0.0,1.0,1.0,1.0,1.0,1.0,2.0,,2.0,,,,2.0,,,,2.0,,,,-7.0,4.0,1.0,1.0,1.0,4.0,,,,,,,2.0,,3.0,2.0,0.0,,,0.0,1.0,3,1.0,2.0,1.0,1.0,1.0,2.0,2.0,2.0,,,,,,0.0,3000000.0,4.0,1.0,,,,,,12,2014,0.0,0.0,13643596800.0,43104.898,1,,,1.8083837,1.8303199,3.0052652,4500000.0,four million five hundred thousand,4350000.0,1700000.0,2000000.0,240000.0,48000.0,300000.0,50000.0,,150000.0,1,0.0,246.0
587048,152163,1,1,1,8,8,2,1,2,28,1,1,1,2,,-7,-7,-7,-7,4,6.0,19.0,2,2015,8.0,26.0,2,5,,100.0,100,0,0,0,2.0,,1990.0,5.0,1.0,1990.0,5.0,2.0,7.0,3.0,2.0,,2.0,,,1.0,50.0,40.0,25.0,3.0,,1.0,80.0,2.0,,,2.0,,,1.0,1.0,4.0,1.0,manufacturing of metals,2891,100.0,2.0,100.0,0.0,0.0,,,,,,0.0,0.0,50.0,50.0,1.0,5.0,7.0,,1.0,1.0,1.0,-4.0,4.0,2.0,3.0,1.0,5.0,lagos,5.0,2.0,2.0,1.0,2.0,,2.0,2.0,2.0,2.0,2.0,2.0,2.0,100.0,,,100.0,70.0,,1.0,30.0,70.0,0.0,30.0,70.0,-7.0,2.0,,,,,,1.0,1.0,2.0,,2.0,,,1.0,0.0,0.0,100.0,0.0,0.0,0.0,0.0,,2.0,,,,,,,,,,1.0,,,2.0,,,,,,,,,,,,,,,2.0,2.0,1.0,,2.0,2.0,,,1.0,2.0,0.0,1.0,10.0,2.0,2.0,2.0,,0.0,,2.0,2.0,,,2.0,,,1.0,1.0,1.0,0.0,1.0,1.0,10.0,8.0,7.0,3.0,7.0,0.0,4.0,-9.0,-9.0,,0.0,,,12.0,-7.0,80.0,2.0,,,0.0,0.0,1.0,1.0,2.0,2.0,1.0,2.0,,2.0,,,,2.0,,,,2.0,,,,4.0,1.0,1.0,1.0,1.0,2.0,,,,,,,2.0,,3.0,2.0,1.0,,,0.0,8.0,1,2.0,1.0,2.0,2.0,1.0,1.0,1.0,1.0,,,,,,-9.0,-9.0,5.0,1.0,,,,,,12,2014,0.0,0.0,13643683200.0,31540.178,1,,,4.112998,4.169025,6.8443875,5000000.0,five million,3000000.0,1000000.0,1500000.0,500000.0,10000.0,-9.0,-9.0,,-9.0,1,0.0,230.0
587049,152219,2,1,1,2,2,1,2,2,50,1,0,0,2,,-7,-7,-7,-7,45,1.0,10.0,9,2014,16.0,3.0,2,3,,,100,0,0,0,2.0,,2002.0,2.0,2.0,2004.0,16.0,2.0,4.0,1.0,2.0,,2.0,,,1.0,-9.0,,,0.0,,1.0,10.0,2.0,,,,,,2.0,2.0,1.0,1.0,"sales of spare part, mainly car battries",5030,100.0,,100.0,0.0,0.0,,,,,,0.0,0.0,,,,,,30.0,1.0,1.0,,,3.0,2.0,3.0,3.0,12.0,lagos and delta state,5.0,,1.0,2.0,1.0,2.0,2.0,2.0,2.0,2.0,2.0,2.0,1.0,,100.0,100.0,,,60.0,1.0,0.0,10.0,90.0,0.0,10.0,90.0,2.0,,,30.0,1.0,,3.0,1.0,5.0,,2.0,,,1.0,20.0,0.0,80.0,0.0,0.0,20.0,0.0,none,2.0,,,,,,,,,,1.0,,2.0,2.0,,,,,,,,,,,,,,,2.0,2.0,3.0,,2.0,2.0,,,2.0,3.0,0.0,1.0,1.0,2.0,2.0,,-8.0,-8.0,,-9.0,2.0,,,2.0,,,2.0,1.0,1.0,3.0,2.0,1.0,8.0,3.0,,,,,,,,1.0,0.0,,,,,100.0,1.0,,,0.0,0.0,2.0,2.0,2.0,2.0,2.0,2.0,,2.0,,,,2.0,,,,1.0,2.0,,-9.0,3.0,4.0,1.0,2.0,2.0,2.0,100.0,,,,,60.0,1.0,1.0,2.0,1.0,1.0,,,2.0,1.0,1,1.0,1.0,1.0,1.0,1.0,1.0,1.0,3.0,,,,,,,,16.0,1.0,,,,,10.0,9,2014,16.0,58.0,2.0,3.0,1,,,34.059685,34.072422,48.68627,35000000.0,Thirty five million,100000000.0,800000.0,,,40000.0,,,28000000.0,,9,0.0,38.0
587050,152271,2,1,1,6,6,2,2,2,52,3,0,0,2,,-7,-7,-7,-7,12,18.0,11.0,8,2014,11.0,52.0,3,3,,,100,0,0,0,2.0,,2004.0,2.0,2.0,2004.0,18.0,2.0,4.0,1.0,2.0,,2.0,,,1.0,60.0,7.0,7.0,3.0,,1.0,25.0,2.0,,,,,,2.0,2.0,0.0,0.0,carpet and rug sales,5233,100.0,,100.0,0.0,0.0,,,,,,0.0,0.0,,,,,,-9.0,1.0,0.0,,,3.0,2.0,2.0,1.0,10.0,lagos,5.0,,1.0,3.0,1.0,1.0,2.0,2.0,2.0,2.0,2.0,2.0,2.0,,-9.0,-9.0,,,54.0,2.0,0.0,100.0,0.0,0.0,100.0,0.0,2.0,,,-9.0,,,0.0,2.0,,,2.0,,,0.0,40.0,0.0,60.0,0.0,0.0,40.0,0.0,None,2.0,,,0.0,0.0,0.0,0.0,0.0,,Internal funds,1.0,,2.0,2.0,,,,,,,,,,,,,,,2.0,2.0,3.0,,2.0,2.0,,,1.0,3.0,0.0,2.0,,,2.0,,0.0,-8.0,,-9.0,2.0,,,2.0,,,1.0,1.0,0.0,2.0,1.0,0.0,6.0,5.0,,,,,,,,0.0,0.0,,,,,66.0,2.0,,,0.0,1.0,2.0,2.0,2.0,2.0,2.0,2.0,,2.0,,,,2.0,,,,2.0,,,,-7.0,-7.0,1.0,1.0,2.0,1.0,-9.0,,,,,,2.0,,3.0,1.0,0.0,,,0.0,1.0,3,2.0,1.0,1.0,2.0,1.0,2.0,2.0,1.0,,,,,,,,11.0,1.0,,,,,11.0,8,2014,14.0,3.0,1.0,2.0,1,,,4.447879,4.4310026,6.9228077,4000000.0,four million,6000000.0,500000.0,,,50000.0,,,3000000.0,,7,0.0,156.0
587051,152287,3,1,1,6,6,1,1,3,55,1,1,1,2,,2,-7,-7,1,14,18.0,13.0,8,2014,12.0,44.0,2,3,,,100,0,0,0,2.0,,1999.0,5.0,1.0,1999.0,18.0,1.0,7.0,1.0,2.0,,2.0,,,1.0,9.0,12.0,30.0,20.0,,1.0,30.0,2.0,,,,,,2.0,2.0,2.0,2.0,we cook and sell food,5520,100.0,,100.0,0.0,0.0,,,,,,-9.0,-9.0,,,,,,,1.0,0.0,,,2.0,2.0,3.0,3.0,-9.0,Does not apply,-9.0,,1.0,1.0,1.0,1.0,1.0,1.0,1.0,1.0,1.0,1.0,1.0,,-9.0,-9.0,,,84.0,1.0,100.0,0.0,0.0,100.0,0.0,0.0,2.0,,,,,,1.0,1.0,20.0,,1.0,20.0,,2.0,40.0,30.0,100.0,0.0,0.0,0.0,0.0,None,2.0,,,0.0,0.0,0.0,0.0,0.0,,Friends and associates,2.0,2.0,2.0,2.0,,,,,,,,,,,,,,,2.0,2.0,1.0,,2.0,2.0,,,1.0,2.0,40.0,1.0,6.0,1.0,,2.0,,40.0,,40.0,2.0,,,2.0,,,2.0,1.0,1.0,3.0,3.0,1.0,-9.0,5.0,,,,,,,,0.0,5.0,1.0,-9.0,,,3.0,1.0,,,-9.0,-9.0,1.0,1.0,1.0,2.0,2.0,2.0,,2.0,,,,2.0,,,,2.0,,,,1.0,1.0,1.0,1.0,1.0,2.0,-9.0,,,,,,1.0,1.0,2.0,2.0,1.0,,,2.0,14.0,2,2.0,1.0,1.0,2.0,-7.0,2.0,2.0,1.0,,,,,,,,10.0,2.0,,,,,13.0,8,2014,13.0,31.0,2.0,2.0,1,,,79.05425,78.7543,103.747025,800000.0,Eight hundred thousand,-9.0,200000.0,,,-9.0,,,,,11,0.0,160.0
587052,152314,3,1,1,8,8,2,1,2,50,1,2,2,2,,-7,-7,-7,-7,11,12.0,9.0,2,2015,9.0,10.0,3,3,,,100,0,0,0,2.0,,2006.0,-9.0,1.0,2006.0,9.0,2.0,4.0,1.0,2.0,,1.0,15.0,2.0,1.0,100.0,5.0,30.0,40.0,,1.0,40.0,2.0,,,,,,1.0,2.0,2.0,2.0,repairs of all motors,5020,100.0,,100.0,0.0,0.0,,,,,,-7.0,,,,,,,,2.0,2.0,,,3.0,2.0,3.0,3.0,9.0,lagos,5.0,,1.0,2.0,1.0,1.0,1.0,1.0,2.0,1.0,1.0,2.0,1.0,,100.0,100.0,,,70.0,1.0,0.0,100.0,0.0,0.0,100.0,0.0,2.0,,,,,,0.0,1.0,2.0,,2.0,,,0.0,3.0,0.0,100.0,0.0,0.0,0.0,0.0,0,2.0,,,,,,,,,,1.0,,2.0,2.0,,,,,,,,,,,,,,,2.0,2.0,1.0,,2.0,2.0,,,0.0,3.0,30.0,1.0,1.0,2.0,2.0,,0.0,0.0,,3.0,2.0,,,1.0,15.0,2.0,2.0,2.0,2.0,2.0,2.0,2.0,22.0,25.0,,,,,,,,0.0,0.0,,,,,100.0,2.0,,,0.0,0.0,1.0,1.0,2.0,2.0,2.0,2.0,,2.0,,,,2.0,,,,2.0,,,,4.0,4.0,2.0,2.0,1.0,2.0,100.0,,,,,0.0,2.0,,3.0,-7.0,0.0,,,0.0,12.0,3,2.0,2.0,2.0,2.0,2.0,2.0,2.0,2.0,,,,,,,,9.0,1.0,,,,,9.0,2,2015,10.0,40.0,1.0,4.0,1,,,1.5314856,1.5298039,2.4314346,40000000.0,Forty million,10000000.0,1000000.0,,,80000.0,,,,,9,0.0,254.0
587053,152403,1,1,1,1,1,2,1,2,36,3,0,0,2,,-7,-7,-7,-7,8,20.0,22.0,7,2014,12.0,53.0,2,3,,100.0,100,0,0,0,2.0,,-9.0,-9.0,-9.0,-9.0,7.0,1.0,4.0,3.0,2.0,,2.0,,,1.0,-9.0,,,20.0,,1.0,20.0,2.0,,,2.0,,,-9.0,-9.0,2.0,2.0,"interior decorator,funishes company,houses and school. any wood work",3610,80.0,-9.0,100.0,0.0,0.0,,,,,,-7.0,,-9.0,-9.0,1.0,-9.0,-9.0,,3.0,3.0,2.0,-4.0,3.0,2.0,5.0,4.0,-9.0,abia,5.0,2.0,2.0,2.0,2.0,,1.0,2.0,2.0,2.0,2.0,2.0,2.0,-9.0,,,-9.0,60.0,,1.0,0.0,100.0,0.0,0.0,100.0,0.0,2.0,,,,,,1.0,1.0,15.0,,2.0,,,2.0,0.0,0.0,100.0,0.0,0.0,0.0,0.0,None,-7.0,,,0.0,0.0,0.0,0.0,0.0,100.0,Friends and associates,1.0,-9.0,,2.0,,,,,,,,,,,,,,,2.0,2.0,3.0,,-9.0,2.0,,,4.0,4.0,-9.0,1.0,-9.0,,-9.0,-9.0,,-8.0,,-9.0,2.0,,,1.0,-9.0,-9.0,2.0,2.0,2.0,2.0,2.0,2.0,-9.0,-9.0,-9.0,-9.0,-9.0,-9.0,7.0,-9.0,-9.0,0.0,0.0,,,6.0,6.0,70.0,2.0,,,0.0,0.0,1.0,2.0,2.0,2.0,1.0,2.0,,2.0,,,,2.0,,,,2.0,,,,4.0,4.0,2.0,2.0,2.0,2.0,-9.0,,,,,,2.0,,3.0,-7.0,2.0,,,2.0,4.0,1,2.0,2.0,2.0,2.0,2.0,2.0,2.0,2.0,,,,-9.0,-9.0,-9.0,-9.0,7.0,2.0,,,,,22.0,7,2014,13.0,31.0,1.0,2.0,1,,,3.4795234,3.4663215,5.2904134,-9.0,,-9.0,-9.0,-9.0,-9.0,-9.0,-9.0,-9.0,,-9.0,7,0.0,7.0
587054,152423,3,1,1,7,7,1,1,4,60,1,1,1,2,,-7,-7,-7,-7,11,1.0,4.0,11,2014,9.0,5.0,2,4,,-9.0,0,100,0,0,2.0,,2004.0,8.0,1.0,2004.0,7.0,2.0,7.0,1.0,2.0,,2.0,,,2.0,,,,,,2.0,,2.0,,,,,,1.0,1.0,0.0,0.0,Urban Mass transit,6021,90.0,,50.0,30.0,20.0,,,,2004.0,1.0,10.0,10.0,,,,,,,2.0,4.0,,,3.0,1.0,5.0,5.0,6.0,Kwatano,4.0,,2.0,1.0,1.0,1.0,1.0,2.0,1.0,1.0,1.0,2.0,2.0,,30.0,20.0,,,25.0,2.0,100.0,0.0,0.0,100.0,0.0,0.0,2.0,,,,,,0.0,1.0,20.0,,2.0,,,1.0,0.0,0.0,80.0,0.0,0.0,0.0,20.0,Relatives,2.0,,,0.0,0.0,0.0,0.0,0.0,,Cooperative,1.0,,2.0,2.0,,,,,,,,,,,,,,,2.0,2.0,1.0,,2.0,2.0,,,1.0,1.0,20.0,1.0,20.0,2.0,1.0,,15.0,20.0,,20.0,1.0,40.0,1.0,1.0,10.0,1.0,2.0,2.0,1.0,1.0,2.0,1.0,12.0,12.0,,,,,,,,3.0,0.0,,,,,20.0,2.0,,,0.0,0.0,2.0,2.0,2.0,2.0,2.0,2.0,,1.0,1.0,,15.0,2.0,,,,2.0,,,,-7.0,-7.0,1.0,1.0,5.0,4.0,20.0,5.0,,,,-9.0,1.0,1.0,-7.0,-7.0,2.0,,,2.0,14.0,3,2.0,2.0,2.0,2.0,2.0,2.0,2.0,2.0,,,,,,,,7.0,1.0,,,,,4.0,11,2014,11.0,30.0,1.0,1.0,1,,,37.248867,38.713924,57.22207,35000000.0,thirty five million,500000000.0,25.0,,,20.0,,,,,13,0.0,204.0
587055,152445,3,1,1,6,6,2,2,2,51,1,1,1,2,,-7,-7,-7,-7,13,18.0,25.0,7,2014,12.0,57.0,3,3,,,100,0,0,0,2.0,,2000.0,9.0,2.0,2008.0,6.0,2.0,4.0,3.0,2.0,,2.0,,,2.0,,,,,,2.0,,2.0,,,,,,2.0,2.0,3.0,2.0,Sales of Electronics,5152,100.0,,-9.0,-9.0,-9.0,,,,-9.0,2.0,0.0,0.0,,,,,,,2.0,4.0,,,4.0,2.0,4.0,4.0,-9.0,Does not apply,4.0,,1.0,3.0,1.0,1.0,1.0,1.0,1.0,1.0,1.0,2.0,1.0,,85.0,65.0,,,48.0,1.0,50.0,50.0,0.0,50.0,50.0,0.0,2.0,,,,,,2.0,1.0,5.0,,2.0,,,2.0,35.0,25.0,75.0,25.0,0.0,0.0,0.0,None,1.0,3000000.0,10000000.0,40.0,0.0,0.0,0.0,60.0,0.0,None,1.0,,2.0,2.0,,,,,,,,,,,,,,,2.0,2.0,5.0,,2.0,2.0,,,3.0,2.0,5.0,2.0,,,2.0,,-8.0,-8.0,,100.0,2.0,,,2.0,,,3.0,3.0,1.0,3.0,4.0,1.0,9.0,9.0,,,,,,,,2.0,0.0,,,,,100.0,2.0,,,1.0,1.0,2.0,2.0,2.0,2.0,2.0,2.0,,2.0,,,,2.0,,,,2.0,,,,1.0,1.0,1.0,1.0,5.0,2.0,-9.0,,,,,,2.0,,3.0,1.0,0.0,,,0.0,4.0,3,2.0,2.0,2.0,2.0,2.0,2.0,2.0,4.0,,,,,,,,5.0,1.0,,,,,25.0,7,2014,13.0,48.0,1.0,4.0,1,,,6.814326,6.853433,10.6330185,4000000.0,four million,-9.0,-9.0,,,-9.0,,,,,10,0.0,159.0
587056,152505,2,1,1,2,2,1,1,3,50,1,1,1,2,,-7,-7,-7,-7,1,1.0,27.0,11,2014,8.0,20.0,3,3,,,-9,-9,-9,-9,2.0,,2007.0,12.0,1.0,2007.0,9.0,2.0,7.0,1.0,2.0,,2.0,,,1.0,20.0,4.0,4.0,20.0,,1.0,50.0,1.0,30.0,2.0,,,,2.0,2.0,1.0,1.0,sales of petrol,5050,60.0,,100.0,0.0,0.0,,,,,,0.0,0.0,,,,,,10.0,1.0,2.0,,,4.0,2.0,3.0,3.0,7.0,lagos,5.0,,1.0,1.0,1.0,2.0,1.0,1.0,1.0,1.0,1.0,1.0,1.0,,50.0,50.0,,,84.0,1.0,100.0,0.0,0.0,100.0,0.0,0.0,2.0,,,-9.0,,,0.0,1.0,20.0,,1.0,10.0,,1.0,30.0,10.0,60.0,30.0,0.0,10.0,0.0,None,1.0,3000000.0,0.0,60.0,20.0,20.0,0.0,0.0,0.0,None,1.0,,2.0,1.0,1.0,2.0,,2012.0,-8.0,1.0,1.0,1.0,2.0,2.0,2.0,5000000.0,2.0,2000000.0,2.0,1.0,,-9.0,1.0,2.0,,,0.0,4.0,10.0,1.0,2.0,2.0,2.0,,-9.0,,200000.0,20.0,1.0,20.0,1.0,2.0,,,2.0,1.0,2.0,1.0,2.0,0.0,15.0,12.0,,,,,,,,5.0,2.0,2.0,-9.0,,,100.0,1.0,,,3.0,2.0,1.0,1.0,1.0,2.0,1.0,2.0,,2.0,,,,2.0,,,,2.0,,,,-7.0,4.0,1.0,1.0,2.0,2.0,100.0,,,,,60.0,2.0,,3.0,2.0,1.0,,,1.0,4.0,2,2.0,2.0,1.0,2.0,2.0,2.0,2.0,3.0,,,,,,,,6.0,1.0,,,,,27.0,11,2014,10.0,48.0,1.0,1.0,1,,,3.3373663,3.3337014,4.7641554,800000.0,eight hundred thousand,8000000.0,500000.0,,,200000.0,,,-9.0,,9,0.0,52.0
587057,152547,3,1,1,7,7,1,1,2,72,1,1,1,1,3.0,3,1,1,-7,85,1.0,12.0,8,2014,12.0,25.0,3,5,,100.0,100,0,0,0,2.0,,2006.0,5.0,1.0,2006.0,10.0,2.0,8.0,1.0,2.0,,2.0,,,1.0,20.0,5.0,0.0,30.0,,1.0,90.0,2.0,,,,,,1.0,1.0,3.0,1.0,Information Technology,7290,100.0,,100.0,0.0,0.0,,,,,,0.0,0.0,,,,,,,0.0,0.0,,,3.0,2.0,2.0,1.0,8.0,Kano,5.0,,1.0,2.0,1.0,1.0,1.0,1.0,1.0,1.0,1.0,1.0,1.0,,80.0,90.0,,,48.0,2.0,0.0,100.0,0.0,0.0,100.0,0.0,2.0,,,,,,2.0,1.0,,288000.0,2.0,,,0.0,0.0,0.0,100.0,0.0,0.0,0.0,0.0,None,2.0,,,0.0,0.0,0.0,0.0,0.0,,Relatives,1.0,,2.0,2.0,,,,,,,,,,,,,,,2.0,2.0,1.0,,1.0,2.0,,,1.0,2.0,5.0,1.0,3.0,1.0,,2.0,,-8.0,,5.0,2.0,,,2.0,,,2.0,2.0,1.0,3.0,3.0,1.0,9.0,9.0,,,,,,,,0.0,3.0,1.0,-9.0,,,100.0,1.0,,,0.0,0.0,1.0,1.0,2.0,-9.0,1.0,2.0,,2.0,,,,2.0,,,,2.0,,,,4.0,4.0,1.0,1.0,1.0,3.0,100.0,,,,,100.0,1.0,3.0,3.0,3.0,1.0,,,2.0,3.0,2,1.0,2.0,2.0,2.0,1.0,2.0,2.0,3.0,,,,,,,,6.0,1.0,,,,,12.0,8,2014,14.0,32.0,2.0,2.0,1,,,3.767254,3.9387321,5.885151,3500000.0,Three million five hundred thousand,-9.0,-9.0,,,-9.0,,,,,8,0.0,199.0
587058,152550,3,1,1,4,4,2,2,2,55,1,2,2,2,,-7,-7,-7,-7,1,7.0,19.0,1,2015,11.0,21.0,3,3,,,100,0,0,0,2.0,,2008.0,25.0,1.0,2008.0,8.0,1.0,8.0,3.0,2.0,,1.0,30.0,2.0,1.0,100.0,3.0,20.0,80.0,,1.0,80.0,1.0,15.0,2.0,,,,1.0,1.0,3.0,2.0,accomodation services,5510,100.0,,100.0,0.0,0.0,,,,,,-7.0,,,,,,,,2.0,2.0,,,3.0,2.0,3.0,3.0,8.0,calabar,5.0,,-9.0,0.0,1.0,1.0,1.0,1.0,1.0,1.0,1.0,2.0,1.0,,100.0,100.0,,,85.0,1.0,100.0,0.0,0.0,100.0,0.0,0.0,2.0,,,,,,0.0,1.0,5.0,,2.0,,,0.0,0.0,0.0,100.0,0.0,0.0,0.0,0.0,0,1.0,450000.0,250000.0,100.0,0.0,0.0,0.0,0.0,0.0,0,1.0,,2.0,2.0,,,,,,,,,,,,,,,2.0,2.0,7.0,,2.0,2.0,,,0.0,3.0,50.0,1.0,1.0,2.0,2.0,,0.0,0.0,,10.0,2.0,,,1.0,15.0,2.0,2.0,3.0,2.0,3.0,3.0,2.0,28.0,28.0,,,,,,,,10.0,0.0,,,,,100.0,2.0,,,0.0,0.0,2.0,2.0,2.0,2.0,2.0,2.0,,2.0,,,,2.0,,,,2.0,,,,1.0,1.0,1.0,1.0,1.0,1.0,100.0,,,,,100.0,1.0,3.0,3.0,2.0,0.0,,,0.0,14.0,3,2.0,2.0,2.0,2.0,2.0,2.0,2.0,1.0,,,,,,,,8.0,2.0,,,,,19.0,1,2015,12.0,22.0,1.0,4.0,1,,,3.2281678,3.211187,3.7941859,1000000000.0,One billion,5.0,400000.0,,,150000.0,,,,,11,0.0,110.0
587059,152558,2,1,1,7,7,1,1,5,60,1,0,1,2,,-7,-7,-7,-7,11,1.0,15.0,11,2014,10.0,0.0,2,4,,90.0,100,0,0,0,2.0,,2008.0,2.0,1.0,2008.0,5.0,2.0,7.0,1.0,1.0,Saudi arabian certificate,2.0,,,2.0,,,,,,2.0,,2.0,,,,,,1.0,1.0,0.0,0.0,Transport services,6022,80.0,,100.0,0.0,0.0,,,,,,0.0,0.0,,,,,,60.0,0.0,0.0,,,3.0,2.0,5.0,4.0,5.0,Kwatano,4.0,,2.0,0.0,1.0,2.0,2.0,2.0,1.0,1.0,1.0,2.0,2.0,,20.0,30.0,,,20.0,1.0,50.0,30.0,20.0,50.0,30.0,20.0,2.0,,,50.0,3.0,,1.0,1.0,20.0,,2.0,,,1.0,20.0,25.0,80.0,0.0,0.0,0.0,20.0,joint soruces,2.0,,,0.0,0.0,0.0,0.0,0.0,,self,1.0,,2.0,2.0,,,,,,,,,,,,,,,2.0,2.0,1.0,,1.0,2.0,,,0.0,1.0,20.0,1.0,15.0,1.0,,2.0,,20.0,,15.0,2.0,,,2.0,,,1.0,0.0,1.0,1.0,1.0,0.0,5.0,4.0,,,,,,,,0.0,0.0,,,,,20.0,2.0,,,0.0,0.0,2.0,2.0,2.0,2.0,2.0,2.0,,2.0,,,,2.0,,,,2.0,,,,-7.0,-7.0,2.0,1.0,5.0,4.0,25.0,4.0,,,,-9.0,1.0,3.0,-7.0,1.0,1.0,,,1.0,14.0,3,2.0,2.0,2.0,2.0,2.0,2.0,2.0,1.0,,,,,,,,5.0,1.0,,,,,15.0,11,2014,13.0,57.0,1.0,1.0,1,,,2.0971985,2.176477,3.2174082,700000000.0,Seven hundred million,1000000000.0,300000.0,,,15.0,,,0.0,,13,0.0,219.0
587060,152575,3,1,1,8,8,2,2,2,45,1,3,3,1,-7.0,-7,-7,-7,-7,2,7.0,21.0,8,2014,13.0,34.0,2,2,,-9.0,-9,-9,-9,-9,2.0,,1958.0,2.0,2.0,1970.0,2.0,2.0,9.0,3.0,-9.0,,1.0,-9.0,2.0,1.0,30.0,12.0,59.0,80.0,,1.0,80.0,2.0,,,,,,2.0,1.0,2.0,2.0,infrastructure constructions,4520,80.0,,100.0,0.0,0.0,,,,-9.0,,0.0,0.0,,,,,,,2.0,2.0,,,4.0,1.0,5.0,-9.0,2.0,"lagos, ogun",5.0,,2.0,1.0,2.0,,2.0,2.0,1.0,2.0,1.0,2.0,2.0,,-9.0,-9.0,,,56.0,1.0,100.0,0.0,0.0,100.0,0.0,0.0,2.0,,,,,,1.0,1.0,-9.0,,2.0,,,1.0,0.0,0.0,100.0,0.0,0.0,0.0,0.0,None,-7.0,,,100.0,0.0,0.0,0.0,0.0,0.0,None,1.0,2.0,2.0,2.0,,,,,,,,,,,,,,,2.0,2.0,1.0,,2.0,2.0,,,2.0,3.0,-9.0,1.0,-9.0,,2.0,,0.0,-8.0,,-8.0,2.0,,,2.0,,,2.0,2.0,2.0,2.0,3.0,2.0,-9.0,-9.0,,,,,,,,-9.0,-9.0,,,,,-9.0,2.0,,,-9.0,-9.0,2.0,2.0,2.0,2.0,2.0,2.0,,2.0,,,,2.0,,,,2.0,,,,4.0,4.0,1.0,1.0,2.0,1.0,5.0,-9.0,,,,-9.0,1.0,1.0,3.0,1.0,2.0,,,1.0,11.0,1,2.0,2.0,2.0,2.0,2.0,2.0,2.0,3.0,,,,,,,,12.0,1.0,,,,,21.0,8,2014,13.0,48.0,2.0,2.0,1,,,1.5004288,1.5030614,2.7033877,10000000.0,ten million,-9.0,-9.0,,,-9.0,,,,,8,0.0,269.0
587061,152611,3,1,1,6,6,2,2,2,55,1,2,2,2,,1,-7,-7,2,13,18.0,22.0,7,2014,15.0,6.0,3,5,,35.0,30,10,40,20,1.0,45.0,-9.0,20.0,1.0,2000.0,5.0,1.0,7.0,3.0,1.0,cant say,1.0,1.0,2.0,1.0,23.0,4.0,4.0,25.0,,1.0,55.0,1.0,14.0,2.0,,,,1.0,2.0,3.0,2.0,hospitality and catering,5520,85.0,,85.0,15.0,0.0,,,,2014.0,,0.0,0.0,,,,,,,2.0,1.0,,,1.0,1.0,2.0,4.0,5.0,kano,5.0,,1.0,1.0,1.0,1.0,1.0,1.0,1.0,1.0,1.0,2.0,1.0,,85.0,55.0,,,56.0,1.0,100.0,0.0,0.0,100.0,0.0,0.0,2.0,,,,,,2.0,1.0,15.0,,2.0,,,0.0,30.0,15.0,50.0,15.0,0.0,25.0,10.0,relative/friends,1.0,2000000.0,-9.0,50.0,0.0,50.0,0.0,0.0,0.0,None,1.0,-9.0,1.0,2.0,,,,,,,,,,,,,,,1.0,2.0,3.0,,1.0,2.0,,,2.0,1.0,10.0,1.0,4.0,2.0,2.0,,-8.0,-8.0,,100.0,2.0,,,2.0,,,3.0,2.0,1.0,3.0,4.0,0.0,20.0,45.0,,,,,,,,10.0,5.0,3.0,-9.0,,,100.0,2.0,,,5.0,0.0,2.0,2.0,2.0,2.0,2.0,2.0,,2.0,,,,2.0,,,,2.0,,,,-7.0,-7.0,1.0,1.0,1.0,1.0,100.0,,,,,55.0,1.0,1.0,3.0,2.0,2.0,,,0.0,11.0,3,2.0,2.0,2.0,2.0,2.0,2.0,2.0,3.0,,,,,-9.0,,,5.0,2.0,,,,,22.0,7,2014,16.0,30.0,1.0,1.0,1,,,9.098623,9.050763,11.924557,-9.0,,-9.0,2000000.0,,,60000.0,,,,,11,0.0,175.0
587062,152630,1,1,1,8,8,2,2,2,36,1,1,1,2,,-7,-7,-7,-7,2,12.0,7.0,2,2015,10.0,13.0,3,3,,,100,0,0,0,2.0,,1999.0,2.0,1.0,1999.0,18.0,2.0,4.0,1.0,2.0,,2.0,,,1.0,30.0,12.0,12.0,0.0,,2.0,,2.0,,,-7.0,,,2.0,2.0,0.0,-7.0,Manufacture of interior and exterior furnitures,3610,100.0,-9.0,100.0,0.0,0.0,,,,,,-7.0,,100.0,0.0,,,15.0,,0.0,-7.0,1.0,-9.0,3.0,2.0,4.0,4.0,-9.0,Lagos,5.0,2.0,-9.0,2.0,2.0,,2.0,2.0,2.0,2.0,2.0,2.0,2.0,100.0,,,100.0,72.0,,2.0,0.0,100.0,0.0,-7.0,-7.0,-7.0,2.0,,,,,,0.0,1.0,1.0,,2.0,,,0.0,0.0,5.0,100.0,0.0,0.0,0.0,0.0,None,2.0,,,,,,,,,,2.0,2.0,,2.0,,,,,,,,,,,,,,,2.0,2.0,7.0,,2.0,2.0,,,2.0,3.0,0.0,-9.0,,,-9.0,2.0,,-9.0,,-9.0,2.0,,,2.0,,,-9.0,-9.0,2.0,0.0,0.0,0.0,8.0,7.0,7.0,1.0,7.0,0.0,7.0,0.0,0.0,,0.0,,,12.0,-7.0,60.0,1.0,100.0,0.0,0.0,0.0,1.0,1.0,-9.0,1.0,1.0,2.0,,2.0,,,,2.0,,,,2.0,,,,-7.0,4.0,2.0,2.0,5.0,1.0,,,,,,,2.0,,-7.0,3.0,0.0,,,0.0,3.0,3,2.0,2.0,2.0,1.0,1.0,2.0,1.0,4.0,,,,,,-9.0,-9.0,5.0,1.0,,,,,,12,2014,0.0,0.0,13642646400.0,43019.943,1,,,10.682074,10.641544,17.51663,4600000.0,Four million six hundred thousand,5300000.0,1800000.0,2300000.0,0.0,30000.0,100000.0,36000.0,,120000.0,3,0.0,232.0
587063,152639,2,1,1,1,1,2,1,3,55,1,0,0,2,,-7,-7,-7,-7,20,21.0,11.0,4,2014,17.0,26.0,3,3,,100.0,100,0,0,0,1.0,100.0,2001.0,1.0,2.0,2004.0,10.0,1.0,6.0,1.0,2.0,,2.0,,,1.0,48.0,2.0,2.0,4.0,,1.0,4.0,2.0,,,,,,2.0,2.0,2.0,0.0,"Food, drinks and meat",5520,100.0,,100.0,0.0,0.0,,,,,,0.0,0.0,,,,,,0.0,0.0,0.0,,,3.0,2.0,1.0,1.0,6.0,Lagos,5.0,,2.0,0.0,2.0,,2.0,2.0,2.0,2.0,2.0,2.0,1.0,,7.0,7.0,,,90.0,1.0,0.0,100.0,0.0,0.0,100.0,0.0,2.0,,,-9.0,,,0.0,2.0,,,2.0,,,0.0,0.0,0.0,100.0,0.0,0.0,0.0,0.0,None,2.0,,,0.0,0.0,0.0,0.0,0.0,,Cooperative,2.0,2.0,2.0,2.0,,,,,,,,,,,,,,,2.0,2.0,6.0,,2.0,2.0,,,2.0,2.0,-9.0,2.0,,,2.0,,-9.0,-8.0,,-9.0,2.0,,,2.0,,,0.0,0.0,0.0,0.0,0.0,0.0,15.0,2.0,,,,,,,,2.0,0.0,,,,,2.0,2.0,,,0.0,0.0,2.0,2.0,2.0,2.0,2.0,2.0,,2.0,,,,2.0,,,,2.0,,,,-7.0,-7.0,2.0,2.0,5.0,4.0,-9.0,6.0,because of the payment,,,,2.0,,-7.0,-7.0,0.0,,,0.0,1.0,2,2.0,2.0,2.0,2.0,2.0,2.0,2.0,0.0,,,,,-9.0,,,4.0,2.0,,,,,11.0,4,2014,18.0,19.0,1.0,1.0,1,18.0,19.0,43.156387,42.99265,55.326855,1800000.0,one million eight hundred thousand,144000.0,-9.0,,,-9.0,,,-9.0,,11,0.0,11.0
587064,152715,2,1,1,6,6,2,2,2,50,1,3,3,2,,-7,-7,-7,-7,13,18.0,23.0,7,2014,15.0,47.0,3,4,,65.0,65,0,0,35,2.0,,1990.0,200.0,1.0,1990.0,15.0,2.0,7.0,3.0,2.0,,2.0,,,2.0,,,,,,2.0,,-9.0,,,,,,1.0,1.0,3.0,1.0,sales of automobile,5020,100.0,,100.0,0.0,0.0,,,,,,0.0,0.0,,,,,,90.0,1.0,1.0,,,3.0,2.0,4.0,4.0,-9.0,Does not apply,5.0,,1.0,1.0,1.0,1.0,1.0,2.0,1.0,1.0,1.0,1.0,1.0,,85.0,85.0,,,42.0,1.0,100.0,0.0,0.0,100.0,0.0,0.0,2.0,,,36.0,1.0,,0.0,1.0,10.0,,2.0,,,0.0,85.0,15.0,60.0,20.0,20.0,0.0,0.0,None,1.0,1000000.0,14000000.0,70.0,30.0,0.0,0.0,0.0,0.0,None,1.0,-9.0,1.0,2.0,,,,,,,,,,,,,,,2.0,2.0,1.0,,1.0,-9.0,,,0.0,2.0,5.0,1.0,4.0,2.0,2.0,,10.0,-8.0,,100.0,1.0,90.0,2.0,1.0,90.0,2.0,2.0,1.0,2.0,3.0,3.0,1.0,180.0,65.0,,,,,,,,5.0,24.0,1.0,-9.0,,,100.0,1.0,,,20.0,0.0,1.0,1.0,1.0,2.0,2.0,2.0,,2.0,,,,2.0,,,,2.0,,,,1.0,1.0,1.0,1.0,1.0,1.0,82.0,6.0,Economy,,,-9.0,1.0,1.0,1.0,3.0,1.0,,,1.0,11.0,2,2.0,2.0,2.0,2.0,2.0,2.0,2.0,4.0,,,,,-9.0,,,15.0,1.0,,,,,23.0,7,2014,16.0,12.0,1.0,1.0,1,,,2.7504005,2.7503831,3.785625,700000000.0,Seven hundred million,8000000000.0,600000.0,,,100000.0,,,-9.0,,9,0.0,187.0
587065,152767,1,1,1,2,2,1,2,2,36,3,1,2,2,,-7,-7,-7,-7,45,1.0,9.0,10,2014,16.0,37.0,2,3,,,100,0,0,0,2.0,,1982.0,4.0,2.0,1994.0,10.0,2.0,6.0,3.0,2.0,,2.0,,,1.0,-9.0,,,0.0,,1.0,75.0,2.0,,,-7.0,,,1.0,2.0,2.0,2.0,funiture making and sales,3610,100.0,2.0,100.0,0.0,0.0,,,,-9.0,,0.0,-7.0,100.0,0.0,,,6.0,,3.0,2.0,2.0,-4.0,3.0,2.0,3.0,4.0,20.0,abuja/lagos,5.0,2.0,1.0,2.0,1.0,1.0,1.0,2.0,1.0,2.0,1.0,2.0,1.0,100.0,,,100.0,54.0,,1.0,0.0,50.0,50.0,0.0,50.0,50.0,2.0,,,,,,3.0,2.0,,,2.0,,,1.0,20.0,0.0,80.0,0.0,0.0,20.0,0.0,None,1.0,5.0,0.0,100.0,0.0,0.0,0.0,0.0,0.0,None,1.0,1.0,,2.0,,,,,,,,,,,,,,,2.0,2.0,3.0,,2.0,2.0,,,3.0,2.0,0.0,1.0,3.0,2.0,2.0,1.0,0.0,0.0,,-9.0,2.0,,,2.0,,,2.0,2.0,2.0,3.0,3.0,1.0,22.0,20.0,18.0,4.0,15.0,3.0,4.0,0.0,4.0,,0.0,,,-9.0,-7.0,100.0,2.0,,,2.0,0.0,2.0,2.0,2.0,2.0,1.0,2.0,,2.0,,,,2.0,,,,1.0,1.0,,5.0,3.0,3.0,1.0,2.0,2.0,2.0,-9.0,,,,,,1.0,1.0,2.0,3.0,2.0,,,2.0,1.0,1,1.0,1.0,1.0,1.0,1.0,1.0,1.0,3.0,,,,10000000.0,10000000.0,40000000.0,25000000.0,32.0,1.0,,,,,9.0,10,2014,17.0,26.0,2.0,2.0,1,,,2.0281334,2.0286515,2.9238064,25000000.0,twenty five million,400000000.0,5000000.0,14000000.0,350000.0,8000.0,500000.0,260000.0,,-9.0,5,0.0,34.0
587066,152776,3,1,1,2,2,1,1,3,17,2,1,1,2,,-7,-7,-7,-7,2,1.0,16.0,9,2014,12.0,49.0,3,3,,,100,0,0,0,2.0,,1994.0,4.0,2.0,2003.0,20.0,2.0,4.0,1.0,2.0,,2.0,,,1.0,20.0,10.0,10.0,25.0,,1.0,70.0,2.0,,,,,,2.0,2.0,3.0,0.0,sewing Textile materials,1721,80.0,,100.0,0.0,0.0,,,,,,-7.0,,,,,,,,1.0,0.0,,,3.0,1.0,3.0,3.0,8.0,Abuja,5.0,,1.0,1.0,1.0,1.0,1.0,1.0,2.0,2.0,1.0,2.0,1.0,,80.0,75.0,,,72.0,1.0,0.0,10.0,90.0,-7.0,-7.0,-7.0,2.0,,,,,,-7.0,2.0,,,2.0,,,0.0,45.0,40.0,100.0,0.0,0.0,0.0,0.0,None,1.0,250000.0,0.0,100.0,0.0,0.0,0.0,0.0,0.0,None,1.0,,2.0,2.0,,,,,,,,,,,,,,,2.0,2.0,4.0,,2.0,2.0,,,3.0,-7.0,0.0,2.0,,,2.0,,0.0,0.0,,5.0,2.0,,,2.0,,,1.0,1.0,0.0,3.0,1.0,0.0,5.0,9.0,,,,,,,,2.0,0.0,,,,,100.0,2.0,,,0.0,1.0,2.0,2.0,2.0,2.0,2.0,2.0,,2.0,,,,2.0,,,,2.0,,,,-7.0,-7.0,1.0,1.0,5.0,2.0,100.0,,,,,0.0,1.0,3.0,2.0,-7.0,0.0,,,0.0,1.0,2,2.0,2.0,2.0,2.0,2.0,2.0,2.0,3.0,,,,,,,,20.0,1.0,,,,,16.0,9,2014,13.0,29.0,1.0,4.0,1,13.0,29.0,1.5974323,1.5913713,2.5573516,1800000.0,One million eight hundred thousand,4500000.0,900000.0,,,1500.0,,,,,4,0.0,33.0
587067,152788,1,1,1,9,9,2,2,2,25,3,3,3,2,,-7,-7,-7,-7,1,1.0,6.0,8,2014,13.0,12.0,2,-9,,-9.0,-9,-9,-9,-9,2.0,,1980.0,200.0,1.0,1980.0,-9.0,2.0,9.0,3.0,-9.0,,2.0,,,1.0,-9.0,,,3.0,,1.0,60.0,2.0,,,2.0,,,2.0,1.0,2.0,0.0,plastic manufacturing,2520,100.0,2.0,90.0,5.0,5.0,-9.0,-9.0,-9.0,-9.0,2.0,-9.0,-9.0,90.0,10.0,-9.0,,-9.0,,0.0,0.0,2.0,-4.0,3.0,2.0,5.0,3.0,-9.0,oyo,5.0,1.0,1.0,1.0,2.0,,2.0,2.0,2.0,2.0,2.0,2.0,2.0,-9.0,,,-9.0,168.0,,1.0,50.0,50.0,0.0,0.0,50.0,50.0,2.0,,,,,,0.0,2.0,,,2.0,,,0.0,-9.0,-9.0,100.0,0.0,0.0,0.0,0.0,None,2.0,,,0.0,0.0,0.0,0.0,0.0,,Friends and associates,1.0,,,2.0,,,,,,,,,,,,,,,2.0,2.0,-9.0,,-9.0,2.0,,,0.0,3.0,-9.0,-9.0,,,-9.0,2.0,,-8.0,,-9.0,2.0,,,2.0,,,0.0,0.0,0.0,2.0,3.0,1.0,120.0,-9.0,90.0,30.0,80.0,10.0,6.0,20.0,10.0,,0.0,,,-9.0,-9.0,-9.0,2.0,,,-9.0,-9.0,2.0,2.0,2.0,2.0,2.0,2.0,,2.0,,,,2.0,,,,2.0,,,,-9.0,-7.0,1.0,1.0,5.0,2.0,,,,,,,1.0,1.0,1.0,1.0,0.0,,,0.0,8.0,3,2.0,2.0,-7.0,-7.0,-7.0,-7.0,1.0,4.0,,,,,,-9.0,-9.0,11.0,1.0,,,,,6.0,8,2014,15.0,37.0,2.0,2.0,1,,,2.2820249,2.272502,2.5109482,-9.0,,-9.0,-9.0,-9.0,-9.0,-9.0,-9.0,-9.0,,-9.0,7,0.0,307.0
587068,152796,2,1,1,1,1,2,2,4,52,1,1,1,2,,-7,-7,-7,-7,3,1.0,22.0,12,2014,16.0,52.0,3,3,,,100,0,0,0,2.0,,2007.0,2.0,1.0,2007.0,7.0,2.0,5.0,1.0,2.0,,2.0,,,1.0,-9.0,,,1.0,,1.0,100.0,2.0,,,,,,1.0,2.0,2.0,0.0,retail sales of provisions,5220,100.0,,100.0,0.0,0.0,,,,,,0.0,0.0,,,,,,-9.0,0.0,0.0,,,3.0,2.0,5.0,5.0,-9.0,Aba,5.0,,2.0,0.0,2.0,,2.0,2.0,2.0,2.0,2.0,2.0,2.0,,100.0,100.0,,,60.0,1.0,0.0,100.0,0.0,0.0,100.0,0.0,2.0,,,-9.0,,,0.0,2.0,,,2.0,,,0.0,0.0,0.0,100.0,0.0,0.0,0.0,0.0,0,2.0,,,,,,,,,,1.0,,2.0,2.0,,,,,,,,,,,,,,,2.0,2.0,,,2.0,2.0,,,0.0,3.0,-9.0,1.0,1.0,2.0,2.0,,0.0,0.0,,-9.0,2.0,,,2.0,,,0.0,0.0,0.0,0.0,0.0,0.0,7.0,7.0,,,,,,,,4.0,0.0,,,,,100.0,2.0,,,0.0,0.0,2.0,2.0,2.0,2.0,2.0,2.0,,2.0,,,,2.0,,,,2.0,,,,-7.0,-7.0,1.0,1.0,2.0,4.0,100.0,,,,,100.0,2.0,,3.0,-7.0,0.0,,,0.0,-7.0,1,1.0,2.0,2.0,1.0,1.0,2.0,1.0,4.0,,,,,,,,2.0,2.0,,,,,22.0,12,2014,18.0,8.0,1.0,2.0,1,,,26.494862,26.522463,37.411606,700000.0,Seven hundred thousand,580000.0,200000.0,,,60000.0,,,400000.0,,12,0.0,12.0
587069,152817,1,1,1,3,3,2,2,5,15,1,1,1,1,-7.0,-7,-7,-7,-7,2,5003.0,7.0,8,2014,7.0,52.0,3,3,,,100,0,0,0,2.0,,2004.0,3.0,2.0,2004.0,10.0,2.0,7.0,1.0,2.0,,2.0,,,1.0,54.0,2.0,-9.0,3.0,,1.0,50.0,2.0,,,2.0,,,2.0,2.0,2.0,1.0,Manufacturing of vegetable oil,1514,85.0,1.0,30.0,70.0,,1.0,0.0,0.0,2010.0,2.0,-9.0,0.0,0.0,100.0,1.0,1.0,2.0,,2.0,4.0,1.0,-4.0,3.0,2.0,3.0,4.0,4.0,anambra,5.0,2.0,2.0,1.0,2.0,,2.0,2.0,2.0,2.0,2.0,2.0,2.0,-9.0,,,-9.0,72.0,,1.0,80.0,20.0,0.0,80.0,20.0,0.0,1.0,1.0,-8.0,,,,3.0,1.0,10.0,,2.0,,,3.0,-9.0,-9.0,100.0,0.0,0.0,0.0,0.0,None,1.0,40000.0,30000.0,0.0,0.0,0.0,0.0,0.0,100.0,Savings,1.0,,,2.0,,,,,,,,,,,,,,,2.0,2.0,1.0,,2.0,2.0,,,1.0,3.0,0.0,2.0,,,2.0,2.0,,-8.0,,-8.0,2.0,,,2.0,,,1.0,2.0,1.0,1.0,3.0,1.0,8.0,3.0,-9.0,-9.0,-9.0,-9.0,5.0,-9.0,-9.0,-9.0,0.0,,,-9.0,-9.0,-9.0,2.0,,,-9.0,-9.0,2.0,1.0,2.0,2.0,2.0,2.0,,2.0,,,,2.0,,,,2.0,,,,3.0,3.0,2.0,1.0,1.0,2.0,,,,,,,2.0,,3.0,-7.0,2.0,,,2.0,4.0,2,2.0,2.0,1.0,2.0,2.0,1.0,2.0,2.0,,,,,,-9.0,-9.0,10.0,1.0,,,,,7.0,8,2014,8.0,29.0,1.0,1.0,1,,,7.3740563,7.5442314,11.660198,500000.0,five hundred thousand,1000000.0,100000.0,250000.0,25000.0,50000.0,-9.0,100000.0,,20000.0,2,0.0,63.0
587070,152851,3,1,1,7,7,1,2,3,50,1,1,1,2,,-7,-7,-7,-7,84,5.0,25.0,10,2014,13.0,16.0,3,3,,,-9,-9,-9,-9,1.0,100.0,1999.0,-9.0,-9.0,-7.0,1.0,1.0,4.0,2.0,2.0,,2.0,,,2.0,,,,,,2.0,,2.0,,,,,,2.0,2.0,1.0,0.0,enginering service,5020,30.0,,-9.0,-9.0,-9.0,,,,-9.0,2.0,0.0,-9.0,,,,,,,2.0,2.0,,,4.0,2.0,-9.0,3.0,-9.0,Does not apply,4.0,,2.0,4.0,2.0,,2.0,-9.0,2.0,2.0,2.0,2.0,2.0,,50.0,50.0,,,8.0,2.0,30.0,20.0,50.0,30.0,40.0,30.0,2.0,,,,,,2.0,1.0,,40.0,2.0,,,1.0,-9.0,-9.0,-9.0,-9.0,-9.0,-9.0,-9.0,,2.0,,,,,,,,,,1.0,,2.0,2.0,,,,,,,,,,,,,,,-9.0,2.0,1.0,,2.0,-9.0,,,2.0,1.0,0.0,-9.0,,,2.0,,-9.0,-9.0,,-9.0,2.0,,,2.0,,,2.0,1.0,1.0,1.0,-7.0,-9.0,5.0,2.0,,,,,,,,0.0,0.0,,,,,50.0,2.0,,,-9.0,0.0,1.0,2.0,1.0,2.0,1.0,2.0,,2.0,,,,2.0,,,,2.0,,,,4.0,1.0,2.0,2.0,2.0,3.0,40.0,2.0,,,,,2.0,,3.0,1.0,1.0,,,2.0,4.0,2,2.0,1.0,2.0,1.0,2.0,1.0,2.0,1.0,,,,,,,,5.0,2.0,,,,,25.0,10,2014,18.0,43.0,2.0,2.0,1,,,68.77536,71.77949,91.32231,144000.0,one hundred forty-four thousand,-9.0,-9.0,,,-9.0,,,,,9,0.0,200.0
587071,152912,1,1,1,2,2,1,1,2,36,1,0,1,2,,-7,-7,-7,-7,7,1.0,4.0,10,2014,3.0,9.0,3,3,,,-9,-9,-9,-9,2.0,,-9.0,-9.0,-9.0,-9.0,1.0,-9.0,4.0,1.0,2.0,,2.0,,,2.0,,,,,,-9.0,,2.0,,,2.0,,,2.0,2.0,2.0,1.0,"wood design curves,house hold furniture and office furniture",3610,-9.0,2.0,-9.0,-9.0,-9.0,-7.0,-7.0,0.0,-9.0,2.0,0.0,0.0,-9.0,-9.0,-9.0,,-9.0,,3.0,2.0,-9.0,,,2.0,4.0,4.0,-9.0,kogi,4.0,2.0,2.0,-9.0,2.0,,2.0,2.0,2.0,2.0,2.0,2.0,2.0,-9.0,,,-9.0,-9.0,,2.0,-9.0,-9.0,-9.0,-9.0,-9.0,-9.0,2.0,,,,,,2.0,2.0,,,2.0,,,2.0,-9.0,-9.0,0.0,0.0,0.0,0.0,100.0,self,-9.0,,,0.0,0.0,0.0,0.0,0.0,,self,2.0,2.0,,2.0,,,,,,,,,,,,,,,2.0,2.0,2.0,,2.0,2.0,,,2.0,-9.0,-9.0,2.0,,,-9.0,2.0,,-9.0,,-9.0,2.0,,,2.0,,,3.0,2.0,2.0,3.0,2.0,1.0,-9.0,-9.0,-9.0,-9.0,-9.0,-9.0,7.0,-9.0,-9.0,,-9.0,,,-9.0,-7.0,-9.0,2.0,,,-9.0,-9.0,2.0,2.0,2.0,2.0,2.0,2.0,,2.0,,,,2.0,,,,2.0,,,,-7.0,-7.0,2.0,2.0,-9.0,-9.0,,,,,,,2.0,,-7.0,-7.0,1.0,,,2.0,8.0,3,2.0,2.0,2.0,2.0,2.0,2.0,2.0,2.0,,,,,,-9.0,-9.0,1.0,2.0,1.0,2.0,,,4.0,10,2014,4.0,23.0,1.0,1.0,1,4.0,23.0,1.0,1.0,1.4167267,-9.0,,-9.0,-9.0,-9.0,-9.0,-9.0,-9.0,-9.0,,-9.0,3,0.0,32.0
587072,152977,1,1,1,2,2,2,2,2,36,1,0,1,2,,-7,-7,-7,-7,7,1.0,4.0,10,2014,15.0,34.0,3,3,,,-9,-9,-9,-9,2.0,,-9.0,-9.0,2.0,-9.0,1.0,-9.0,4.0,3.0,2.0,,2.0,,,2.0,,,,,,2.0,,2.0,,,2.0,,,2.0,2.0,2.0,2.0,wood via household and office furniture,3610,-9.0,2.0,-9.0,-9.0,-9.0,-9.0,-9.0,-9.0,-9.0,2.0,-9.0,-9.0,-9.0,-9.0,2.0,,-9.0,,2.0,2.0,-9.0,,,2.0,4.0,4.0,-9.0,abuja,4.0,2.0,2.0,-9.0,2.0,,2.0,2.0,2.0,2.0,2.0,2.0,-9.0,-9.0,,,-9.0,-9.0,,2.0,-9.0,-9.0,-9.0,-9.0,-9.0,-7.0,2.0,,,,,,-9.0,2.0,,,2.0,,,-9.0,-9.0,-9.0,0.0,0.0,0.0,0.0,100.0,self,2.0,,,0.0,0.0,0.0,0.0,0.0,,self,2.0,2.0,,2.0,,,,,,,,,,,,,,,2.0,2.0,7.0,,2.0,2.0,,,-9.0,-9.0,0.0,2.0,,,2.0,2.0,,-9.0,,-9.0,2.0,,,2.0,,,2.0,3.0,2.0,2.0,2.0,2.0,-9.0,-9.0,-9.0,-9.0,-9.0,-9.0,7.0,-9.0,-9.0,,-9.0,,,-9.0,-9.0,-9.0,2.0,,,-9.0,-9.0,2.0,2.0,2.0,2.0,2.0,2.0,,2.0,,,,2.0,,,,2.0,,,,-7.0,-9.0,2.0,2.0,5.0,4.0,-9.0,-9.0,,,,,2.0,,-7.0,-7.0,1.0,,,2.0,-9.0,3,2.0,2.0,2.0,2.0,2.0,2.0,2.0,-9.0,,,,1500000.0,-9.0,-9.0,-9.0,2.0,1.0,2.0,1.0,,,4.0,10,2014,16.0,38.0,1.0,1.0,1,,,1.0,1.0,1.4167267,-9.0,,-9.0,-9.0,-9.0,-9.0,-9.0,-9.0,-9.0,,-9.0,3,0.0,32.0
587073,153016,1,1,1,9,9,2,1,2,36,1,2,2,1,2000.0,2,-7,-7,1,1,1.0,1.0,9,2014,13.0,56.0,3,3,,,100,0,0,0,2.0,,2000.0,21.0,1.0,2000.0,14.0,2.0,5.0,1.0,2.0,,2.0,,,2.0,,,,,,2.0,,2.0,,,2.0,,,2.0,2.0,0.0,0.0,Furniture,3610,100.0,2.0,100.0,0.0,0.0,,,,,,0.0,0.0,100.0,0.0,,,-9.0,,0.0,0.0,2.0,-4.0,3.0,2.0,5.0,5.0,13.0,Across The State,5.0,2.0,1.0,3.0,1.0,2.0,1.0,1.0,1.0,2.0,1.0,2.0,2.0,100.0,,,100.0,84.0,,1.0,100.0,0.0,0.0,100.0,0.0,0.0,2.0,,,,,,0.0,2.0,,,2.0,,,0.0,10.0,3.0,100.0,0.0,0.0,0.0,0.0,None,1.0,1500000.0,-9.0,100.0,0.0,0.0,0.0,0.0,0.0,None,1.0,,,2.0,,,,,,,,,,,,,,,2.0,2.0,1.0,,2.0,2.0,,,0.0,3.0,10.0,1.0,3.0,2.0,2.0,2.0,,0.0,,-9.0,2.0,,,2.0,,,0.0,0.0,0.0,0.0,0.0,0.0,21.0,21.0,16.0,5.0,6.0,10.0,5.0,0.0,0.0,,0.0,,,17.0,0.0,100.0,2.0,,,0.0,0.0,2.0,1.0,1.0,1.0,2.0,2.0,,2.0,,,,2.0,,,,2.0,,,,4.0,4.0,1.0,1.0,5.0,1.0,,,,,,,2.0,,-7.0,-7.0,0.0,,,0.0,12.0,1,2.0,2.0,2.0,2.0,2.0,2.0,2.0,3.0,,,,,,-9.0,-9.0,14.0,1.0,,,,,1.0,9,2014,14.0,29.0,1.0,1.0,1,,,2.9600494,2.9444788,3.1971622,-9.0,,-9.0,-9.0,-9.0,-9.0,-9.0,1500000.0,-9.0,,-9.0,3,0.0,292.0
587074,153095,1,1,1,1,1,2,1,2,18,3,1,1,1,0.0,-7,-7,-7,-7,8,20.0,23.0,7,2014,22.0,14.0,2,3,,,100,0,0,0,2.0,,-9.0,-9.0,-9.0,-9.0,3.0,2.0,4.0,3.0,2.0,,2.0,,,1.0,-9.0,,,30.0,,1.0,80.0,2.0,,,2.0,,,2.0,2.0,4.0,2.0,sewing of women wears,1810,100.0,-9.0,100.0,0.0,0.0,,,,,,-7.0,,-9.0,-9.0,-9.0,,-9.0,,2.0,4.0,1.0,-4.0,4.0,2.0,5.0,5.0,-9.0,abia,5.0,2.0,1.0,2.0,2.0,,2.0,2.0,2.0,2.0,2.0,2.0,1.0,-9.0,,,-9.0,60.0,,1.0,0.0,100.0,0.0,0.0,100.0,0.0,2.0,,,,,,2.0,1.0,5.0,,2.0,,,2.0,-9.0,-9.0,0.0,0.0,0.0,0.0,100.0,self,-7.0,,,0.0,0.0,0.0,0.0,0.0,100.0,self,1.0,,,2.0,,,,,,,,,,,,,,,2.0,2.0,3.0,,2.0,2.0,,,2.0,3.0,-9.0,1.0,-9.0,,-9.0,2.0,,-8.0,,-9.0,2.0,,,2.0,,,3.0,2.0,2.0,3.0,2.0,2.0,10.0,-9.0,7.0,0.0,7.0,0.0,3.0,2.0,0.0,,0.0,,,-9.0,-9.0,-9.0,2.0,,,-9.0,-9.0,2.0,2.0,2.0,2.0,2.0,2.0,,2.0,,,,2.0,,,,2.0,,,,4.0,4.0,2.0,2.0,1.0,2.0,,,,,,,2.0,,3.0,2.0,3.0,,,2.0,13.0,1,2.0,2.0,2.0,2.0,2.0,2.0,2.0,2.0,,,,,,-9.0,-9.0,3.0,1.0,,,,,23.0,7,2014,22.0,36.0,2.0,2.0,3,2.0,0.0,3.4795234,3.4663215,5.2904134,-9.0,,-9.0,-9.0,-9.0,-9.0,-9.0,-9.0,-9.0,,-9.0,7,0.0,7.0
587075,153104,3,1,1,4,4,2,2,2,50,2,2,1,2,,-7,-7,-7,-7,5,7.0,26.0,8,2014,13.0,41.0,3,3,,,100,0,0,0,2.0,,2003.0,6.0,1.0,2003.0,38.0,2.0,2.0,1.0,2.0,,2.0,,,1.0,100.0,92.0,50.0,10.0,,1.0,75.0,2.0,,,,,,2.0,2.0,4.0,1.0,Repairs of motor vehicles,5020,100.0,,100.0,0.0,0.0,,,,,,5.0,0.0,,,,,,,1.0,0.0,,,3.0,2.0,4.0,3.0,20.0,Cross River,5.0,,1.0,1.0,1.0,2.0,2.0,2.0,1.0,2.0,2.0,2.0,1.0,,60.0,50.0,,,45.0,2.0,100.0,0.0,0.0,100.0,0.0,0.0,2.0,,,,,,2.0,1.0,30.0,,2.0,,,3.0,50.0,0.0,50.0,0.0,0.0,50.0,0.0,None,2.0,,,0.0,0.0,0.0,0.0,0.0,,Internal funds,2.0,2.0,2.0,2.0,,,,,,,,,,,,,,,2.0,2.0,4.0,,2.0,2.0,,,4.0,4.0,70.0,1.0,8.0,1.0,,2.0,,8.0,,5.0,2.0,,,2.0,,,3.0,2.0,2.0,2.0,2.0,1.0,7.0,6.0,,,,,,,,0.0,2.0,,4.0,,,80.0,1.0,,,0.0,0.0,2.0,1.0,2.0,1.0,1.0,2.0,,2.0,,,,2.0,,,,2.0,,,,4.0,4.0,2.0,2.0,1.0,1.0,10.0,5.0,,,,-9.0,1.0,1.0,1.0,-7.0,1.0,,,1.0,1.0,1,2.0,2.0,2.0,2.0,2.0,2.0,2.0,2.0,,,,,,,,38.0,1.0,,,,,27.0,8,2014,14.0,18.0,1.0,4.0,1,,,2.7245061,2.7233307,3.5269892,3000000000.0,Three billion,-9.0,-9.0,,,-9.0,,,,,12,0.0,111.0
587076,153147,3,1,1,8,8,2,1,2,60,1,0,0,2,,-7,-7,-7,-7,10,1.0,25.0,10,2014,14.0,29.0,3,3,,,100,0,0,0,2.0,,1990.0,3.0,2.0,2001.0,30.0,2.0,4.0,1.0,2.0,,2.0,,,1.0,40.0,15.0,59.0,,100000.0,1.0,70.0,2.0,,,,,,2.0,2.0,4.0,1.0,Transportation,6022,100.0,,100.0,0.0,0.0,,,,,,0.0,0.0,,,,,,,0.0,0.0,,,3.0,2.0,1.0,1.0,-9.0,Does not apply,5.0,,1.0,2.0,2.0,,2.0,2.0,2.0,2.0,2.0,2.0,2.0,,70.0,-9.0,,,84.0,2.0,0.0,0.0,100.0,0.0,0.0,100.0,2.0,,,,,,1.0,2.0,,,2.0,,,0.0,0.0,0.0,100.0,0.0,0.0,0.0,0.0,None,2.0,,,0.0,0.0,0.0,0.0,0.0,,Relatives,2.0,2.0,2.0,2.0,,,,,,,,,,,,,,,2.0,2.0,3.0,,2.0,2.0,,,2.0,2.0,0.0,2.0,,,2.0,,-8.0,0.0,,100.0,2.0,,,2.0,,,1.0,1.0,0.0,0.0,1.0,0.0,5.0,3.0,,,,,,,,0.0,0.0,,,,,100.0,2.0,,,0.0,0.0,2.0,2.0,2.0,1.0,2.0,2.0,,2.0,,,,2.0,,,,2.0,,,,-7.0,-7.0,2.0,2.0,5.0,2.0,100.0,,,,,0.0,2.0,,1.0,-7.0,0.0,,,1.0,4.0,2,2.0,2.0,2.0,2.0,-7.0,1.0,2.0,4.0,,,,,,,,24.0,1.0,,,,,25.0,10,2014,15.0,55.0,1.0,1.0,1,,,4.6486554,4.6242027,8.538539,1800000.0,one million eight hundred thousand,-9.0,150000.0,,,25000.0,,,,,13,0.0,258.0
587077,153225,1,1,1,8,8,2,2,3,28,1,2,2,2,,-7,-7,-7,-7,2,12.0,6.0,2,2015,13.0,47.0,3,3,,,100,0,0,0,2.0,,2001.0,-9.0,-9.0,-9.0,20.0,2.0,-9.0,1.0,2.0,,2.0,,,1.0,40.0,8.0,8.0,0.0,,1.0,90.0,2.0,,,-7.0,,,2.0,2.0,3.0,-7.0,Fabricating metals and steel,2891,100.0,2.0,100.0,0.0,0.0,,,,,,-7.0,,100.0,0.0,,,10.0,,0.0,-7.0,1.0,-9.0,3.0,2.0,5.0,4.0,-9.0,Lagos,5.0,2.0,-9.0,1.0,2.0,,2.0,2.0,2.0,2.0,2.0,2.0,2.0,100.0,,,100.0,60.0,,1.0,0.0,100.0,0.0,0.0,100.0,0.0,2.0,,,,,,0.0,1.0,-9.0,,2.0,,,0.0,0.0,0.0,100.0,0.0,0.0,0.0,0.0,None,2.0,,,,,,,,,,2.0,2.0,,2.0,,,,,,,,,,,,,,,2.0,2.0,7.0,,2.0,2.0,,,1.0,3.0,0.0,1.0,2.0,-9.0,,2.0,,-9.0,,-9.0,2.0,,,2.0,,,2.0,2.0,2.0,2.0,-9.0,-7.0,23.0,19.0,21.0,2.0,21.0,0.0,6.0,0.0,0.0,,0.0,,,12.0,-7.0,65.0,1.0,100.0,0.0,1.0,0.0,1.0,1.0,-9.0,1.0,1.0,2.0,,2.0,,,,1.0,1.0,,45.0,2.0,,,,-7.0,4.0,2.0,2.0,5.0,1.0,,,,,,,2.0,,-7.0,3.0,0.0,,,0.0,3.0,2,2.0,1.0,2.0,2.0,1.0,1.0,2.0,3.0,,,,,,-9.0,-9.0,6.0,1.0,,,,,,12,2014,0.0,0.0,13642560000.0,54671.036,1,,,1.8083837,1.8303199,3.0052652,7200000.0,Seven million two hundred thousand,6700000.0,2400000.0,4100000.0,500000.0,96000.0,180000.0,42000.0,,-9.0,1,0.0,246.0
587078,153235,2,1,1,8,8,2,1,2,52,1,3,0,2,,-7,-7,-7,-7,10,1.0,20.0,8,2014,14.0,53.0,2,3,,,100,0,0,0,2.0,,1997.0,5.0,1.0,1997.0,25.0,2.0,7.0,1.0,2.0,,2.0,,,1.0,60.0,4.0,59.0,,450000.0,1.0,70.0,2.0,,,,,,1.0,1.0,4.0,0.0,"Sales of Laptops, Desktops, Printers, Phones and accesessories.",5239,100.0,,100.0,0.0,0.0,,,,,,0.0,0.0,,,,,,6.0,0.0,1.0,,,4.0,2.0,5.0,3.0,10.0,Lagos,5.0,,1.0,4.0,1.0,1.0,1.0,2.0,2.0,2.0,1.0,2.0,2.0,,70.0,80.0,,,60.0,2.0,0.0,25.0,75.0,0.0,0.0,100.0,2.0,,,50.0,3.0,,3.0,2.0,,,2.0,,,2.0,50.0,40.0,100.0,0.0,0.0,0.0,0.0,None,2.0,,,0.0,0.0,0.0,0.0,0.0,,Relatives,1.0,,2.0,2.0,,,,,,,,,,,,,,,2.0,2.0,4.0,,1.0,2.0,,,3.0,2.0,5.0,1.0,4.0,2.0,2.0,,-8.0,-8.0,,100.0,2.0,,,2.0,,,2.0,2.0,0.0,1.0,3.0,1.0,-9.0,7.0,,,,,,,,3.0,0.0,,,,,100.0,1.0,,,0.0,3.0,2.0,2.0,2.0,2.0,2.0,2.0,,2.0,,,,2.0,,,,2.0,,,,-7.0,4.0,1.0,1.0,2.0,1.0,100.0,,,,,100.0,1.0,3.0,1.0,2.0,0.0,,,0.0,8.0,3,2.0,2.0,2.0,2.0,2.0,2.0,2.0,4.0,,,,,,,,10.0,2.0,,,,,20.0,8,2014,16.0,21.0,1.0,1.0,1,,,1.4833384,1.4843191,2.2981474,700000.0,seven hundred thousand,80000000.0,1700000.0,,,60000.0,,,18000000.0,,12,0.0,273.0
587079,153289,1,1,1,4,4,2,1,3,37,3,3,3,2,,2,-7,-7,1,4,7.0,3.0,8,2014,14.0,14.0,1,3,,,0,100,0,0,2.0,,2000.0,63.0,1.0,2000.0,19.0,2.0,-9.0,3.0,1.0,I For got it now,2.0,,,1.0,7.0,5.0,5.0,1.5,,1.0,25.0,2.0,,,2.0,,,2.0,2.0,3.0,1.0,RECYCLING OF METAL MATERIALS TO DIFFERENT SHAPES AND SIZE FOR DIFFERENT PURPOSES.,3710,95.0,2.0,100.0,0.0,0.0,,,,-9.0,,0.0,0.0,100.0,0.0,,,5.0,,2.0,2.0,1.0,-4.0,2.0,2.0,5.0,-9.0,5.0,PORHACOURT,5.0,1.0,2.0,1.0,1.0,1.0,2.0,1.0,1.0,1.0,1.0,2.0,2.0,85.0,,,95.0,132.0,,1.0,0.0,100.0,0.0,0.0,100.0,0.0,2.0,,,,,,1.0,1.0,1.8,,1.0,1.3,,1.0,0.0,0.0,100.0,0.0,0.0,0.0,0.0,None,2.0,,,0.0,0.0,0.0,0.0,0.0,,Friends and associates,1.0,-9.0,,-9.0,,,,,,,,,,,,,,,-9.0,2.0,-9.0,,2.0,2.0,,,1.0,2.0,1.2,2.0,,,2.0,2.0,,-8.0,,-9.0,2.0,,,2.0,,,3.0,2.0,1.0,0.0,1.0,1.0,385.0,279.0,324.0,61.0,298.0,-9.0,6.0,39.0,39.0,,-9.0,,,14.0,9.0,85.0,2.0,,,385.0,8.0,1.0,2.0,2.0,2.0,1.0,2.0,,2.0,,,,2.0,,,,1.0,1.0,,11.0,2.0,4.0,1.0,1.0,2.0,2.0,-9.0,5.0,,,,,1.0,2.0,3.0,2.0,1.0,,,0.0,14.0,1,2.0,2.0,-7.0,2.0,2.0,-7.0,-7.0,2.0,,,,-9.0,-9.0,-9.0,-9.0,13.0,1.0,,,,,3.0,8,2014,15.0,35.0,2.0,2.0,1,,,1.9193813,1.9113717,2.580818,-9.0,,-9.0,-9.0,19.0,-9.0,-9.0,-9.0,-9.0,,-9.0,7,0.0,116.0
587080,153297,1,1,1,6,6,2,2,2,22,1,1,1,2,,-7,-7,-7,-7,6,7.0,27.0,12,2014,17.0,17.0,3,3,,,100,0,0,0,2.0,,2011.0,5.0,2.0,2013.0,4.0,2.0,4.0,1.0,2.0,,1.0,15.0,2.0,1.0,100.0,1.0,20.0,100.0,,1.0,100.0,2.0,,,-7.0,,,2.0,2.0,3.0,1.0,manufacturing of books,2211,100.0,2.0,100.0,0.0,0.0,,,,,,0.0,0.0,100.0,0.0,,,5.0,,2.0,2.0,2.0,-4.0,3.0,1.0,3.0,3.0,4.0,kaduna,4.0,2.0,-9.0,3.0,1.0,1.0,1.0,1.0,2.0,1.0,1.0,2.0,1.0,100.0,,,100.0,84.0,,1.0,0.0,100.0,0.0,0.0,100.0,0.0,2.0,,,,,,0.0,1.0,2.0,,2.0,,,0.0,0.0,0.0,100.0,0.0,0.0,0.0,0.0,0,2.0,,,,,,,,,,1.0,,,2.0,,,,,,,,,,,,,,,2.0,2.0,1.0,,2.0,2.0,,,0.0,4.0,30.0,1.0,1.0,2.0,2.0,2.0,,0.0,,5.0,2.0,,,1.0,30.0,2.0,3.0,3.0,3.0,3.0,3.0,3.0,5.0,-7.0,5.0,0.0,5.0,0.0,4.0,0.0,0.0,,0.0,,,6.0,-7.0,6.0,2.0,,,0.0,0.0,2.0,2.0,2.0,2.0,2.0,2.0,,2.0,,,,2.0,,,,2.0,,,,4.0,4.0,2.0,2.0,1.0,2.0,,,,,,,2.0,,3.0,-7.0,0.0,,,0.0,4.0,2,2.0,2.0,2.0,2.0,2.0,2.0,2.0,2.0,,,,,,5000.0,30000.0,4.0,1.0,,,,,,12,2014,0.0,0.0,13639017600.0,65798.643,1,,,3.8636057,3.8489463,5.9664536,180000.0,one hundred and eighty thousand,-7.0,50000.0,50000.0,60000.0,25000.0,5000.0,30000.0,,5000.0,6,0.0,155.0
